/* XPM */
static char *_e680ec8b3ad4848ff8a28836ead82beS1jsEgQBPql46UGH[] = {
/* columns rows colors chars-per-pixel */
"672 384 256 2 ",
"   c #020204",
".  c #0B0302",
"X  c #050609",
"o  c #09060A",
"O  c #06080C",
"+  c #0A0B0C",
"@  c #0A0906",
"#  c #130401",
"$  c #1A0500",
"%  c #150904",
"&  c #1B0A04",
"*  c #130D0B",
"=  c #1B0D0A",
"-  c #13060A",
";  c #1C120D",
":  c #15110D",
">  c #040B13",
",  c #0D0E11",
"<  c #040C18",
"1  c #120E12",
"2  c #190E14",
"3  c #0F1014",
"4  c #0D131B",
"5  c #06111C",
"6  c #121215",
"7  c #1B1413",
"8  c #14161A",
"9  c #16191C",
"0  c #1A1A1D",
"q  c #1A1818",
"w  c #0E100E",
"e  c #230B03",
"r  c #2C0C02",
"t  c #250904",
"y  c #370C01",
"u  c #24130C",
"i  c #2B140C",
"p  c #291509",
"a  c #371608",
"s  c #231512",
"d  c #241A14",
"f  c #2C1A14",
"g  c #231C1B",
"h  c #2A1D1A",
"j  c #291613",
"k  c #331C14",
"l  c #3B1D14",
"z  c #351B16",
"x  c #240D15",
"c  c #29211D",
"v  c #34231C",
"b  c #3B241B",
"n  c #3A2417",
"m  c #39240E",
"M  c #0A1827",
"N  c #141A23",
"B  c #1C1D22",
"V  c #131B28",
"C  c #081B32",
"Z  c #231E22",
"A  c #361E21",
"S  c #1E2125",
"D  c #1B222A",
"F  c #0A2339",
"G  c #172636",
"H  c #102433",
"J  c #222225",
"K  c #2B2424",
"L  c #24252A",
"P  c #26292D",
"I  c #2A2A2D",
"U  c #2A2729",
"Y  c #332C2C",
"T  c #382925",
"R  c #3A322D",
"E  c #2C2D32",
"W  c #252B33",
"Q  c #332E32",
"!  c #2E3135",
"~  c #2C333A",
"^  c #323236",
"/  c #3B3434",
"(  c #34353A",
")  c #36393D",
"_  c #393A3E",
"`  c #3A3739",
"'  c #2B3129",
"]  c #1C211D",
"[  c #421202",
"{  c #471A08",
"}  c #561903",
"|  c #43180C",
" . c #621E00",
".. c #592409",
"X. c #472619",
"o. c #572A16",
"O. c #502B13",
"+. c #632301",
"@. c #672906",
"#. c #693403",
"$. c #743B00",
"%. c #783705",
"&. c #683517",
"*. c #763916",
"=. c #6E2C09",
"-. c #462C25",
";. c #47332A",
":. c #563628",
">. c #463937",
",. c #54352C",
"<. c #693A26",
"1. c #794306",
"2. c #52433A",
"3. c #6D4935",
"4. c #5E441F",
"5. c #082946",
"6. c #0E314E",
"7. c #3C3D42",
"8. c #363B42",
"9. c #293645",
"0. c #063B64",
"q. c #423E42",
"w. c #523F42",
"e. c #3E4145",
"r. c #3E434A",
"t. c #354554",
"y. c #064971",
"u. c #2D526C",
"i. c #414246",
"p. c #44454A",
"a. c #46494D",
"s. c #494A4E",
"d. c #4A4646",
"f. c #554A48",
"g. c #454B52",
"h. c #4B4D52",
"j. c #484B55",
"k. c #4E5155",
"l. c #4D5359",
"z. c #515256",
"x. c #53555A",
"c. c #56595D",
"v. c #595A5E",
"b. c #5B5655",
"n. c #555050",
"m. c #695650",
"M. c #5A5D62",
"N. c #565B61",
"B. c #485C6E",
"V. c #5E6166",
"C. c #5E6369",
"Z. c #5D6770",
"A. c #616266",
"S. c #62656A",
"D. c #66696E",
"F. c #6A6B6D",
"G. c #6A6667",
"H. c #6A6D72",
"J. c #666B71",
"K. c #6E7176",
"L. c #6E7379",
"P. c #72757A",
"I. c #76797E",
"U. c #757678",
"Y. c #746C6C",
"T. c #6E615B",
"R. c #3D403D",
"E. c #863A06",
"W. c #8E390D",
"Q. c #A13A0D",
"!. c #8F4C08",
"~. c #B35307",
"^. c #9A6400",
"/. c #87620F",
"(. c #A36A00",
"). c #B77306",
"_. c #914F27",
"`. c #A1622B",
"'. c #C45C07",
"]. c #CC6B0E",
"[. c #DE7A13",
"{. c #906A55",
"}. c #8B7369",
"|. c #9E7058",
" X c #CA9A08",
".X c #CC900A",
"XX c #EF920C",
"oX c #D4A409",
"OX c #D4A907",
"+X c #E8B903",
"@X c #F3B00F",
"#X c #EEAA2D",
"$X c #F8C917",
"%X c #F9D519",
"&X c #EEC90D",
"*X c #FFDD2C",
"=X c #FBD826",
"-X c #FFDA38",
";X c #FDCA2A",
":X c #FEE42B",
">X c #FFE534",
",X c #FFF53A",
"<X c #FFF329",
"1X c #F0D715",
"2X c #FFDB43",
"3X c #FFD845",
"4X c #FCCB4A",
"5X c #FFE546",
"6X c #FFF847",
"7X c #FFF756",
"8X c #FDE866",
"9X c #C0933F",
"0X c #146488",
"qX c #7A7D82",
"wX c #767B81",
"eX c #427088",
"rX c #7D8186",
"tX c #7E8389",
"yX c #4795B5",
"uX c #5EB1CF",
"iX c #5FF2FA",
"pX c #3199B2",
"aX c #82858A",
"sX c #85898E",
"dX c #86878A",
"fX c #8A8D92",
"gX c #868B91",
"hX c #8D9296",
"jX c #94979B",
"kX c #8F9090",
"lX c #999DA2",
"zX c #9DA2A6",
"xX c #A4A7AB",
"cX c #A9ADB2",
"vX c #ADB2B6",
"bX c #B4B7BB",
"nX c #A39C9B",
"mX c #B9BDC2",
"MX c #BDC2C6",
"NX c #AFF9FE",
"BX c #C4C7CB",
"VX c #C9CDD2",
"CX c #CDD2D5",
"ZX c #D4D7DB",
"AX c #D1CDCE",
"SX c #DADDE2",
"DX c #DEE1E5",
"FX c #C6FDFE",
"GX c #E5E8EB",
"HX c #EBEEF1",
"JX c #FBFCFD",
"KX c #F4F5F8",
"LX c #EEF1F4",
"PX c #DEE0DF",
"IX c #C3BFBE",
"UX c #817E81",
/* pixels */
": ; ; : s f u $ % % # . o , , O + , + O O o o o + q 0 8 , , , , O + + + + o O   + , + o o + + + + o o o o + + + o o w + @ X + w o o o + + o o + o , , + , + + + o 8 O 3 6 6 6 , 3 6 6 6 6 6 6 6 6 6 6 6 8 8 8 8 8 8 8 q 0 0 B S J J U I E ^ _ e.I h.p.s.s.p.h.h.k.k.k.z.z.k.k.h.h.v.E X 8 , + O   8 i.a.` ` I 0 8 9 9 8 6 6 6 6 6 6 6 6 6 6 6 3 6 6 6 3 3 , , , 1 1 , , , , , , + 6 3 , 8 B N 4 V M M M M V H H F F 5.6.6.6.6.0.0.0.0.y.y.y.0.y.0.0.0.0.0.6.5.6.5.5.F H C G M M N N 4 3 , E 8 O O   O           .           @ : . . * * . .     O   . $ a &._.} t $ X.a & $ b f @ % r O.r } W.*.t .   K b # # # o.=.W.Q.Q.Q.Q.Q.Q.W.E.W.*.*._.<.;.;.;.>.>.d.g.g.g.k.k.k.x.c.x.x.c.M.M.V.V.V.A.S.A.A.S.S.S.S.V.V.M.M.N.c.c.x.x.x.h.j.g.r.p.d.2.,.:.3._._._.W.E.Q.Q.Q.Q.Q.Q.Q.Q.=.<.p   . r O.# # $ @._.*.y a X.$ & = k t . $ <.[ y r @.{...r # , > > X O . 7 @ @ + 8 +             O X     O O + O X 3 W N < V M V V M C F F 5.5.5.0.6.0.0.y.y.y.y.y.y.y.y.y.y.y.0.0.0.6.6.5.5.5.F H H C V M V N 8 , I ( 9 , 8 , 3 , 6 6 6 3 + 8 6 6 8 6 6 6 6 6 6 8 6 , 6 6 6 8 6 6 3 6 6 8 8 8 0 J ^ ` _ R.U X     + 3 3 + B p.e.p.s.h.h.h.k.x.z.k.h.k.z.h.h.^ 7.p.i.( ( ! I I L L J J S B B B 0 0 0 9 8 8 8 8 8 8 8 6 6 6 8 8 8 6 6 3 6 8 6 3 6 3 , , , , , , , , , , , + + + 3 J 8 O , 6 + + + , , , + + , , + + , , + + + O O O O O > O > , < 4 N 4 5 > < < 5 M M 5 5 M M 5 M M M H 9.9.9.G C F F F 5.5.5.5.",
". * ; ; = u s f & % * + .   X , O + O O O o o o   o 6 0 9 , O + , + O O o + + O   O + 6 + @ o * o o o o o o o + o o + + @ o + + + o o o + + + + + , + + + , 6 8 , , , 6 6 , 6 , 3 3 3 6 6 6 6 6 6 6 6 6 6 6 8 8 8 8 8 q 0 0 B S J J U I ! ^ _ e.i.J h.h.h.h.p.h.k.k.k.k.k.k.k.k.k.k.a.P   6 3 O   O 8 e.s.` ` U 9 8 8 8 6 8 8 , 6 6 6 6 6 6 6 3 6 6 6 3 , , , , 6 1 , , 1 , , , , , , , 4 8 N N 5 M V V M M H H F 5.5.5.6.6.0.0.y.y.y.y.y.y.y.y.y.y.y.y.0.0.0.6.5.5.F F C V V N V N 4 4 4 L L +     X X         .             + + . . 7 . .   X X   . # r ..*...t $ i X.# # i k . # $ X.t [ _._.r . . d -.$ # # O.@.W.Q.Q.W.Q.Q.Q.W.*.*.*.*.3.<.-.;.;.>.>.d.r.g.g.k.k.x.c.c.c.M.M.M.V.V.V.A.S.S.S.S.S.S.S.S.A.V.A.V.M.M.N.c.x.x.x.l.j.g.a.d.>.>.:.3._.W.W.W.=.W.W.Q.Q.Q.Q.!.W.=.:.$ . . a X.# # t &._.+.r | a $ # i -.z u r o.r r { &.<.y t & o X > X   * : . @ : w     .               O O O O X O N B 4 4 V M V V C C F F 5.6.6.6.6.y.y.0.y.y.y.y.y.y.0Xy.y.y.y.y.0.6.6.5.5.F F H H V V V V N 9 8 B B 3 , 8 8 3 8 , + 8 6 , q 8 3 + 3 6 6 6 8 6 6 6 6 6 6 3 6 6 6 6 6 8 8 8 q J I ^ _ e.J o o   + + , + 0 i.7.i.p.s.s.s.h.h.z.x.s.z.x.a.x.i.i.p.s.p._ ( ^ E I L L J J B B B 0 0 0 9 8 8 8 8 8 6 8 8 8 8 8 6 6 8 6 3 6 8 8 6 , 6 6 3 3 3 , , 3 , , , , , + + + + 8 , O , , o , + , , , + + + , + + , , + + O O X X X O O O > > 4 4 4 < > > < < 5 5 5 5 5 M M M M H W 9.9.9.G C F F 5.5.6.5.5.6.",
"* . . : h s u u h * . * 7 + o , + + o X O + + + + O   + 8 0 6 O + + + + + o o o O     o + + o o o o + + o o o + o X o o @ o + o   + + o o o + + + + + + 6 + + 6 q + 6 + , + 3 6 3 3 3 3 3 6 6 6 6 3 3 6 6 6 6 8 8 8 8 q 0 0 B S J J U I ! ( _ 7.i.i.E s.h.p.s.h.l.k.l.l.z.z.z.z.h.x.s.a.P   3 3 O O   , _ i.^ ` E 0 8 9 8 3 6 6 3 3 3 3 6 6 3 3 3 3 3 , , , + + , + + + + , , , 3 , , 3 3 , 4 V 5 M M M M M H H C F 5.5.6.6.6.0.0.y.y.y.y.0X0X0X0X0X0X0Xy.y.0.6.6.5.5.5.H V D V N M N 8 4 8 E 3   X   O                     . + 1 . . s @ .   X   O . # t { &.&.r $ r ,.t $ t z t # $ X.y y *._.[ # . % -.$ . # [ @.E.W.W.W.Q.W.W.W.&.&.<.<.3.3.;.>.>.>.2.d.g.j.h.h.k.c.N.c.c.V.V.A.S.S.S.S.D.D.D.D.D.S.D.S.S.S.A.V.M.M.c.c.x.x.k.k.g.a.a.i.>.>.,.3.3.<.*.&.&.W.W.W.W.Q.!.!.%.+.o.. . . { a . # y *._.[ y X.t $ $ z t # $ X.:.r [ &.<.o.r $ # o   ,     7 * . + 6 X     .               O O O O X 3 L , 4 N N V M V V H F F 6.6.0.0.y.y.y.0Xy.0Xy.0X0X0X0Xy.y.y.0.y.0.0.6.6.F 6.G H H V V M V N 8 0 9 , 6 6 6 6 , 3 + , , , 8 3 8 , , 6 6 , , 6 6 , , 6 6 6 6 6 6 6 6 8 8 8 8 S I ! _ _ J o     O O 3 o 0 7.7.e.p.p.s.s.h.h.k.z.z.x.k.h.M.e.e.x.s.p.i.7.( ^ E L L L J S B B B 0 0 0 8 8 8 8 8 6 6 6 8 8 8 6 6 6 3 6 8 6 3 , 6 9 3 3 3 3 3 , , , , , , , + + + + + + + + , + o , + , , + + + , , + + + + O O X X X X > > X O , 4 4 4 > > > > < < 5 < 5 M M M M M D W 9.9.G H C F F 5.5.5.5.6.0.6.",
"+ * % . . = s s s h h * . 7 6 + + o o o o o + + O + +   O , 8 8 + + + + + + o O o o     o + + o o o o o o o o + + X o o o o + o X 8 0 8 + + + + + + + , 6 + + 6 + + + + 6 , + , , , , 3 3 3 3 6 6 3 3 6 6 6 6 8 8 8 8 8 0 0 0 B J J J U E ^ _ 7.7.x.7.^ h.h.a.k.k.z.x.c.c.x.z.k.k.h.h.a.s.0 X 3 3   + O 6 ( _ ! ( L 0 0 6 6 8 6 3 6 3 3 6 6 3 , 3 3 , , , + + + + + , 6 6 6 , , 3 , , 8 4 , , 8 N M M M M V V H H F 5.5.6.6.0.u.yXuXuXuXuXuXuXuXuXuXyXyXyXeX0X6.6.6.5.G H H D M V 4 V 4 4 > S 0 O     X                         1 . . * : . . .     . # t a o.<.X.$ $ X.-.r a -.A $ $ X.-.t &.3.o.$ . . X.r . # r @.=.W.W.*.W.*.*.3.<.<.<.:.:.2.;./ ` >.>.d.g.l.N.c.x.c.M.M.M.V.S.S.D.J.H.H.K.K.K.K.H.H.H.H.H.H.H.J.S.A.V.V.M.N.k.x.k.a.p.i.i.2.>.3.3.3.<.<.<.3.*.*.*.*.*.%.+.=.X.. # $ X.r # # } _.3.y { X.t $ z -.$ $ a ,.a t [ *.<.a $ . .     @   @ 7 . . * 6     .                 X O O O O B D , 4 N N V M V V H F 5.6.6.0.y.y.yXyXyXuXuXuXuXuXuXyXuXuXuXuX0X6.6.5.6.5.F H H V V M V V N , 9 8 , 8 8 3 , , 8 , 6 6 , 8 O 3 6 6 6 6 6 8 J 0 3 3 6 6 3 6 6 6 3 6 8 8 8 B U ! ` _ J     o   + + O B _ 7._ 7.p.a.s.h.k.z.x.x.x.z.z.M.p.7.x.h.s.7.7._ ^ E E L L J J B B B 0 0 0 9 8 8 8 8 8 6 8 8 6 6 6 6 6 6 6 8 8 , + 3 8 8 , , , , , , + + + + + + + + + + + o + , + + + + + + + + + + + , + + O O X O X O O O > > > , , 4 < < > > > < < < < < 5 M 5 M M D 9.W W H C C F 5.5.5.6.0.0.0.0.y.",
"7 * - . . . * ; h 7 d g 7 . . 1 @ + + + o o + + O X + + O   o 8 8 , O   o + + o O + o       + + + o o o o + + o o o o o o o + o o 6 q 8 + + + + + + o + + + 6 J L E , + 6 , + , , , , 3 3 3 3 3 6 6 6 6 6 6 6 8 8 8 8 8 0 0 0 B J J L I E ^ _ _ e.i.x.7.7.h.h.h.k.l.x.c.c.x.z.l.k.h.a.k.e.7.S   , , O o   , ( ` ! E L 0 6 9 9 , 6 3 6 3 6 6 3 , , , , + , , , , + 6 0 J J 0 6 , , , , 3 3 , , 4 N M 4 M M M V V H F F 5.6.5.6.u.NXNXFXFXFXFXFXFXFXFXFXFXNXNXNXy.5.6.5.F G H V V N M V 8 8 , 3 L 3       X                     . + 1 . . : . . .     . . $ r { &.O.r $ r O.$ # t f # # i :.t y <.&.r . . l z . . r o.y r r y y | | X.l k X.b b T / ` _ 2.i.s.k.l.( 7.7.) 7.7.e.r.p.p.a.a.a.g.h.k.k.h.h.h.h.h.h.h.h.g.p.e.e.7.7.) p.x.k.a.r.r.r.` R ;.b X.X.l a a a y y r r y [ &.r . # u X.$ # $ @._.&.t { a # # l -.$ $ a | $ t } _.o.$ .   X . . .   : : . % 7 +                       O X   O 3 S 8 3 4 N N M M V H H F 5.6.6.6.0.yXFXFXFXFXFXFXFXFXFXFXNXNXNXNXy.6.6.5.5.5.C H C M M M N N 8 8 8 6 6 3 6 6 3 6 ^ 0 8 U 8 , 8 , 6 6 , 3 0 U ^ B 6 6 6 3 , 6 3 6 3 3 6 8 q J ^ ^ _ J       O + , + q ` _ _ p.i.a.s.h.h.z.z.x.x.x.z.M.h._ x.x.p.p.7.7._ ^ E E P L J J B B B 0 0 9 9 8 8 8 8 8 6 8 6 6 6 6 6 6 6 3 3 , 3 L _ _ E , , , , , , + + , , , , + , + + , + , , + + + + + + + + + + + + + O O X X X O O > X X > , 4 , X > > > < < < < < < 5 5 5 5 M G 9.W G H C C F F 5.6.5.5.0.0.y.y.0X",
"/ g * * : * . . * s d 7 s g 7 . . @ @ + + o + + + X   O + o     3 6 6 , + O o + o O   o X     o + o o o o o o o o o + + o o + o o o o @ o + + o + + + + + + 6 0 ^ _ 6 o + + , 6 , , , 3 3 3 3 6 6 6 6 6 6 6 6 8 8 8 8 q 0 0 B S J J L I ! ^ _ 7.7.e.e.x._ e.x.x.k.z.x.c.c.c.c.c.k.x.a.h.p.a.s.8   6 O       3 ` ( ^ I J 0 6 6 8 6 6 6 6 6 6 3 3 3 , , + , , 3 3 + 6 8 0 q 8 6 , , , , , , 3 4 4 , 4 N N M M M V C F F 5.5.6.6.0.0XuXNXNXFXFXFXFXFXFXNXNXNXNXNXpX5.5.6.F F H M V V N N N 8 8 + J 0       o                         6 . . % ; . .     . . # $ y o.X.a r r o.a t e n f . # a a y <.<.{ # . u T . . $ -.a $ $ $ # # $ $ # & T ;.R R ^ ` _ _ i.i.p.a.B ! 7.7.7.e.i.p.p.p.a.a.a.a.g.h.a.a.a.a.a.a.a.a.i.i.e.7.7.e.7._ ` s.s.s.p.r.p._ ` R T T f & $ # $ # # # . $ { :.# . # z z # # r *._.[ r X.t # & i r # t o.y a O._.*.| # . X X @ @ . . 7 . . * 7 .     .               O O X   + 9 B , 8 4 4 V M M V H H F 6.6.5.6.0XNXFXNXFXFXFXFXFXFXFXNXNXNXNXeX5.6.6.5.F F G C M M M N M 8 8 9 , 6 8 , , 6 3 O 0 , + 8 + O 3 , 6 3 + 3 0 B 0 6 , 3 6 6 6 6 6 6 6 6 8 q J I ^ ( S O     O O + O 8 _ _ ` i.e.a.a.s.h.z.z.z.x.x.x.x.h.7.v.z.s.s.p.i.7._ ^ E I P L J J B B B 0 0 9 8 8 8 8 8 8 6 6 6 6 8 6 6 6 3 6 6 , , 0 I J 6 , , , , , , , , + + , , , , + + + + , + + + , o + O + + + + O O   X X O X O X X X O , , , , O X > > < < < < < < < < < M G ~ 9.W V V C C F 5.5.5.5.6.0.y.y.0XpXiX",
"q.>.Y 7 + : : . . - ; s s d d s * % @ + + + + + X , , O     @ o   , 8 8 , o o + + O   o + o     X o + + o o o + o o o + o o + o + o o o + + + + o + + + , + o + + 6 o , 6 3 3 + , 3 3 3 3 6 6 6 6 6 6 6 6 6 6 8 8 8 8 q 0 0 B S S J U I E ^ _ 7.i.7.p.p.z.i.s.x.x.c.c.v.c.c.c.v.x.h.x.p.k.k.a.r.6   6 6 O O   + ^ ^ E I L 8 , 0 6 6 6 6 6 3 3 3 3 3 , + + , 3 3 , , + + + + , , , , , , , 3 4 4 , 4 8 N M M M M H F F 5.5.6.6.6.y.yXNXNXNXNXNXNXNXFXNXNXNXNXNXNXy.F 6.5.F H V V V V N N 8 8 , 8 J +     O                         1 . . . ; . . .     . # $ e X.:.l t t a X.$ # r b & e X.:.r { <.O.# . # T @ . # -.b # . o . . # # . - K R Y U ^ ` _ i.i.i.p.s.! p.k.x.x.c.c.c.c.M.V.V.V.V.V.V.V.V.V.V.V.V.V.M.v.M.v.c.c.M.c.z.>.s.a.a.a.e.r._ ^ / Y R g . - . . . + , . $ O.X.. . # T s . . { 3.*.r { X.t t b -.$ t o.3.t $ l 3.o.t . X     . . . : :   @ : *                     O O O   O 6 S 3 , 8 8 N V M M V H H F 5.5.5.y.uXNXNXNXNXFXNXNXFXNXNXNXNXiXpX0.0.6.5.5.5.C H C M M M 4 8 8 8 8 3 6 6 6 3 , , , + + 6 + , 6 6 , 3 3 , 6 6 + O + , , 6 6 6 6 8 6 6 8 q J I E ! J     O O O + + 3 ( _ 7.i.e.p.p.s.h.z.z.z.z.x.x.c.h._ v.x.h.h.s.i.i.7.( ^ ! I L L J J B B B 0 0 9 8 8 8 8 8 8 6 6 6 6 8 8 6 6 6 , 6 6 3 6 8 6 + , , , , , , , , + + + + , + + + + + + + + + + + + + + + + O O O     X X O O X X X , 8 3 > X > < < < < < < < 4 4 5 < M G 9.9.G V M C C F F 5.5.6.5.0.y.y.0XiXiXiX",
"` Q / ` U + . * * . . * d h h h 7 = # @ + + o O , X X + + o   @ o O O + 6 8 , O o + + O O + o     o + + o X o + o o o o o o + o o o + + o X o + + + + o + + + + 3   , , + + 6 + 3 3 3 3 6 6 6 6 6 3 3 6 6 6 6 8 8 8 8 q 0 0 B S S J U I E ^ ) 7.7.s.p.s.x.x.i.a.x.c.M.M.M.c.c.x.x.c.h.x.s.p.a.h.7.8   6 ,   O   8 ^ ( I I L 8 , 6 6 6 6 6 6 3 3 3 3 , , , , , 3 6 6 , 6 6 6 3 , , , , 4 4 , , 3 4 4 4 4 M V M M C C C F 5.5.6.0.0.y.pXuXuXuXuXuXuXuXuXuXuXuXuXuXeXF 5.5.F G V V V V N V N 8 9 O L 6       o                     O   * . . ; * . .     . . % # i X.X.X.X.{ o.r $ t | $ # y | t [ <.o.$ . . R * . # l -.-   O . . . . . o 7 0 q 0 0 B J L I ^ 7.i.z.z.k.h.k.z.x.c.c.v.V.V.V.V.V.V.S.S.D.D.D.S.S.V.M.M.v.c.x.c.k.s.s.s._ 7.` P P S L J g K q . + . . . O O . $ :.l . . $ T * . . o._.=.t o.l $ $ X.a # t { { | ,.,.{ y # .   X .   . . 7 o . : ; @                     O O X   + B S O 8 8 4 N V M V H H G 5.6.5.5.0XuXuXuXuXuXuXuXuXuXuXuXuXyXpXy.0.6.5.6.F F 6.C C M M N 4 8 8 8 6 8 , , 6 6 , 6 6 + , , 3 3 + , , , 3 6 6 6 6 8 6 8 6 , 6 6 3 6 3 6 8 0 L ! ^ I         o o + 6 _ ^ _ e.7.d.s.h.s.h.x.x.x.x.v.N.z.p.z.z.z.h.s.h.i.p.7.( ( ( E L L J J B B B 0 0 9 9 8 8 8 8 8 8 8 8 8 6 3 6 6 8 6 , , , 6 6 3 3 , + + + + + + + + + + + + + + + + + + + + + + + + + + , + O O   O O X X X O O > 4 , > X O > < O < < < < , 4 4 4 5 V W 9.~ V M V C C F 5.5.5.6.6.y.0.y.pXiXiXiXiX",
"` ` / ` ` Q 0 @ @ * % . # : d f d d 7 * . o + + + O O o o o @   o o o O + 6 6 6 + o o o O O O O +   O + + + + o + + o o o + + + o o o + + + + + + + + + + + + + + + + + , , , , , , , 3 3 3 3 3 3 3 6 6 6 6 6 6 8 8 q q 0 0 0 B J U J U E ^ ( _ i._ a.p.h.s.x.i.h.V.V.c.M.M.v.M.M.x.k.k.k.h.a.a.p.i.6   0 ,   +   , E ` J J J 6 6 6 6 6 6 6 6 , 3 3 , , , , 3 , w w 3 , , , , , , , , , , , 3 3 , 4 4 4 4 M M M M C C F F 5.5.6.6.0.y.y.y.y.y.0X0Xy.y.y.y.y.y.y.6.5.F F G G V D V V V N N 8 4 3 8 E o   O   O                       * @ . * 7 . +       . . . # t y a X.....o.{ y o.a t t o.O.y *.<.y # # j f # # p ;.%     @ . @ . . o 6 0 0 0 q q 0 0 8 0 J E ^ ( 7.7.7.7.i.i.i.p.a.s.h.s.s.a.p.s.s.h.h.h.s.s.p.p.p.p.p.p.i.i.q.I 0 0 B B B 0 q q q 7 * @   @ . . O O . e :.r . # t l . . y 3._.} [ o.r $ [ { a a { ..o.o.X.l t $ . .   . . . % * 1   o 6 : .                     + X   O + E 3 3 4 8 N N V M V H C H 6.F C 6.0.y.y.y.y.y.y.y.y.y.y.y.y.y.0.0.6.6.5.5.F F H V M V N 5 4 N 8 3 6 6 6 3 3 3 3 3 , , , , , , , , , , , 3 3 3 3 3 , , 6 6 6 6 6 8 6 8 S J U ^ J         O , O , 7._ _ 7.i.i.d.p.s.h.z.h.z.x.x.M.z.i.x.c.z.p.k.s.p.a.( 7._ E ( L L L J J B B 0 0 0 0 9 8 8 8 8 8 6 6 6 6 6 6 6 6 6 3 6 6 3 , , , , , + + + , , , , + + , , , + + + + + + + + + + + + O + + O O O X O X X O O O , 8 , O X > < > > > < O O 4 4 < , 4 D W ~ G V M M C F F F 5.5.5.0.y.y.0XuXiXiXiXiXiX",
"` ` ` ` ` ` / R : @ % * # . % s h h g 7 : * o O o + o O o + +   X o o o o + 3 6 6 + o O O O O O O o o   O 6 ,   O o o + + + + + o o o + + + + + + + + + + + + + + + + + + , , , , , 3 3 3 3 3 6 6 6 6 6 6 6 8 8 8 8 8 8 q 0 0 0 J J U L I ^ ! ( ^ ( p.h.h.x.M.z.7.c.V.V.M.V.v.V.v.c.x.k.k.k.h.s.p.7.) 6   8 +       6 I ^ I S J 8 6 6 6 6 6 6 6 3 3 , , , , , , w w 3 , , , , + , , , , , , , 3 6 6 4 8 8 M M M M M C C C F F 5.5.6.0.0.0.0.0.y.y.y.y.y.y.0.0.6.6.5.F C G G D V V V V N 8 8 4 3 6 J 8       O                       6 6 . . % * + 6 6 o . . . . . # # t y | X.X.O.o.X.X.X.:.:.:.<.3.o.t # p b t # & -.u .   @ . . . . .   o O + O o + , , + + , X O O O O + + , + + + + + + + + + + + + + + + + O O O + + + + + + o X O O O O +     . . .   o @ @ @     . i o.t % u l a # # | 3.*.} o.:.X.X.o.X.X.X.O.{ y r $ # . . . . . . @ : @ o + O , 6 @                       X       J S 3 3 8 8 M N V V V V H G G C C 5.5.6.0.0.y.y.y.y.y.y.y.y.0.0.0.6.5.5.F F F F H V M M 4 4 8 8 8 8 6 6 6 3 3 , 3 3 , , , , 3 3 3 3 , , , , 3 3 3 3 6 3 , 3 6 3 6 6 8 B J I ! 0   O     O +   6 e.` _ _ 7.i.i.p.s.h.c.h.v.v.x.M.x.s.M.S.v.h.h.x.s.7.( s.e.( ( P E I J J J B B B B B 0 0 8 8 8 8 8 8 8 8 6 8 6 6 6 6 6 3 3 3 3 , , , , + + + , , + + + + , , , , + + + + + + + + + + , O O O   X O O X O O X O 3 3 O O X O > > > > , < < < < 4 N D W ~ W D M M M C C C 5.5.5.0.y.y.0XuXiXiXiXiXiXiXiX",
"` ` ` ` ` ` / R R g % . # % # . = 7 g g g 7 * + . + + o o o o o   o o o     o + 6 6 + o O O O O   O + +     o + O o o o o + + + o o o o + + + + + + + + + + + + + + + + + + + + + + + + , , + + , , , 3 6 6 6 6 8 8 8 q 0 0 S J J B I L I ^ L E 7.E ^ x.h.z.x.S.V.e.c.v.V.V.V.c.M.V.M.x.k.k.k.s.h.a.s._ 6 + 6 + O     6 I ^ I J 0 8 6 6 6 3 3 6 , , , , , , , , w w w w , , , , , , , , , , , , 6 6 4 8 4 4 M M M M V H H C F F G F 5.6.6.6.6.6.6.6.6.6.6.6.5.5.F F C M H G G V V V V N 8 8 8 8 , 8 U +   O O                         : @ . . * o o + , o   . . . .   . . . # # # # % # $ # $ e r a i # @ % v i & $ -.k .   . . . . . . . O O O + . o + , O O O , + + O + + + + , , + + + + + , , , , , + , , , , , , + + + + + o o + , + X O o o . . . . . o . . @ . . # b X.r u ; u % . % u r r e t & # % # . . . # # . . . .       . - * - . + o o 1 1 +                       O   O X , I 6 3 4 8 8 N N V V D V G G C C F F F F 5.6.6.6.6.6.6.6.6.6.6.6.5.5.F F C H H H V M V 4 5 8 8 8 4 8 6 6 3 3 , , , , , , , , , , , 3 , , , , , 3 3 3 6 3 , 3 6 6 6 8 0 0 L I B O   O     ,   , ( _ _ _ 7.e.i.p.s.h.z.z.c.x.v.v.M.p.x.v.h.h.x.v._ I ( p.0 _ ( ) E I L L J J B B 0 0 0 9 8 8 8 8 8 6 6 6 6 6 3 3 3 , , , , , , , , , , , , + + , , + + + + + + + + + + + + + + + + + + + O     O O O O O X O , 3 , > > X O > > > > < , < 4 4 < 4 D W ~ G V M M M C C C 5.5.0.0.0.y.pXiXiXiXiXiXiXiXiXiX",
">.>._ ` ` ` ` / ` R K 7 . . # % . % : g h g 7 7 - @ o + + X O + X o o X     O o O + , , o   O O     + 3       + + + o O O o + + o o o o o + o o o o + + + + + + + , , , , 3 3 3 , , , , 3 3 3 3 6 6 6 6 6 6 6 8 6 6 8 8 8 0 0 B S B U L I I B B lXh.0 7.h.x.h.c.V.S.e.z.v.c.x.V.c.M.c.z.h.h.h.a.h.s.e.s.^ + O , +       + U ^ B B 8 6 8 8 6 3 3 , , , + , , , , w w w w + , , , , , , , , , , , 3 , 3 4 4 4 4 4 M M M M C H H H G G G 5.6.6.6.6.6.6.6.6.6.6.5.G G 6.G M M D D N V V N 4 8 8 8 8 6 6 U 0     O                           @ @ @ @   + + O o 6 *         X     .   . . .   . . . . . # # # .   . . . . u u . o - @ . . . . . O O + + . . O X O O + + O O + + + + + + + , , , , , , + + + , , , , , + + O O O + + + o O O + , O + + o . . . . @ + + + * . # # f p # .   . . .   . . . . .             . . . .         X + - - # . . + + + + O                         O   O   J 0 , 3 3 4 8 N N V V D V G H M M F G G G G 6.6.6.6.6.6.6.6.6.6.9.9.9.G H H H H M M M N 4 4 N 8 4 3 8 3 3 3 , , , , , , , , , , , , , , , + , , 3 6 6 , , 3 6 6 6 8 8 0 J L q     o     +   6 ( ( ^ 7._ 7.e.i.p.s.h.k.s.x.x.h.M.i.h.M.x.z.v.x.7.6 7.jXV.O 7.( I E L I L L J B B B 0 0 0 0 9 8 8 8 8 8 8 6 6 6 6 6 3 , 6 3 , , 3 3 3 , , + + + , , , + + + + + + + + + + + + + + + + + X X   X , + X O O O , 3 , X X > O > < > > > > > < 4 4 V D P D V M M M M C C C F 5.5.0.y.0XuXiXiXiXiXiXiXiXiXiXiX",
"` ` ` ` ` ` >.` Y Y Y Y g @ . - . . . * s h d 7 7 * . . + + + + o o X X       O   O + , + + O O   O + O   O O   o o O o o o o o o o o o o o o o + + + + o o o o + + + + + + + + + + + + + , , , , , 3 3 6 6 6 6 8 8 q q 0 0 0 B S J J U I L B 0 9 , 0 _ s.h.z.v.x.M.v.e.c.V.V.V.c.c.x.x.x.k.h.h.s.p.a.7.7.! , , ,         3 J U J q 6 6 6 6 6 6 , , , , , , , , w w + + + + + + , , , , , , , , , , , 4 4 4 4 4 5 M M M M V H H H F 5.F F 5.5.5.5.5.5.5.5.5.5.F 9.9.G M 5 V V V N N 4 4 4 8 8 8 8 , 8 J O     O                           .   o +     + + o . * +     O               . . . . . . . . .     . .     . % O , + + , + * * 6 3 3 6 7 : 7 8 8 8 8 0 q 0 B B B S J J J J J L L L L L J J L L L L L L J S B B B B B 0 8 6 6 8 8 8 8 7 7 6 6 : : 1 7 6 3 3 w @ . - .       . .     . o . . . . .   O   . .         .   X O + . . . + + + o . .                         O O     + L , 6 3 4 8 8 N N V V N V D V M M H G G F 5.5.5.5.5.5.F 5.5.5.5.F F C F H H H M M M V 4 4 8 8 4 3 3 3 , , , , , , , , , , , , , , + + + , , , , , , 6 , 3 6 3 , 3 8 q J U 8           + O , I ( ^ ` 7.7.7.i.i.a.s.h.k.z.z.z.v.p.s.M.c.x.z.h.p._ 8 0 7.6 8 ( ( ! P I P J B B B 0 0 0 0 9 8 8 8 8 8 8 6 6 3 6 3 3 3 , , , , , , , , , , , , + + + + + + + + + + + + + + + + + + + O O O       O , O X + O , , O   X O X > > > > > > > > < 4 B P W D 4 < M M M C C C F 5.6.0.y.pXiXiXiXiXiXiXiXiXiXiXiXiX",
"g K / ` ` / Y Y / Y U Y Y U 7 . . . . . # : d d 7 d 7 - o + , + + X     o o O   O     O , 3 , O O   o + O           O + + + O O o o o o o o o o o o o + + + + + + + + + + + + + + + + + , , , , 3 3 6 6 6 6 6 6 6 6 8 8 8 0 0 0 0 J B J I U I L 8 L 7.p.h.s.z.h.v.s.M.c.e.V.V.c.V.M.c.c.c.x.k.h.a.p.p.7.7.e.P O o + O       + J L J 0 6 6 6 6 3 , 3 , , , , , , w + + + + + + + , , , , , , , , , , 4 4 4 4 4 4 < 5 M M M M M V C F F C C F F F F F F F F F F F C V V 5 N V D N N N 4 4 8 8 8 8 8 , 3 E 8   O O                                   + +     . + . o   .     X         . .   . . . O O . .     .   > X .     O         . . .       . . @ o > O o @ + + + + + + , , , , , , , , 3 3 6 6 3 , , , , 3 , , + + + + O O O O + + O O . O                 X   .   .     X X     .   . O     . . . . .     . .           .       . + 1 , +             X                     O X O S B 3 3 3 4 8 8 M N V V V D V V D V V H F F F F F F F F F F F F F H C C V V V M M M M V 4 8 8 4 , 3 3 3 , , , , , , , , + + + + , , , , + + + , , , 3 3 , 3 6 , , 8 0 J J 6           o + + ! ( ^ 7.7.e._ 7.i.d.s.s.k.z.z.z.x.k.7.M.v.k.h.z.z.h.h.) J B J i.( I E L I L L J S B B B 0 0 8 8 8 8 8 8 6 6 6 6 6 6 6 6 3 3 , , 3 , , + , , 3 3 , + , + + + + + + + + + + + + + + o O O           O + O O , , > X X X X > O > O > > > < < , N V D D V 4 < M M M M M M C F 5.y.pXuXiXiXiXiXiXiXiXiXiXiXiXuX0X",
". : c Y / / / R / / Y U U K q . . @ @ . . ; d s = 7 g q 1 + + , + .   o o o O O o       + , , + +   + 6 o     +   O o + + + o O o o o o o o o o o o o o + + + + + + + , , , , , , 3 3 6 3 6 6 6 6 6 6 6 8 8 8 8 8 8 0 0 B S J J J L U I ^ ( ( _ 7.7.p.p.h.h.z.x.z.V.c.V.c.e.S.S.D.S.V.V.M.M.c.k.h.h.p.s.p.7.e.S + 6 +   O     , 0 J S 8 6 6 3 , , , , , , , + + + + + + + + + + + + , , , , , , , , , 4 4 4 4 4 5 5 M M V M V M M C H C H H H H H H H H G H G G V V V N D N N 8 9 4 4 4 8 8 8 8 6 6 8 L B O O                           O           o + + . . * @   . .   O . .     . .               . .     O         . o   O X X . .   X X X . . .   X O @ o O O O O O O O O O O O O O + O + O O O O O   X X         O O O X       O O O o o           O O O O O . . .   X X     o . . . X       . . . . O   . .   X X   . .   . @ + + O X O         . . X                       X , L 8 8 , 3 3 8 8 M M V V N V N V D G V H H H H H H H H H H H H V V V V V V V V M M M M M 4 N 8 4 , 3 3 , , , , , , , , , + + + + , , , , + + + , + , , , , , 3 3 6 0 B J 6     O     + , + I ^ ( _ _ i._ d.a.s.h.z.x.c.v.c.z.M.e.M.v.v.x.z.z.h.h.h.a.7.e._ _ ( ^ ) ( E L L L J B B B 0 0 0 9 8 8 8 8 8 8 8 8 6 6 6 6 6 6 3 3 3 3 , , , , + + + + , , + + + + + + + + + + + o O O O O O O O   O + + + , 6 , X X O O X X > O O > < > > 4 8 B D D D M > < M M M C M C F 5.5.y.uXiXiXiXiXiXiXiXiXiXiXuX0Xy.y.",
"7 : : 7 h Y / / / Y Y Y K 6     * * . . 7 K h % % . @ J U 8 , 6 o O   o + O O O   O   O O O > > 3 + , + O O O   + + + o o + + + o o o o o o o o + + + o o O O O       O O O O O       O O O O O     O o + + + o O + + + + + + + + + 8 6 8 0 6 0 9 0 B B L I ! ( ^ P ) 7._ p._ p.7.e.e._ _ 7.) ^ ( ! ( ^ ( ^ E ^ 6 O   o O       O 8 0 0 6 6 6 3 , , , , , , + + + + + + + + + + + + , , , , , , , , , , 4 4 4 4 M 4 5 5 M M V V M M M V V V V H V V V V V V V V V V N V N 4 3 S 8 8 8 8 8 8 8 8 8 8 8 6 6   O                               O           @ + . . + . + @ O , o - , o + + 6 + 3 , 3 + 1 @ * + + , 4 , : : 7 2 0 8 9 9 q q 0 B S S c c J L P W I U E E ^ ( 7.7.7._ 7.7.i.p.a.a.p.p.i.i.p.p.p.p.i.i.e.7.7._ _ ) ( ! ! ! I I I I U J J J S S S B 0 9 8 0 : 7 7 6 4 , w @ 1 * % @ 3 3 > 3 + @ * + O + + o O > < 3 + @ + . . @ + X         . @ .   X O   .           X o     , 6 8 8 8 3 4 8 8 4 4 N N N M M V V V V V V V H H H H H V V V V V V V M M N V N 4 4 M 5 < N 8 4 4 4 3 3 , , , , , , , , , + + + + , , + + + + + + + , , , + , 3 6 8 8 8 6           O + 6 S J L J L I I I U U E ^ ^ ` _ _ e._ P 7.( ( ^ ( I I L L L I L J B B J 0 0 8 8 8 6 6 , , 6 6 6 , , , , , , , + + O O O O O O O O O O X O O O O O O O O O + + + + + + + + + + + + + + O O O + , , O   X , , , 8 8 X < 3 > X X > > O O < < > O 4 B D G W W G M < < M C H C C C 5.5.5.0XuXiXiXiXiXiXiXiXiXpXy.y.y.y.",
"7 7 7 * * : K / / R U g * . . * g . . . K g @     8 J 0 B J 8 + O , + O O O X , O   . + O O 5 M 4 3 O X X X + + , + + , + O o + + o o o o o o o 6 q Z L L I E ^ ( ( _ _ 7.7.i.i.i.i.p.p.p.a.h.h.z.k.h.k.z.x.c.v.v.v.v.M.A.S.S.D.D.S.V.V.V.V.A.S.V.S.D.H.H.H.H.H.P.K.F.S.S.S.A.v.d.i.i.a.a.i.e.i.( ^ ^ ^ E I I I ^ J +               + 6 6 w + + 3 + w w + + + + + + + + + + + + + + , , , , , , , , 3 3 3 3 4 4 4 4 4 5 5 M M M M M M M M M M M V M V V V V V M M N N N N 8 4 4 N 8 4 8 9 8 8 8 8 8 + + 6 +             O O                   +           o o   X + + o + + o o + o + + + + + + + + + + + + + + 6 6 6 : 7 8 q 8 0 0 g J J L U U I Y ^ ( _ _ 7.i.a.s.h.z.x.c.N.M.M.A.S.M.D.H.V.H.F.H.K.F.H.H.F.K.F.F.S.M.v.x.z.h.s.s.d.i._ _ ( ^ ^ E I U J J J Z B 0 q 7 6 8 6 6 : : * * + + + + + + + + + + + + + + + + O + + . + o           O o .     .                   X X       + + + , 3 3 8 8 4 4 8 N 4 N N 8 N N V V V V V V V V M M M V M M M M M M V N 8 4 4 4 4 4 4 4 3 3 3 3 3 3 3 , , , + + + + + + + + + + + + + + + + w + + + + 6 w w 6 6 3 O             o q U I ^ ^ ^ ( ` ` ` _ _ 7.i.i.e.e.i.h.x.M.A.A.S.S.S.F.H.H.K.K.K.K.H.S.S.A.A.A.A.S.S.F.H.S.A.S.A.A.V.A.M.M.c.x.z.h.h.x.x.k.k.k.k.h.a.a.a.p.p.e.7.) ` ( ) ( E J 8 6 6 , + O O + , + w o   O o + + , , ,     > > > 5 G M > > M > X O , , > X > > 4 8 X N V D G G G H M 5 C C F C C F 6.6.6.0XuXiXiXiXiXiXpXy.y.y.y.y.y.",
"% * 7 d 7 : : : K U J 7 . . 7 g . % * d g .     0 U I U J q +     , , + O O       + o + > M G H < 3 , O     + 6 , + + + + + o o 6 + 6 8 8 8 8 8 , 6 8 8 8 8 0 0 B B B B B B B B L B J I P L L P U I E ^ ^ ^ ^ E ^ ^ ( ` _ _ _ 7._ 7.7.e.e.p.a.a.a.h.k.k.k.k.k.k.h.h.s.s.s.s.p.i._ ( ^ ( ^ E I I c 0 0 0 q q q q q q 8 6 + o         o 3 6 6 6 6 + + + w + + + w + + + + + , + + + + , , , , , , 3 3 3 3 3 3 3 3 4 8 4 4 4 4 4 4 4 4 5 M M M M M M M M M M M M M M N N N N 8 8 8 4 4 8 4 3 3 , 3 , , + , 6 +           O             + 6 , O     .             o   @ + + X X o + o o o o o + + + o + + + o o o o o o o + + + + 6 8 8 8 8 q 0 0 0 J J J L U I I E ^ ^ ( ) _ 7.7.e.i.7.p.p.a.r.7.c.V.7.e.s.7.7.e._ e.7.7._ _ ( ( ^ ` ^ ^ ! I I U L J J J 0 0 q q q 8 8 6 6 : + + + + + o o o o o o o o o o o o o o + o + + o o o o                       + 6 o .               X X     O + 3 3 3 6 8 4 4 8 8 8 8 8 8 4 4 4 M M N M V M M M M M M V V M M V M M M N N 8 8 8 4 4 4 8 , , 3 3 , , , , , , , , , , , , , , , , , , , , + + + w + + + + 3 3 3 3 3 + X   o   o + + o 6 q q q q 0 0 0 0 0 P I E ^ ( ( ( ( ) 7.i.p.p.a.s.s.i.p.s.s.h.s.a.p.p.p.s.h.s.a.p.i.7.i.7.7.7.( ( ) ^ ( ( ( ( ( ^ ^ ! ! ! E ! E I P L L L L L L J J J J J B 0 9 9 9 8 8 q q 8 6 o o o   o , , + , , , , O O > < M M G C < > M 4   O ,   , > 4 S ,   X 5 G G W W W H < < M F 5.C C 5.6.6.6.y.uXiXiXuX0Xy.y.y.0.0.6.5.",
". . @ : 7 7 : : * 7 q @ . * 7 * % . K d . . . q U L J J 0 +     : q 0 8 , O O X O X < < 5 G W M 4 , O X O O , , , , , , , , 6 6 o X o + + o + o 6 6 , , , , , , , , , , + + + + + O O + + + + + + + + + , , , + + + + + + + + , , , , 3 6 6 8 8 6 6 8 8 8 6 6 8 6 8 8 8 8 8 8 8 8 6 6 8 6 6 3 6 8 8 8 8 8 8 8 8 + , 6 6 + + + +       o + + + + 6 + 3 6 + + + + + + o o + + + + + + , , , , , , , , , , , , , , 8 8 4 , 4 4 4 4 4 4 M M M M V V V V V N V V M V M N N 4 8 8 8 4 4 8 8 6 6 6 8 8 , 6 6 3 6 3 O         O             O o O             o o             @   o o   @     . o o o o o + + + o o o o + + + + + : 6 6 6 6 6 8 8 8 8 8 8 q q 0 0 0 0 B B B B B J J J L I L I E E L L e.z.L I ( I E ^ L I I I P L L L L J J J 0 0 0 0 0 q q 8 8 8 8 8 8 8 6 6 6 6 w + + + + + + + + + + + o + + o o o o + o + + o               o               o X                 X X     O + , , , , , 3 8 8 3 , 3 8 8 4 8 8 4 8 M M N M M M M M M N M M M M M 4 4 4 4 4 3 3 3 , , 3 3 3 , , , , , , + + + + + + + + + + + + + + + + + + + 3 , + , 6 + + + + o           O o + + + + 3 3 3 3 , , , , 3 , 6 8 8 8 8 8 6 6 8 6 6 6 8 8 , 6 6 6 6 6 3 , 8 8 8 8 8 6 6 3 6 8 6 6 6 , , 6 , , 3 6 6 6 6 6 3 3 , , , , , , , , , , 3 3 , 3 , , + , , , , , , 3 6 3 , + + 3 6 o o , , , , , , 3 > X > 5 M M C t.H > 4 8 4 > O 4 < N L B D 4 X > 5 G G 9.9.9.F M 5 C 5.5.F C 5.0.0.6.y.0X0Xy.y.0.0.0.6.6.5.6.",
"@ . . . * 7 7 g 7 .   . * : + . 7 c : .   * q U U U J 0 +   . 7 K 7 6 6 , O o   > > 5 M 9.G < 4 4 >   X , 3 , O , 3 6 , , 6 8 q o                                         X X X     O X   O + X O             O O               X X X X                             O                         O                                                             O               O O             X X         X X X X X X X     X X X X X X X X X > > > X > > > > X X < < > > X X X         X O X O o o o O O O O             O O O O o O         O +         o o       o @                               .                                                           X X O O O O O O O O O X O O X , , O O O O + O O O O O X         O                                                                                           o o       o o       X             o X                   O o + O O O   X X X X X O X O O > > O > > > < < < < > > > > > > > > O O > O X X X X X X X X X X X X                                           O O                                                           X               O O X           O O                               O         X   O O X           X X           X X X X           O X                         O 6 q 6 + O , , , , > > , > > < M V C F 9.G > < 4 3 > X > 4 B L B D V > > < W W 9.9.9.G C 5 C 5.6.F C 5.6.5.5.6.0.0.6.0.6.5.F 5.5.C ",
": + . . . . + * * . . 7 7 . . 7 c 7 . . + J U K I ^ J +   . 7 J g 7 6 +     + 3 > M M 9.9.M 4 > X O O O , , , , , , , , 6 8 8 6 o                                                             o       O O                       o o o + + + + + + + + + + + + , + + + + + o + + + O O                                                                   X q 0 q                                                                 O X       X > > X X X X X X X X                     O , , O                                     O             O           o       c 0 @                                                                                         X X   O O O O O X O O   X O X     , +   + +   O O O O O O O O O                                                                                           6 J J   .                     o                                       +     O , , X               X X X X X X X                                                                                       8 0 8 +                                                         X X     O O , , + + + + + + , , , , + + + + , , O O + + + + + + o O           O O O                                                                           O 6 8 6 , , , , , 3 3 3 4 > > 5 M F C C t.9.< > < 4 > X   4 B B L V V > > < W 9.9.9.9.9.C < M 5.6.5.F F F 5.5.5.5.5.5.F 5.5.C F 9.",
"* + . . . . . . * : : % . . 7 U *     . J ` J / U J +     8 0 J 7 7 * .   O , 5 < M t.6.M V > ,   O , , , , 3 6 , , , 3 8 8 ,                                                       6 L J +           O O       O O o + 6 6 3 +           O O O                               O O O                                                                       6 q +                     X X X X X                                             X X O X X X X X X X X X X   X X X X X O     + + O   o o                                                             . . 0 q         o                   .                                                           O O X X O O O O O + + O O O O O , O O O O O + X O O O X X X X O O       O                                                                                   + 8 6   .                                                             8 + + 8 8 O X , X X X X X X X X X X X X O O X O O O O O X O O X     X     X X     X                                             , 6 3                                                             O O O O O O O X   X O O O O O X X X X O O X X O O O O O O O X     + U E 8 O O     O O O                                     O     O O   O O O                 O 6 0 8 , , , , 3 3 4 4 5 5 5 5 C H F F t.t.M > 5 D < X X , P L P D V > < < G 9.9.9.9.9.C 5 M C F 5.5.5.F F 5.6.5.F F C C F 5.F ",
"+ o o o + + : 7 * * @ . * g 7 . .   + U I ^ ` U q o   o J U J 0 0 .     6 9 5 < C u.G 5 M > < X O O + , 3 3 6 6 6 3 3 6 8 6 +                                                         + @                             O + + o O                                                                                                                                                                                                         X X O O X X X X X X X X                 O       o   o 6 ,     O                         O O                                                                             . .                                   O O O O O O O O O O + O O O O X O X X O + +   O + O + O O O O O O O O O O O   O O O O                                                                                                     O O           O                             X O + + + , +     ,                       X X O O O             O     X X     X X X                                                                                                                   X O                 X X                                             , 6 O   +                                                                               O   + 8 9 8 , , 4 3 4 4 4 4 M M 5 < C F F F t.u.M 5 > N ,   > < B W W G G 5 > M 9.9.9.9.9.9.C 5 5 M C F H C C F 9.6.F F 6.6.F C C ",
"        o o . @ + . @ 7 7 . . . . + ` d.` q.` J     o J ^ J q 0 O   o 8 8 > 5 5.B.6.M M 4 4 X O 3 3 3 3 3 3 6 3 3 6 8 8 3 O o +                                                                                                     O O o o o o o o o o + + + + + o o + + + o + o + o o o o O                             O                                                                                                                                                           O       o 6     O     O O   O O O O O O O O O       O O   o                     X     X                                                                               O O X X X O O O O   O O X X X X O   X O + O O +   O     O O O O O X                                                                                                           O O O   O O   O O     X X X X O O O       O O O   X O + + O   X , O               X X X                         X O                                                                                                                                   X O O O + , , , + O + + , + + , , , + + O + + + O O O O O O O O   O                                                                                     O     O + O O 8 N 4 , 4 4 4 4 4 4 5 M M 5 < C F F 5.6.u.C < < D N   X 4 V G 9.9.G 5 < M 9.9.9.9.9.G C M M M M C C C M M C C F F M M C C ",
"o o o   . o o o .   . . . . . . o + 8 I _ ^ q   o   0 I I I q ,   > > 4 < < 6.B.5.M > 4 8 X X 4 , 3 3 8 8 3 6 3 6 8 8 3 + o o o o o                                             .                         O O O O o + + + + + + , 6 6 6 6 6 6 6 8 8 8 8 8 8 q 0 0 0 B B B B B J B B B B B 0 0 0 8 8 8 3 q     3 , , , + + o O O O O O O O O O O o o o o + O O O O O O O O O O O o o + O O O O O O O O o O O O O + + + O O , + + O O O O O O > > O > > O O + , , + + O O O O O O           o           O O O O O O O O O O       O O O O O                       O     O O O   O O       O O O O   O O O O o o o O O o o o o + + + + + + + + + + , , , , , , 3 3 , 1 3 6 6 6 6 6 8 3 3 3 , , O O O + , 6 3 , , 6 6 6 6 6 3 3 , , , , , , + + + + + + + + + + o o + + o o o o o + o o o o o o o o O O O O O O O   O     O O O O   O O         O O O O O O   O O   O O O O O O O O O O O O O O O O       o O         O O + , , > > > > > > > > > > > > > + , , , , O O O O O O O + o o o o O O o o O O o O O O O O O O O O O O O O O O O O O O O O O O o o o o + + o o o + + + + + 6 O   q 6 6 q 8 0 B B B B B B S B B S J J B S J S S B B B 0 9 0 9 8 8 8 8 8 6 6 6 3 , , , , + + , + O                                                                     O O o O O O + 3 8 8 4 3 3 4 4 M M M M M M < C 5.F 5.0.u.F < > D N O   8 D G 9.r.W < < 5 G 9.G M M M M M M M M M M M M M M M M M M M M ",
"o o o o o o o o @ @ . . . @ + o + o     6 8 +   6 ^ i._ ^ B +   > 4 M < < 9.u.F M M 8 , O + 3 4 3 3 8 4 3 3 8 8 8 8 6 + O o + + o o       .                                                             O + + + + + + + , , , 3 6 6 6 6 6 8 8 8 8 8 8 q q q 0 0 0 0 B B S S B B B B B B B B B B 0 0 0 8 B O O 6 8 6 6 6 6 6 6 8 3 , , + + + + + + + + + + + + o O O o o o o O O + o + + O O O O O O O O O O O O + + O O , , + + + + + + , , , > > > , , , , , , , , , , + + + + O   .               O O O O O O o o o o O O O O O O O O O O O O o o       X X X o O O o o O o o o o O O O o o o o O o o o o + + + + + + + + , + + + + + , , 3 6 6 6 6 6 6 6 8 8 8 8 8 8 8 8 8 8 9 8 9 9 8 8 8 L L 0 3 6 9 0 0 0 8 8 8 8 8 8 8 8 8 8 8 8 6 6 6 6 6 6 6 6 6 3 3 3 , , + + + + + + + + + + + + + + + o o o o o o o O o o o o o O o o o o O O O O O O O O O O O O O O O O O O O O O O O O O O O O O O   O o O   X + + , , , , , , , 4 4 4 , , , , , , , , , , , , , , , , , + + + + + o o o o o o o + + o o o O O O O O O O O O O O + + + + + + + + + + + + + + + + 6 6 6 6 6 6 8 8 q +   0 8 q B 0 B B S S S S J L J J S J L J J J L S 0 B J J B B 0 0 0 9 8 8 8 6 6 3 3 , , , , , + + + + o O                                                               O O O O O O + , , 4 8 3 3 8 8 N N M M M M 5 < C F 5.5.u.eX6.5 > P B + X M G 8.r.r.G M M M V M 5 M M M M M M M M M M M M M M M M M M M ",
"O O     X                         + + o     o 6 o 0 J ^ I + O , D > 5 C 9.u.G M 5 4 3 O O 6 6 6 8 8 8 8 6 6 8 8 8 3 + O O + o o o o @ @                                                             O o + + + + , , , , , 3 6 6 6 6 6 8 8 8 8 8 B 0 0 B B 0 0 0 S B B S J J J S J J J J J S B B B B B 0 J O O 8 0 0 9 8 8 8 8 8 6 3 , , , , , , + + + + + + + + o o + + + + + + + + + + O O O O O O + + + O O O + + + + , + + + + O , , , , , , < < < , , , , , , 3 3 , , + + , + O                                                                       X o o o o O O O O o + o O O O O o o o o o o o + + + + + + + + + + + + , , , , 3 6 6 6 6 6 6 8 8 8 8 8 8 8 8 8 8 8 8 8 9 8 8 9 8 3 3 P E B 8 8 8 8 8 8 0 0 0 0 9 8 8 8 8 8 6 6 6 6 6 6 6 6 3 3 , , , , 3 , , + + + + + + + + + + + + + + + o o o o o o O o + + o o + + o O O O O                                                   X X       X     O , , , , , , , 4 4 4 4 4 4 4 , , , , 4 , , , , , , , > > > > > + + + + + + + + + + + + + + + + + + + + + + + o o o + + + + + , , , , , , , 3 3 3 3 6 6 8 8 8 8 0 0 B ,   B 0 B J B S J J J J J L L L L L L L L L L L L L L L S B B B B B 0 0 9 8 8 8 6 6 6 3 3 , , + + , , + + O         .   .                                           O O o o O O O + O O , 3 8 8 4 8 4 N N M M M M M M 5 C F F 5.y.eX0.M > L B X > N ~ ~ G N 4 5 5 5 5 M M M 5 5 5 5 5 M M M M 5 M 5 M M M M M ",
"    .       . .         . .         O + 6 + o o , o O 3     9 P 5 5 M t.u.F 5 M 8 + X , 8 8 6 6 8 8 8 8 6 6 6 6 , + + o + + o   O O     @     .                                   .   o o   X o O + + + + o o + , , , , , , 6 6 6 6 8 8 8 8 8 0 0 0 B J S B 0 B J J J J J L L L L L L L L L J J J S S 0 L O O 0 0 0 0 0 9 6 , , 3 , , , , , , , + + + + + + + + o o + + + + + + + + + + + + + O + + + + + O + + + + + + , , , , + O > > , , , , < < < , , , , , , , 3 , , , , , , + O       O O                                                             @ o o o O o O O O o O O O O O o o o O O o o o o + + + + + + + + + + , , , , , , 3 3 6 6 6 6 8 8 8 8 8 8 9 0 0 0 0 0 0 0 9 9 9 3 , L B 8 6 9 B 0 B J 0 0 0 9 8 8 8 8 8 8 8 8 6 6 6 6 6 6 6 6 6 3 3 3 , , , + + + + + + + + + + + + + + + o O o o o o o o o o o o o o O                                               X           X O O X X O X X O , , , , , , , 4 4 4 4 4 4 4 , , , , , , , , , , , , , , > > > + + + + + + + + + + + + + + + + + + + + + + + + + + + + + + + + , , , , , , , 3 6 6 + , 6 8 9 9 0 0 B ,   S B B J J L L L L L L L L L P I I L L P I J L L P L L L L J S B B B 0 0 8 8 8 6 6 6 6 3 3 3 , , + + + + + + o o o o o                                         O O o o o O O o + O O O , 3 8 8 8 8 4 N V V M M M V 5 5 C 5.F 5.0.u.u.M < E G >   < M < > < 5 5 M M M 5 < < > > < < < < < 5 < < < < 5 5 5 5 ",
"    . .                                   o o o o   O     N N > > C u.u.C M V 4 O , 3 4 4 8 8 8 9 8 8 8 8 8 6 , o o o + + o o X O O       X                                       O o + + O o + O o + + + + + , + , , , , , 6 6 6 8 8 8 9 0 0 B B S S 0 8 3 , , 0 J L L L L I I P P I I P P P L L L J B I O O S B B B B 0 8 6 , 6 6 6 6 6 6 3 , , , + + + + + + + + + + + + + + + + + + + + + + + + + + + + + + + + + + + + + + + + + , , , , , , , , , 3 3 3 3 3 3 , , 3 3 3 , 3 , , + , , , , + + + + + + + + + + + + + o o o O O O O O O O O o X         .     O O O O O O O O O o o o + + + O O o o o O + + + + + + + + , , , , , , 3 3 3 6 6 6 6 8 8 8 8 9 0 0 0 0 B B B B 0 B B 9 S 0 3 B E B 8 0 B B 0 9 B 0 0 0 0 0 9 9 q 8 8 8 8 8 8 8 6 6 6 6 6 6 3 3 , , , , + + + + + + + + + + + + + + o O o o o O o O O o + + O O             O O O O o o o o o o o o o + + + + + , + + + + , , , , , , , , , , , 4 4 4 4 4 4 4 4 4 4 4 4 4 4 4 4 4 4 , , , , , , , , , , , , , , + O + + + + + + + + + + + + + + + + + + + + + + , , , , , , , , , , , , 3 6 6 6 , 3 8 0 0 B B B J ,   J S J L L L L P P P P I I I E I I I I L S 3 + + 6 B I E J J J S B B B 0 0 9 8 8 6 6 6 6 3 6 , , , , , , + + + o + + + o                                       O O O O O O O O O O O O + + 3 6 8 8 4 4 V V M V M M 4 M M C 6.5.5.0.B.u.5 < W D 4 > > < < < 5 5 < < > > > < > > > > > > < < < > < < < < < < ",
". . . . . .                       o X         * + O 3 8 L D X X G u.9.C M M V > O , 8 4 4 8 9 0 9 8 8 8 8 6 , o o o + + o O o o o o X   o o @                                   o o + + o O O + + + + + + + , , , , , , 3 6 6 6 6 8 8 9 0 0 B B S L S 6 + O X   + 9 L I I I I E I I I E E I I I L L L J E + O L J S B B B B 0 0 q 8 8 6 6 6 3 , , , , + + + + + + + + + + + + + + + + + + + + + + + + + + + , , + + + + , , + , , , , , , , , , , , , , , 3 3 3 3 3 , 3 3 8 4 3 , , , , , , , , , , , + + + + , + + + + o o o o o o + + + + o o o o o               O O + + + O o o + + + + + + + + + + + + + + + + + + , , , , , , 3 6 6 6 8 8 8 8 8 8 9 0 0 0 0 0 0 B B B B B B J S B J J 9 9 0 8 0 B J J J J S S S S S S S S 0 0 0 q 8 8 8 8 6 6 6 6 6 6 6 3 6 3 3 3 , + , , + + , + + + + + + + + + + + + O + o + + + + O O           O o + + + + + + + + + + + + + + + , , , , , , , , , , , , , 3 6 8 3 , 4 4 4 4 8 8 4 4 4 4 4 4 4 4 4 4 4 4 , , , , , , , , , , , , , , + + + + + + + + + + + + + + + + + + + + + + + + , , , , , , , , , , 3 6 6 8 8 8 8 9 0 B B B J L L 3   L J L P P I I I E E E E E ^ E I I E ! S , O     O , B I L L L J J B B 0 9 9 8 8 8 8 6 6 6 , , , , , , , , o o o + + + + o                         .           O O O   O o o O O O + + O O + 3 8 8 8 N N V M V M M M M 5 5 C F 6.6.6.eXu.M > V P N 4 5 5 5 < > > > < < < 5 < < < < < < < < < < < < > < 5 < ",
". .   .         O O O O + + + + O       o o .   + O , 9 4   > 9.B.6.C M 4 4 , X 4 4 4 8 N 8 8 9 8 8 8 6 3 3 + o o o o + o X o + + o X X o o                                 O O + + + + + o o + + + + + + + + + , , 3 6 6 6 6 6 8 8 8 9 0 B B S 0 S 9 + O 3 6 ,   6 L E E E E E E E E E E E E E I I L L ! + O L L J S B B B B B 0 q 8 8 6 6 3 , 3 , 3 , , + + + + + + + + + + + + + + + + + + , + + + + + + + + + + + + + + + + + , + + , , , , , , , , , , , 3 3 3 4 4 4 4 4 4 , , , , , , , , + + + + + + + + + + , + + + + + o + + + o o o o o o o o X               o + + O o o o + + + + + + + + + + + + + + + + + , , , , , 3 6 6 6 8 8 8 8 8 8 9 0 0 B B B B S J J J L L L L P L L U S B B J I I L J J J J J J J J J J J S S B B 0 0 0 0 q 8 8 8 8 8 8 8 6 6 6 3 3 , , , , , + , + + + + + + + + + + + O O + + + + O O O       O O o + + O o o + + + + + + + + + + + + , + , , , , , , , , , , , 3 3 , , 4 4 4 8 4 4 4 4 4 4 4 4 8 8 3 , 4 4 4 , 3 3 3 , , , , , < < , > , > + > + + + , + + + + + + + + + + + + + + + + , , , , , , , , 3 3 6 6 8 8 8 9 B B B B B J L L I 3   L L L I I E E E E ! ^ ^ ^ ( ^ E E ! E 0   , 3 8 6 + 8 E ! L L J J S B B 0 9 8 8 8 8 8 6 6 6 3 3 3 3 , , , + + + + + , + + O O                     . . . .     O O   O o o o   O o + + + + O + 3 6 8 N N N N M M V M M M M > G F F 5.5.eXu.M > < V N M 5 5 > > > < 5 4 < < < < < < < < < < < < < < < < < < ",
"              O   O O O O O O O o o o . o o O + X X O > X N r.B.5.C M M 4 , O 4 4 4 8 9 B B B N 8 8 8 6 3 + + + o o o + + o o o o o   @ X X                               O + + + + + + , + + + + + + + , , , , , , 6 6 6 6 6 6 8 8 9 9 B B S S S L 9 O O 8 9 3   6 L E E E ! ^ ! ^ ! ! ! E E E E E I L ^ + O L I L L J J S B 0 0 0 8 8 8 6 6 6 3 3 3 3 , , + + + + + + + + + + + + , , , , , , + + + + + + + + + + + + + + + + + + + , , , , , 3 3 3 4 4 4 4 4 3 4 8 8 4 4 4 4 4 3 3 3 3 3 3 3 , , , , , , , , + + + , + + + + + + + + + + + + + + + o o               O + o   O O o + + + + + + + + + + + + + + + , , , , 3 3 , , 3 6 6 6 6 6 8 8 8 8 0 0 B B 0 B B B B S J J S B L S S L J L L L J S J L J B J J S B B B B B 0 0 0 q 8 8 8 8 8 8 6 6 6 6 6 6 6 6 3 3 3 , , , + + + + + + + + + + + + + + O O   o , + O     O     O + , + + + + + + + + + + + + + + + + + , , , , , 3 3 3 3 3 , 3 6 6 3 3 8 8 8 8 8 8 8 8 N 8 8 4 4 4 8 8 4 4 4 4 , , 3 3 , , , 3 3 3 3 , , , , , , , , , , , + + + + + + + + + + + + + + + + , , , , , , 3 3 3 3 6 6 8 8 9 0 B B B J J L L L E 6   L P P E E E E E E ^ ^ ^ ^ ^ ^ ^ ^ ! I 8   + , 8 6 O 8 I E L L J J J S B B 9 9 8 8 8 8 6 6 8 6 3 3 3 3 3 3 , 3 , , + + + + + + O                               O O O O o o     O o O + + + O O O , 4 8 N N D N D G M V G M M > M 5.5.5.5.eXB.G < 5 > > < > > > < < < < < < > < < < < < < > > > > < < < < < ",
"                    X X X                         X > > N G G V 5 5 5 M 4 O > N N 9 9 0 B B 0 9 0 8 6 + O O + + + + + o o o O O o X X X X X                             O + + + + + , , , + + + + + + + , , , , 3 6 6 6 6 6 6 8 8 8 q 0 0 B B J J J 9 , + + + + X 8 U E P E ! ! ^ ! ! ! ! ! ! ! ! E ! P ! O X E I P L L L J S S S 0 0 8 8 8 6 6 6 6 3 , , , , , , , + + + + , , + , , , , + , , , , , + + + + , + , , , , , , , , , , , , 3 3 3 3 3 3 4 4 4 4 4 4 4 4 8 4 4 3 3 4 4 8 3 3 3 3 3 3 , , , , 3 , , , , , , , , , , + + + + + + + + + + + + + + o O   O     +     0 L 0 O + + O + O + + + + + + + + + + + , , , , , 3 3 6 6 6 6 8 8 8 8 9 9 0 0 0 0 0 0 J J J J L L L L L L L L P I L U P U L J J S L L J J L J J Z J S B 0 0 8 8 8 q 8 6 6 8 8 6 6 6 6 6 3 , , , + + + + + + + + + + + + + , O O S ( 0 O O o     O O O + + + + + + + + + + + + + + + + + + + + , , , , , , , 3 6 6 6 6 8 8 8 8 8 8 4 8 8 8 8 4 4 8 4 8 4 4 8 8 8 8 4 4 4 4 4 4 3 3 , , 3 , , , , , , + + , , , , , , + + + , , , + + + , , , , , , , , , , , , 3 3 6 6 6 8 8 8 0 0 B 0 B J L L L E E 6   E I E ! ! ! ! ! ! ! ! ! ! ! ( ( ( ! U 8   3 , 3 3 X 3 L ! I L J J S B B B 0 9 8 8 8 8 8 8 8 6 6 3 3 , , , , , , , , , , , + , + O                               O O       O O O o + O O + O O O + , 8 9 N N N V N V V V V D M 5 M G F F C 9.9.G M 5 < > > > > > > > > < > > > > > > > > > > > X X > > > > ",
"O O O O O O o o + + + + + + + + , , , , , 3 3 3 4 4 N 4 M M M M D G D < X 4 B N B B B B B B 0 8 0 6 + + , , + O + o o o + o O O X X X X                               O + + + + + + , , , , , , + + + , , 3 , 3 3 6 6 6 6 6 6 8 8 8 0 0 B B J J P P B , , , 3 6 X 9 P ! ! ! ! ! ! ! ! ^ ! ! ! ! ! W ! E ( + X ! I P L L U L J J S B 0 q 8 8 8 6 6 6 6 3 3 3 , , , , + + + + , , + , , , , , , , , , , , , , + 3 , , , , , , , , 3 , , 3 6 6 4 3 4 4 4 4 4 4 4 4 4 8 8 8 4 8 4 4 8 8 8 8 8 4 4 3 6 6 6 6 6 6 3 3 3 3 , , , , , , , , , + + + + + + + + + + + + + O       O   + I B 6   O o o , , + + + + + + + + + + , , , , 3 3 3 6 6 6 6 8 8 8 8 9 0 B B J L L J J J J L L P P I I I E E E E ^ ! ! ! ! ! I I P E I P L L I I I J J J S S B B B 0 0 0 q 8 8 8 8 8 8 6 6 6 6 6 3 3 3 , , , , , , + + + o + O + J J 6     O       + + , , + + + + + + + + + + , , , , , , , , , , , , 3 3 6 6 8 8 6 6 8 8 8 8 8 8 8 8 N N N N N N 8 8 8 8 8 8 8 8 8 8 8 4 8 4 4 4 3 3 3 3 3 , , , , , , , , , , , , , , , , + , , , , , , , , , , , , , , , 3 6 6 6 6 8 8 8 9 0 B S B S L L L P E ^ 6   E I E ! ! ! ! ! ! ^ ( ( ( _ ( ! ! ) ` S , O + 3 , O B E E E P L L J B B B 0 0 9 8 8 8 8 8 8 8 6 6 6 3 , , 6 , , 3 3 , , , , + + , +                               O O O   O   O o o O O O + + + , , , 6 8 8 N V V V V V V M V M 5 M G 9.G C H C C M V V V V V M M M M M M M 4 4 4 4 4 4 4 4 4 4 4 4 4 4 < ",
"o O O O O O O O o o O O O + + + O O + + + > > > < 4 4 5 5 M M V 5 N 4 > < N D B B B S B B 0 8 8 6 , + , 3 , + + O O O o + + O O X X X                               o + + + + + + + , , , , , , , , , , , 3 3 6 6 6 6 6 6 6 8 8 8 q 0 0 B J J L P I L 0 8 3 , , B L ! ! ! ! ( ( ^ ( ( ( ( ( ( ( ! ! ! ! ) , O ! ! E I I P L L J J S 0 0 q 8 8 8 6 6 6 6 6 6 3 , , , , + + + , , , , , , , , , , , , + + 6 , + 3 , , , , , , , , 6 6 6 6 6 6 3 3 3 8 8 8 8 8 4 8 8 8 8 8 8 8 8 8 9 9 9 8 8 8 8 8 8 8 6 6 6 6 6 6 6 6 6 3 3 3 3 3 , , , , , , + + + + + + + + + + , o         + J J 8 + + o O o O + + + + + + + + , , , , , , 3 , , , 3 3 6 6 8 8 8 8 9 0 B B B S J J J J L I E E E I E E E E ^ ^ ! ! E E ! ! E I I P P L L L L L U L J J S 0 0 0 8 8 8 8 6 6 6 6 , , , + + + + + + + + + + + + + + + + o + + , J L 8 O         O + + , , , + , , , , , , , , , , , , 3 , , , 3 3 3 3 6 6 8 8 8 8 8 8 8 8 8 8 8 9 8 8 N N N N N N N N 8 8 8 8 9 8 8 8 8 8 8 8 4 4 3 3 3 3 3 3 , , , , , 3 3 , , , , , , , , , , , , , , , , , , , , , , 3 3 6 6 6 6 8 8 8 9 0 B B S S J L L I E E ` 6   ( E E ! ! ^ ^ ( ( ( ( ( ( ) ( ! ! ( ) ! L 9 9 B 9 0 P ^ I E I P L L S B B B 0 0 9 8 8 8 8 8 8 6 6 6 6 3 3 3 , , 3 3 , , 3 , + + 6 6 +                               O O   O O O O O O O O + + , , + O , 8 8 N N V D D D D H H V M 5 M M M M M C M M M N 4 M M 4 4 4 4 M M 4 4 4 5 5 5 5 5 5 4 4 4 4 5 < < ",
"o O O O   O O O O O O O O O O O O O O O O O > > > > > > < < 5 5 M 4 4 V V N N S S S S B 0 9 8 6 + + , 3 3 3 6 6 o o o o o o O O X X                             X o + + + + + + + + , , , , , , , , , , 3 6 6 6 6 6 6 6 6 8 8 8 8 0 0 0 B J J L P E ! E E E I I ! ! ! ! ! ! ) _ ) ) ) ) ` ( ( ( ~ ! ^ ! _ 3 X ( ) ( E I P L L L J S 0 0 0 q 8 8 8 6 6 6 6 6 3 3 , , , , + + , , , , , , , , , , + , + O , , + , , , , , , 3 3 3 3 3 3 3 6 6 3 3 8 8 8 8 8 8 8 8 8 8 8 8 9 9 9 9 9 9 9 9 9 8 8 8 8 8 8 6 6 6 6 6 6 6 6 6 3 3 3 3 , , 3 3 3 , + + , , , , , + + + o + +           O                                                           O O O O O O X X O O , + O O O O O O + + , , , , , , , + O O + + + + , , , , + O O O                 O O O                                                         o 6 +       O , 6 + + + , , , , , 3 3 3 3 , , 3 3 , , , , , , , 3 3 6 6 6 6 8 8 8 8 8 9 9 9 9 N N N N V N V V V V N N 8 8 8 8 9 8 8 8 8 8 4 8 4 4 4 4 4 3 3 3 3 3 , , , , , , , , , + + + , , , , , , , , , , , , 3 3 3 3 6 6 6 6 8 8 8 8 0 0 B B S J L L L E E ^ 7.6 X _ E ! ( ! ( ( ( ( ( ` ( ( ( ) _ ( ( ! ! ! ! E E ! E ! ^ E E I I L L J B B B B 0 0 9 8 8 8 8 8 6 6 6 6 6 6 3 3 3 3 3 3 3 3 , 3 , + , 3 +                             O O O O O O O O O O + 3 6 6 , O O + , 4 8 8 N V V D D D V V G H M M C M M M M M M 4 4 5 5 5 5 5 < < < 5 5 5 5 5 5 5 < < < < > < > < > ",
"+ + + + + + + + , , , , , , , , 3 3 3 3 4 4 4 4 V N N N D D D D D D D D S S S B S S B 9 8 3 + + , , , , 8 8 6 + + + o O O O O O X .                               X + + + + + + + + , , , , , , , , , 3 3 6 6 6 6 6 6 6 8 8 8 8 8 q 0 0 B J J L J L L L E E E E ! ! ! ! ( ` ` ( ) ` ( ( ( ( ( ( ! ! ! ! _ , X ( ) ( E E I L L L J J B 0 0 0 8 8 8 6 6 6 6 6 3 3 , , , , , , , , , , , , , , , + O , , O , 6 , , , , , , 3 3 3 3 3 , , 3 6 6 4 3 8 8 4 8 8 8 8 8 8 8 8 8 8 9 9 9 9 9 9 9 9 9 9 8 8 8 8 6 6 6 6 6 6 6 6 3 3 3 3 3 , 3 3 3 , , , , , , , , , , + + + , , O   O + O         O O O O O O O O O O O O o O O O O o o + O O O O O o + + + + , , , , 3 6 3 3 3 3 6 8 8 8 8 8 8 8 8 8 9 9 8 8 8 8 8 8 9 9 3 3 3 3 3 3 , 3 , , , , , , , , , , , + + O + O + + o O O O O o O O               O o     O   O       O + , 6 3 , , , , 3 3 3 3 3 3 , , , , , , , , , 3 3 6 6 6 6 6 6 6 6 8 8 8 8 9 9 9 9 9 N N B N N B B B V V N N N 9 N 9 9 8 8 8 8 8 4 4 4 4 4 4 4 3 3 3 3 3 3 3 , , + + + + + + + + + , , , , , , , , , , , 3 3 3 3 6 6 6 6 8 8 8 9 0 B B S S S J L L I E E 7.1   ) E ! ^ ! ( ( ( ( ( ( ( ( ( ( ( ( ` ` ( ! ! ! ! ^ ! E ! ! E I L L L J B B B 0 0 0 9 9 8 8 8 8 6 6 6 6 6 6 8 8 6 6 6 3 , , , 6 , + + , +                                 O O       O O + + 6 8 8 3 , , , O O , 3 4 N V D D V D G H H G G G H H H H G G G G G G G G G G G H H H H H H H H H V V V V V V V V ",
"+ + + , , 6 6 1 3 3 3 3 6 6 8 8 4 4 4 4 8 8 4 8 4 4 N D D D D G S D D B B S S S S B 9 8 3 + O   + , 3 6 6 3 o   , + o O O O X X                                     O + + + + + + + , , , , , , , , 3 3 6 6 6 6 6 6 6 8 8 8 8 q 8 q 0 0 B J L L I E I E E E L L E E ! ! ( ( ^ ! ( ( ! ! ( ( ^ ! ! ! ! E _ , X ) ! ! E ! E I L L J J B B 0 0 q 8 8 8 6 6 6 6 6 3 , , , , , , , , , , , , , , , + + , , + O , 6 , , , 3 3 6 6 6 6 3 3 6 6 8 8 8 8 8 8 8 8 8 8 8 8 8 8 8 8 8 8 9 9 9 9 9 9 9 9 9 9 8 8 8 8 8 8 6 6 6 6 6 3 6 3 6 6 , 3 , 3 , , , , , 3 3 , , , , , 3 + 3 6 6 3 6 6 8 6 8 6 6 6 3 6 8 8 8 8 8 8 8 8 8 8 8 8 q 0 0 0 J J J J J L P I E E ! ^ ^ ( _ 7.) ) e.r.p.a.h.k.a.h.h.k.k.x.x.x.x.x.x.x.x.x.x.x.x.x.h.h.g.g.a.a.p.i.7.7._ _ ( ( E E E I I L L L J J J S B B 0 0 0 0 0 0 0 0 0 0 8 6 8 6 6 8 6 8 6 6 6 6 6 6 , + 6 6 3 , 3 3 , , , 3 , , 3 3 3 3 , , 3 3 6 6 6 6 6 6 6 8 8 8 8 8 8 8 9 9 9 9 N N N N N N B B V N B N N N N N N 9 8 8 8 8 4 4 4 4 8 4 4 3 3 3 3 3 6 6 6 , + + + + O + , , + + , , , , , , , , , , 3 3 3 6 6 6 6 8 8 8 9 0 0 B S J J L L P I E ^ ^ 7.8   ) ^ ^ ( ^ ! ! ! ! ( ( ( ( ( ! ! ( ` ` ( ! P ! ! ! E ! ! E E I L L L J B B B 0 0 0 9 9 9 8 8 8 8 8 8 8 6 6 3 6 6 3 3 6 6 3 6 , , 6 , O                                   O   O     O o + +   + , 3 6 3 , O   X , 4 8 N V D D G G V V G G H G G G G G G G G G G H G H H H H H H H H H V V V V V V M M M M M ",
"+ + + + * 1 1 , , , , 3 3 3 3 6 4 4 4 8 8 8 8 N N V D D S D D D D D D L L S B B B 9 6 6 6 , + o O O 3 8 3     + + + O X                                               O + + + + , , , , , , , 3 3 3 6 6 6 6 6 6 6 6 8 8 8 8 q 0 0 0 B B S J L L L I E ^ ) ) ( ( ) ) ( ) ) _ ) ) ) _ _ _ _ ) ( ( ( ~ ! E 7.3 O e.( ( ^ ^ ^ E P L L J J B B B 0 9 8 8 8 8 6 6 6 6 6 3 3 3 3 3 3 6 , 3 6 6 6 , , , , O , , O + 3 , 3 3 6 6 6 6 6 6 6 6 6 6 8 8 8 8 8 8 8 8 8 8 8 8 8 8 8 8 9 9 9 9 9 9 9 9 9 9 9 9 8 8 8 8 8 8 8 8 6 6 6 6 6 6 6 6 3 3 3 3 3 3 3 3 , 3 3 3 3 3 3 3 , + , 6 6 3 , 3 6 + 6 + + 6 , 6 3 3 3 3 6 6 6 6 6 6 6 8 8 8 8 8 8 8 0 0 B B B S S J L L I E ^ ^ ( ) 7.e.p.a.h.k.x.N.M.V.S.D.H.J.K.H.H.H.J.D.D.C.V.M.c.x.k.h.p.e.) ( ! E E E P L P L L S S B B 0 0 0 q 8 8 8 6 6 6 6 6 6 6 6 6 6 8 , 6 3 , 6 6 6 6 6 3 3 , 3 6 6 6 6 3 3 3 6 3 , 6 6 6 6 6 6 6 6 3 3 6 6 6 6 6 6 6 8 8 8 8 8 9 9 9 9 9 9 9 B B B B N N N B B N N B B N N N N N 8 8 8 8 8 8 8 8 8 8 8 8 3 3 3 3 8 6 6 3 , + + , , + , 3 6 6 6 , , , , 3 3 3 3 3 3 6 6 6 6 6 8 8 8 8 9 0 0 B B J J L L U E ! ! ^ ( 7.9 X ( ( ( ( ( ! ! ! ( ( ) _ 7.) ) 7.e.7._ 7.7.) 7.) ( ( ( ! E E E P L L J B B B B 0 0 0 9 9 8 8 8 8 8 8 8 8 8 3 6 6 6 6 6 6 6 6 3 , , +                                               O + + +     O , 6 , O + O + , 3 8 8 N V D D D G G G G G G G G 6.6.6.6.5.5.5.5.G G G G G G G G H H H H H G G D D D H D D ",
"* * * 6 6 6 6 6 6 6 6 6 3 3 3 6 8 8 8 8 8 8 8 8 N V B V D D D D D L L D L L S B 8 3 , 3 6 8 8 6 ,     6 6 O O 6 + o O X                                                 O + , , , , , 3 3 3 6 6 6 6 6 6 6 6 6 6 6 6 8 8 8 8 q 0 0 0 B S J L L I E ^ ^ ( _ 7.i.a.p.p.p.a.s.h.s.a.p.a.a.a.p.r.e.e.) ) ( ! e.3 + r.e._ ( ( ^ E I P L L J J S B 0 0 9 8 8 8 8 6 6 6 6 6 6 6 6 6 6 6 , 6 8 8 8 6 6 6 6 O , 8 O O 6 6 6 6 6 6 6 6 6 6 6 6 6 6 8 8 8 8 8 8 8 8 8 8 8 8 8 9 9 9 9 N N B 9 B N N N N 9 9 9 8 8 8 8 9 8 8 8 8 8 8 6 6 6 8 6 6 6 6 6 6 6 6 3 3 6 6 6 6 6 6 6 8 6 , , 6 6 3 6 , 8 6 6 8 , 3 6 6 6 6 6 6 6 6 8 8 8 8 8 8 8 8 0 0 B B S J J J L P E E ^ ( 7.7.p.h.x.M.S.H.I.qXtXsXfXhXjXjXlXlXxXzXzXzXzXlXjXhXaXtXqXqXI.K.S.M.x.h.a.i.7.) ^ E E P L L L L S B B 0 0 0 0 0 0 q 8 8 8 8 8 8 6 6 8 + 6 6 6 6 6 3 6 3 6 6 6 6 6 6 8 6 6 6 6 6 6 6 6 6 6 6 6 6 6 6 6 6 6 6 8 8 8 8 8 8 8 9 0 0 0 0 0 B B B B B B B B B B B S S B B B B N N N N N 8 8 8 8 8 8 8 8 8 8 8 8 8 8 8 8 8 , 6 , + O + , , , + , 8 0 B 8 + 3 3 3 6 6 6 6 6 6 6 6 6 8 8 8 8 9 0 0 B B S J L S S L E ^ ^ ( _ 7.0   ^ ( ( ! ^ ( ` ) 7.e.r.p.a.s.s.h.h.k.h.k.k.h.p.e.e.p.7.( ( ! E I P L J B B B B 0 0 0 0 9 8 8 8 8 8 8 8 8 8 0 0 0 8 8 8 6 6 , 6 6 O                                                 O + + o +   O 6 3 O   O 6 3 6 3 , 4 8 N V D D G G G G G G 6.6.6.6.6.6.5.5.5.5.5.5.G G G G G G G H H G G H V G D D D D D ",
"6 6 6 6 6 6 6 6 6 6 6 6 6 6 6 8 8 8 8 8 8 8 N N 0 N S S D S D L L L L L L B 8 8 6 6 6 6 6 6 6 6 6 6 + O   O + , + o X                                                       + 6 6 , 6 , 3 E ! O 6 6 6 6 6 6 8 8 8 8 8 8 8 9 0 0 0 9 B S J J U E ( ) e.a.g.h.x.N.V.A.S.S.D.D.D.S.D.A.V.V.V.c.z.k.p.r._ 7.e., O h.p.r.( ^ ^ P _ L L L J J S B 0 B 0 8 8 8 8 8 6 6 6 6 6 6 6 6 6 6 + 0 8 8 8 , 6 6 8 8 + 8 , O + 6 3 6 6 6 6 6 8 8 8 8 8 8 8 8 8 8 8 8 8 8 8 8 9 N N 9 N B B B B B B B B B B B B B B B 0 8 0 B B 8 8 6 6 8 8 8 8 8 6 6 6 6 6 6 6 6 6 6 6 6 6 6 6 6 8 8 6 6 6 6 6 6 6 6 6 6 6 6 8 6 8 6 8 6 8 8 8 8 9 9 9 9 0 0 B B S S S S S L U P P E ! ) 7.p.h.x.M.H.wXrXsXhXlXxXxXxXvXbXmXMXBXBXBXBXBXBXMXmXbXbXbXvXcXzXlXjXgXaXwXH.S.N.h.p.e.7.( ! ! E L L L L J S B B B B 0 B 0 0 0 0 9 8 8 8 8 8 8 8 8 8 8 8 6 6 6 6 8 8 6 6 8 8 8 8 6 6 6 6 6 6 6 6 6 6 6 6 6 6 6 6 8 8 8 8 9 9 0 0 0 9 B B B B B B S D S S S S D D D D D D B B B B 9 9 9 9 9 8 8 8 8 8 8 8 8 8 4 4 4 4 4 4 6 6 , + + + , 6 O 6 , 6 , 0 B + 6 6 8 6 6 6 6 6 6 6 8 8 8 8 8 8 9 0 B B S J J L S L i.E E ^ _ _ a.0 X ) _ ( 7.7.r.p.s.h.k.c.M.V.S.D.H.K.H.F.D.S.S.S.M.x.k.h.p.e.7.! P L L J S B S B B 0 9 9 0 0 0 0 9 9 8 8 8 3 J ^ L 6 9 9 , 8 8 +                                                     O O O o O O     O + , , 6 6 6 6 6 3 4 4 V D D W G G G G G G 9.6.6.5.6.6.5.5.5.5.5.G G G G G G G G G G G G D D D D D D D ",
"8 7 7 7 7 6 8 8 8 8 8 8 8 6 8 8 8 8 8 8 9 0 N N S S S S L L P P L L P P L B 8 8 3 3 6 6 8 8 6 6 6 3 , + o O o + X X X                                               O O O       6 6 6 3 6 8 , , 6 6 8 8 8 8 8 8 8 8 8 9 9 0 0 B B B B S L P ! ) p.h.c.S.D.H.P.qXtXaXsXsXgXgXsXaXgXsXaXtXrXI.K.H.K.l.c.p.a.6 , h.h.a.e._ ! J E L I L L L J B B B B 0 0 0 9 8 8 8 6 6 6 6 6 6 6 6 O p.P 6 , + 6 8 , + , 8 6 O 3 6 6 6 6 6 6 6 8 8 6 6 8 8 8 8 8 8 8 9 9 9 N B B S D L L L L L L L P P P L L L L L J J S B 0 9 8 8 8 8 8 8 8 8 6 6 6 6 6 6 6 6 6 8 6 6 6 6 6 6 8 8 8 8 8 8 8 6 6 6 8 8 6 6 6 6 8 8 8 8 8 8 8 8 8 9 0 0 0 0 0 B B B S S S L L U P I ! ) e.a.x.M.D.K.aXfXjXlXxXvXbXmXBXVXCXZXZXZXZXZXZXZXZXZXZXZXCXCXCXVXBXmXbXvXxXlXjXfXtXI.D.M.x.h.i.7.( ! E P P L L J B B B B B B B B 0 0 0 0 9 8 8 8 8 8 8 8 8 8 8 8 8 8 8 8 8 8 8 8 8 8 8 8 6 6 8 8 8 8 8 8 8 8 6 6 8 8 8 8 9 9 9 0 0 0 0 0 B B D D L L L P P W E E W W W P P W L L L D S B B B B N 9 8 9 8 8 8 8 8 8 8 8 8 8 4 8 8 O O 6 3 O , 6 + , , 8 6 ) 8 , 3 6 6 3 6 6 6 6 8 8 8 8 8 0 0 0 0 B B S S J L U S L S E ) 7.i.h.S X _ 7.7.a.k.l.c.V.S.F.K.P.I.rXtXtXtXaXaXsXsXaXtXrXI.K.S.N.k.a.7.! E L J J S S B B B 0 0 9 9 0 9 9 9 8 8 8 8 8 , , 6 6 6 8 0 +     + 3 , O                                             O O O O O O O O + , 3 6 6 3 3 3 3 4 4 4 4 V D P P G G W ~ 9.9.9.9.9.6.9.9.9.9.9.9.G W G G G G G G G G G G G G G D G D ",
"+ + + + + + + + + + + + + + , , , , , 3 3 3 3 3 3 3 3 6 8 8 0 B I E ^ ( E J 8 3 6 6 6 8 8 6 6 6 + , 3 , + o X                                                   + + , , + + O     6 8 6 6 , + 8 8 8 8 8 8 8 8 8 8 9 9 0 0 0 B B B B B S U ! 7.p.x.M.H.P.qXaXfXhXjXjXzXzXxXxXxXzXzXzXzXjXjXhXfXaXtXH.P.v.V., 3 M.c.h.s.p.7.! ^ I I P L L J B B B B B 0 0 0 8 8 8 6 6 6 6 6 6 6 6 O z.V.E L   , , O + 0 B 8 X 6 6 6 6 6 6 6 6 8 8 8 8 8 8 8 9 9 9 9 9 B B B S D L L P P E E E E E E E E E E W W E L J J J J B B B 0 0 9 8 8 8 8 6 8 8 8 8 8 8 8 8 8 8 8 8 8 8 8 8 8 8 8 8 8 8 8 8 8 8 8 8 8 8 8 8 8 8 8 8 8 8 9 0 0 0 0 B B B B B S S L L P E ! ^ 7.a.x.M.D.P.qXgXjXzXcXvXmXVXCXCXZXSXGXGXGXGXHXHXLXLXLXHXHXGXGXGXSXSXZXZXCXVXMXbXvXxXlXjXaXI.D.M.c.h.e.7.( ! E P P L J J J S B B B B B 0 0 0 0 8 9 8 8 8 8 8 8 8 8 8 8 8 8 8 8 8 8 8 8 8 8 8 8 8 8 8 8 8 8 8 8 8 8 8 8 8 8 8 0 0 9 0 0 B B B S L L L P E E E E ! ^ ( ( ^ ! E E ! E E P P L S B B B B B 9 9 9 9 8 9 8 8 8 8 8 8 8 8 3 X , J 9 O 6 , + , L L p.h.0 , 3 6 6 3 6 6 8 8 8 8 8 8 9 0 B B B B S J J L I P L P ) e.r.i.p.M.B   l.h.c.M.c.D.L.I.rXaXsXhXjXjXjXlXlXzXzXzXzXlXjXjXhXsXqXK.S.N.h.e.( P L S S S S B B B B 0 9 0 0 9 9 9 9 9 0 8 , 6 8 8 0 0 , O + , 6 6 6 , +                                             O O   O O O + + + , , , , , 3 , 3 3 8 N N D W W W P B B D D V V V V V M M M M N V V N V N N N N N N N N M M 8 8 9 8 ",
"                                            X X X X X     X O + X O O + , 6 9 B 8 8 8 8 6 3 6 6 , + + + + O X                                                 + 3 + + + + + + +     6 8 6 6 9 8 8 8 8 8 8 8 8 8 8 9 0 0 0 0 B B B B S U ! 7.g.x.S.K.qXaXgXjXlXzXxXcXvXvXbXbXbXbXvXvXvXcXcXcXzXjXfXfXP.D.tX, 3 S.H.c.x.h.p.i.( ^ I P L L J J S J B 0 0 0 0 9 8 9 8 8 8 8 8 8 8 8 + I F.s._ 8 0 0 , 0 E I ,   6 6 6 6 6 6 6 8 8 8 8 8 8 8 9 0 9 B 9 B B B D D D L L L P E W E E E E E E E W P W E E I L J J J S B B 0 0 0 0 9 8 8 8 8 8 8 8 8 8 8 8 8 8 8 8 8 8 8 8 8 8 8 8 8 8 8 9 9 8 8 8 8 8 8 8 8 8 9 9 9 0 0 0 0 B B B S J J L L L P E ( 7.p.h.c.S.H.I.aXhXlXxXvXMXVXVXZXDXGXGXHXLXKXKXKXJXJXJXJXJXKXKXKXKXLXHXHXGXGXDXSXZXCXBXbXvXxXlXfXtXP.K.V.x.a.e.7.( E E I U L L L J J B B B B 0 0 0 9 0 9 8 8 9 9 8 8 8 8 8 8 8 8 8 8 8 8 8 8 8 8 8 8 8 8 8 8 8 8 8 8 8 8 8 8 8 8 9 0 0 0 0 B B B J L L L E E E E E ^ E ! ! ! E E E E E E P P L L S S S B B B B 9 9 9 9 8 8 8 8 8 8 8 8 6 + , J J 6 , 8 3 8 ^ J V.^ O 3 6 8 6 6 6 6 8 8 8 8 8 8 9 0 B B B B J J L L I L E E ) ) 7.s.c.S.B   K.h.A.K.P.tXaXfXhXjXjXzXxXcXcXcXvXvXvXcXcXcXcXxXlXjXhXaXqXH.M.k.e.! L L B S S B B S B B 0 B 0 9 9 9 9 9 9 0 B 0 8 0 9 +   + 6 6 6 + , 6 6 +                                             O O O O o + + + + + , , , 6 6 6 6 9 8 4 3 4 , > X , , + O X X O > X X X X   X X X X X X X X X X X X X X X X X X X ",
"                                                    O O O O o + 1 , + O O o + 6 8 8 8 8 6 6 6 6 + + o O O O X X                                             + 3 + + + + + + + + ,   O 6 8 6 8 6 8 8 8 8 8 8 8 8 8 9 0 0 0 0 B B B S P ! 7.s.c.S.H.I.sXfXjXxXcXvXbXbXMXMXBXBXBXVXBXBXMXbXbXbXvXxXzXcXsXI.P.O , K.I.D.S.M.h.h.i.7.^ E P L L L J J S B B B 0 0 9 9 8 8 8 8 8 8 8 8 8 , I P , 6 , , B P ( L O + 6 6 6 6 8 8 8 8 8 8 9 9 9 9 0 B B B N B B S D D L L P P E E ! ! ! ^ ( ( ( ( ( ( ( ! E E I L J L J B B B 0 0 9 9 9 9 8 8 8 8 8 8 8 8 8 8 8 8 8 8 8 8 8 8 8 8 8 8 8 8 8 8 8 8 8 8 8 8 8 8 8 9 9 0 0 0 0 B B B B J J L L P E ! ) e.h.x.M.D.P.tXhXlXxXbXbXBXCXZXZXDXGXLXKXJXJXJXJXJXJXJXJXJXJXJXJXJXJXKXKXKXLXHXGXGXGXSXZXVXMXbXvXxXjXfXaXP.S.M.k.a.e.) ^ E I P P L J J S S B B B B B 0 0 9 9 9 9 9 8 8 8 8 8 8 8 8 8 8 8 8 8 8 8 8 8 8 8 8 8 8 8 8 8 8 8 8 8 8 8 q 0 0 B B B B S J L L P P E ! ^ ^ ( ) ( ( ( ( ( ^ ! ! E E P P L L S S B B B B B N N N 9 9 8 8 8 8 8 8 6 8 6 O 6 ^ ^ 8 8 + 6 B 8 ^ 8 8 6 8 8 8 6 6 8 8 8 8 8 9 0 0 B B B B J L L L P I ! ) ) ) p.a.v.A.S.B   x.x.K.rXaXsXhXjXzXzXxXcXvXbXbXbXbXbXmXmXmXbXbXvXxXzXlXhXsXI.H.M.k.7.! P S S B B B S S B B 0 0 0 0 9 9 9 9 0 0 8 9 9 + X , + , , , 6 6 6 + 6 + O                                           O O O O O O o o , , , , , , , , O O O O , , , 6 , , , , , + O   X X X       X O O X X     X X X X X X X X X X X ",
". .   .                           .               O O o + + + + + + , 6 6 + o o + + , , , + + + o O O O O O     X                                         w 3 + + + + 3 3 3 + o + +     6 9 8 8 8 8 8 8 8 8 8 9 8 9 0 0 B B B B S L ! 7.s.c.S.H.P.qXfXjXzXcXbXbXmXBXVXVXCXCXCXCXCXCXVXVXBXBXmXbXcXcXcXjXv.O , tXfXI.I.K.M.x.p.i._ ( E I I L J J L J S S B B 0 0 8 8 8 8 8 8 8 8 3 6 + + + B E L J J B 8   3 6 6 8 8 8 8 8 8 8 9 9 9 0 0 0 B B B B B B S L L W W E ! ^ ( ) 7.7.7.p.i.e.i.p.r.e.7.( _ _ ( E I P L J B B 0 0 0 0 9 9 9 9 9 9 9 8 8 8 8 8 9 9 9 8 8 8 8 8 8 8 8 8 8 8 8 8 8 8 8 9 9 8 8 9 0 0 0 B B B B B S S J L L P E ( 7.a.k.M.S.H.wXsXjXzXcXbXBXVXVXZXSXGXHXKXKXJXJXJXJXJXJXJXJXJXJXJXJXJXJXJXJXJXJXKXLXLXHXGXGXDXZXVXBXmXbXcXlXjXaXI.H.V.x.h.i._ ( E I I L L L J J S S B B B B 0 0 0 0 0 0 9 8 0 9 9 9 0 9 9 8 8 8 8 8 8 8 8 8 8 8 8 8 8 9 9 9 8 8 8 q 0 0 B B B B S L I E E ^ ( ( ) 7.e.e.e.e.p.p.i.e.e.e.7.) ) ^ E E P L L D S B B B B B B N 9 9 9 8 9 8 8 8 6 6 6 + O B ^ E ! E B 3 + O + 3 6 8 8 6 6 8 8 8 8 9 0 0 B B J J S S J L L L I E ! ) e.h.S.F.H.K.H.B   E I.sXfXfXhXjXzXcXvXbXmXMXMXBXBXBXBXVXBXBXmXbXbXvXcXzXjXgXtXP.J.V.k.r.( E L S B B S S B B 9 9 0 0 B 0 0 0 0 9 B 8 O O 3 8 6 6 6 6 6 6 6 3 6 6 6 o                                                 O O O o + + + , , , + + + O + + O O O , , , 8 6 6 , O   O O X X X X O O O O O X O O X O X X > X X O O O ",
"                                . . . . .               o o o o + + o + + o + + O O o o + + o   O O O O X X                                           X + 6 w + w 3 6 6 6 6 , + O , +   O 8 0 8 8 8 9 9 9 9 9 9 0 0 0 0 B B J J P ! 7.a.c.S.H.P.tXgXjXxXvXbXmXBXVXCXZXZXZXSXDXDXDXSXSXZXZXZXCXVXMXvXbXvXD.3 3 fXbXfXK.U.U.K.M.z.p.e._ ( ! E P L L J J L J B B B 0 0 q 8 8 8 8 8 6 0 8 + 6 , L 0 0 , , + + 8 6 6 8 8 8 8 8 8 0 0 9 0 0 0 B B B B B S D L W E ^ ~ ( ) 7.i.p.g.h.k.h.k.k.k.k.k.h.g.z.p._ _ ) E P L L L J S B B B B 0 0 0 0 0 0 0 0 9 9 0 0 0 0 0 0 9 9 9 9 9 9 9 9 8 8 8 8 9 9 0 0 9 0 0 0 0 B B B B S J J L L I E ! ) e.h.c.A.H.I.aXfXjXxXvXmXBXVXZXZXDXGXLXKXJXJXJXJXJXJXJXJXJXJXJXJXJXJXJXJXJXJXJXJXJXJXJXJXKXLXGXDXZXCXVXMXbXcXzXjXsXtXP.D.M.x.s.i.) ^ ! E I L J J J J S B B B B B 0 0 0 0 0 0 0 0 0 0 0 0 0 9 8 9 9 9 0 0 9 9 9 9 9 0 0 0 0 0 q 0 0 0 B S J J J J L E ^ ( _ 7.e.p.h.x.c.c.x.c.c.x.k.k.k.h.a.i.r.7.) ( ^ E P L L D S S S S B B B B 9 9 9 9 8 8 8 3 6 6 X   , B L E 9 , , 8 8 8 8 8 8 8 8 9 0 9 9 0 B B B S J J J J L L I E ^ ) i.p.k.M.V.S.H.jXtX0 X ! hXjXjXxXxXcXvXmXMXBXVXCXCXZXZXZXZXCXVXVXVXBXMXmXbXcXzXjXfXtXP.H.V.k.p.) E P S S S S B B B B B B B B B B 0 B 0 +   + 6 , 6 8 8 8 6 6 6 8 6 6 6 6 +       .                                       O O O O O O + + + + O O O + + , , , , , < < < > > O X X O O X X X X > X X X         X X X X X X X X > > ",
"                                . . . .           O O o o o + + + + + , + + + o , + + + + + o o O O   O X X                                         O 6 6 + + 6 6 6 , , , 3 6 6 ,   , 6     8 6 8 8 0 0 0 0 0 0 0 0 0 0 B S L P ( _ p.l.V.H.I.tXsXhXlXcXbXmXBXCXCXZXZXSXDXGXHXLXHXHXHXGXGXSXZXZXZXVXmXBXI.  O zXvXV.J _ M.P.F.M.x.g.i.7._ ( ! E J J J L L J S B B 0 0 0 0 q 9 9 0 3 8 8 , O O , 6   + , 9 8 6 8 8 8 8 8 8 9 0 0 0 0 B B B S S S L L L P E ^ ( 8.7.e.a.h.k.x.M.V.V.S.S.D.S.S.A.V.k.( J E _ ) ^ ! I I L L J J S S 0 0 0 B B 0 0 0 0 0 0 0 0 0 0 0 0 0 0 0 0 0 0 0 8 8 9 9 0 0 0 0 0 0 B B B B S J S J L L I E ^ ( e.p.h.c.S.K.tXsXfXjXxXvXMXVXCXZXSXGXHXKXKXJXJXJXJXJXJXJXJXJXJXJXJXJXJXJXJXJXJXJXJXJXJXJXJXJXJXKXLXHXGXDXZXCXBXbXvXxXjXhXaXqXK.S.c.h.i.7.( ^ E I L L L J J J S S B B B B B B B 0 0 0 0 0 0 0 0 9 9 9 0 0 0 0 0 0 0 0 0 0 0 0 0 0 0 0 B S J J L L I I E ^ ( ( ( ( p.h.c.D.H.H.K.L.K.H.S.S.S.V.c.z.a.p.e.7.) ^ E E P P L L L S B B B B N 9 9 9 9 8 8 9 9 8 8 , O + 6 O , X 3 8 6 8 0 9 8 8 9 0 0 0 0 B B B B B B B L L L I E ( 7.i.a.h.x.k.L 8 L P.xX8   e.jXcXcXbXMXMXMXVXVXCXZXDXDXDXDXSXZXZXZXZXCXCXVXMXmXvXxXjXjXsXqXP.D.M.h.e.( ! P S S S S S S S B B 0 B B B 0 B , X 8 8 , 8 6 3 6 8 q q 8 6 8 , + 8 8 +                                         O   O O     O O O + + + + + , + + + + + + , 4 5 4 , , > > O X X X X X > > X O O O O O O O O X X X X X X O O ",
"                      . .         .                 O   +   + , , , + O o O + + o o O O O O O O                                                   o 6 6 + + , 6 6 8 6 O     O   + + O + ,   O 8 B 8 9 0 8 0 B 0 0 B B B S J U ( 7.a.l.V.D.K.I.aXhXjXxXvXmXBXVXZXZXGXGXGXHXLXLXLXKXKXKXLXHXGXGXDXSXZXCXCXqXO 8 fXk.c.tX9 L N.P.H.S.c.h.r.e._ ` ( ^ P.) L L L S S B B B B B 0 0 9 9 8 8 8 8 3 , + O , 3 8 4 8 8 9 B 8 8 9 B 9 9 S S B B S J B J L L L I E ^ ( 7.e.e.a.k.c.S.D.H.K.P.I.P.qXI.I.K.e.S H.a., S ( ! ~ ! E P P L S S S J B 0 0 9 0 0 0 0 0 0 0 0 0 0 B 0 0 0 9 9 0 0 0 0 9 9 9 9 0 0 B B B B B B B J J L L L I E ( 7.e.a.k.M.J.H.qXhXjXlXxXcXbXBXVXZXGXGXGXKXJXJXJXKXJXJXJXJXJXJXJXJXJXJXJXJXJXJXJXJXJXJXJXJXJXJXJXJXJXJXLXHXGXGXZXCXBXbXvXcXlXgXrXI.K.V.x.h.p.7.( E E P P L S S L L L S B B B B B B 0 B B B B B B 0 0 0 0 9 9 9 0 0 0 B 6 8 B B 0 B B J J S S S J L L E E E ( 7.( S 8.h.X k.D.I.sXsXaXaXtXI.I.K.J.S.M.x.k.a.r.) ~ ! ! ! L P P L D B B S B B 0 9 0 0 9 8 8 8 8 8 6 3 3 O + , 6 8 8 8 8 8 8 8 9 0 0 0 0 B B B J L L M.^ L E ^ ! ^ _ d.s.c.x.k.S , p.S.B S.8 X e.cXbXbXmXMXBXVXZXZXDXGXGXHXHXGXGXGXGXDXDXZXZXVXVXBXbXcXxXlXhXsXqXH.C.c.k.p.) E P L S S S B J B B B B J 0 J O   6 + o , O O O     , 8 8 8 9 6 3 8 8 6 + O X   X                           .           O O o O O O O O + + O O O O , , O > , O O O > O > O O X X X O O X X X O O O O O O O O O O O O O O O ",
"                                                        +   O O O + , 3 , + O O o + + o o O O                                             O O   , 6 6 + , 8 6 , 0 +     O O O O         o 6 O   3 8 9 0 B 9 8 B B B B S L E ^ 7.p.k.c.C.H.P.rXsXhXlXxXvXMXVXCXZXGXGXHXLXKXKXJXKXJXJXJXKXKXLXHXGXGXGXSXZXqXO 6 M.O L i.P , ) tXI.P.J.V.x.s.e._ ) B aX! L ) S P S J J S B B B 0 0 9 9 9 9 9 9 8 8 3 8 8 8 8 9 B B 9 B B 9 9 B 9 8 B B B J L L L J E E E ^ ( _ i.p.h.x.M.S.H.L.I.qXsXfXsXsXtXaXH.L S ) ! 8 N ! 7.) ! ! E I P L S S J B B B B S J B B B B B B B B B 0 0 B B B 0 0 0 0 0 B B B B B B B B B B S J J L L P I E ( 7.p.s.x.C.J.L.qXsXjXlXxXvXmXmXCXDXGXGXLXJXHXKXKXJXJXJXJXJXJXJXJXJXJXJXJXJXJXJXJXJXJXJXJXJXJXJXJXJXJXJXJXKXKXGXGXZXZXVXBXbXcXxXlXjXsXwXK.S.c.k.h.p.7.) ! E E P P L L S J J S S B B B B B B B B B B B B 0 0 0 0 0 0 0 0 0 E ! S 0 B B J J J J J L L I P ! ( ( ) e.) 8 8 ^ B E D.jXsXlXjXgXfXfXsXqXH.S.S.V.c.k.a.7.) ) ( ! ! ! L S D S L S B B S B 9 9 B S B 0 8 8 6 6 6 8 8 8 9 9 8 8 8 9 8 8 0 0 B B B S B L L 8 E I.( L I ^ _ i.s.k.x.x.M.( O B ) ) D P 3 X r.vXMXBXCXCXZXZXDXGXGXHXHXLXLXLXLXHXHXGXGXDXSXZXVXBXmXvXxXzXjXgXaXP.H.A.N.x.a.) ! P L S S L 6 J L 0 B B L 3 + 6 ,       O O   O o     6 S 8 0 0 6 3 3 , ,     X O X                         .         O o o o o o o O O O O + O O , , , 3 O X   O             X   X                                       ",
"    .                                                   O     X     X O + + + o O O O o o O O O                                               o 6 3 3 3 6 6 8 8 +     + , + + 6 , 0 L     , 6   O 8 B 0 9 0 B B B B S L E ( 7.p.k.x.V.D.K.I.tXfXjXzXcXbXMXVXZXDXGXGXLXKXKXJXJXJXJXJXJXJXJXKXKXKXHXGXGXGXaX+ 8 h.S E L ! 3 L I.sXrXP.H.V.x.h.p.i.7.X S ( I ( J E L L J J S B B 0 B 0 0 0 9 9 9 8 9 8 8 9 9 0 B 0 8 0 B 0 B B B B B S L L J J L P ! ^ ^ ( _ 7.p.g.k.M.S.J.P.I.tXgXfXjXjXjXjXjXqX) 9 3 8 3 0 e.s.) 7.) ( ! E P U U L S S J S J J J B B B B B B B 0 0 B B B B 0 0 0 0 0 B B B B B B B B B S J L L P E E ^ ) 7.a.z.c.V.K.P.qXfXjXjXxXvXmXVXVXDXGXGXLXKXJXJXKXJXKXJXJXJXJXJXJXJXJXJXJXJXJXJXJXJXJXJXJXJXJXJXJXJXJXJXJXJXJXJXLXHXGXDXZXCXBXmXvXxXzXjXsXtXP.S.c.k.g.e.) ( ^ ! E E P L L L L J J J S B B B B B B B B B B 0 0 0 0 B B 0 0 J 7.( B S L J J S S L L P P E ! ( ) 7.e.a.k.P , 9 S 8.wXcXzXcXxXlXjXjXhXsXtXI.K.D.M.l.a.e.e.7.) ( ^ E P E W S S L J B J S 0 9 0 B B 0 0 0 9 9 0 0 0 0 0 0 0 0 0 9 9 0 0 B B B B J L L B E B O L ^ ^ ( 7.p.s.x.M.D.A.! O 8 B L P 3 N O a.bXBXVXZXSXDXGXGXHXLXLXLXKXKXKXKXKXLXHXHXGXDXZXCXBXmXbXcXxXjXfXaXwXL.J.M.c.k.p.7.! P L L S L 0 S J S J O   3 O     + 0 O 8 8 6 6 +     + 0 9 8 8 8 8 8 8 O O     X X                                 O o O O O O O O O O O + O + , O X O X X X O X X O + X X X X X X O O O O O O O O O O O O O O X X X O ",
"+ + + + o + + + + + + + + + + + + o o o o o o o + + o   O O O + O         X + + O O O O O O O O       .                                     o 6 , , 3 6 6 6 6 6   O + , + + , 3 6 , S ^ +   o 8 + + 8 B 0 B J B B J L I ( 7.p.h.x.M.C.D.P.qXtXfXjXzXvXbXBXVXZXDXGXHXLXKXJXJXJXJXJXJXJXJXJXJXKXKXKXHXHXHXsXO 8 U.( P E B , E I.fXsXtXP.D.V.c.k.k.p.7.7.( ! ( E L P L L J J J B B S B B 0 9 8 8 8 9 9 9 0 0 9 9 8 0 8 9 B S B S L x.) L L E E E ^ ^ ( ) _ 7.i.s.h.x.M.S.H.P.I.aXhXjXlXlXxXzXzXjXH.P B B N ! h.k.k.p.7.` ! E P P P L J J J J J J B B B B B B B B B B B B 0 0 0 0 B B B 0 0 0 B B B B S J J L L I E ^ ( _ i.a.z.v.A.S.P.wXaXhXjXxXvXbXBXCXZXGXDXHXKXJXLXJXJXGXGXGXJXJXJXJXJXJXJXJXJXJXJXJXJXJXJXJXJXJXJXZXBXGXJXJXJXJXJXJXKXKXHXGXGXZXCXBXbXcXxXzXjXsXaXI.D.M.x.h.a.e.7.) ^ E E P W L L L L L J J S S B B B B B B B B 0 B B B B B 0 , 8 6 6 B J J J L L U P E E ! ( ( e.a.k.c.C.e.B L e.K.jXcXbXcXcXcXxXjXfXsXaXqXP.H.V.c.h.p.p.i.7.8.) ( ! ! P E a.E L B S J S B 0 0 9 0 0 B 0 0 0 8 8 8 8 9 0 0 B 0 0 0 B B S J J S S L E ! I I ^ _ _ 7.p.s.z.A.H.D.V.) 3 3 E ! 8 ( L O g.MXZXZXSXGXGXHXLXKXKXKXKXKXKXKXKXKXKXLXHXGXGXSXCXVXMXbXvXxXjXfXsXqXP.J.C.N.x.h.p.7.^ I U J L J B L L ,   6 ,     q J o 8 , 8 , + 8 8     6 8 8 9 0 9 8 6 8 , X     O X                               O o           O + + O O X X X     X O X > , O , , 3 8 8 8 8 8 8 9 9 9 9 9 9 9 9 9 9 0 9 9 9 9 9 9 9 ",
"                                . . .             X + + 3 8 8 0 0 3 O           o O O O O                                                 + 6 3 , 6 6 3 6 8 +   O + + O O , 3 + , +   J `   o   , O o 8 J 0 B L J I E ( 7.p.h.l.N.V.S.K.I.tXsXhXlXxXvXmXBXCXZXDXGXHXKXKXJXJXJXJXJXJXJXJXJXJXJXJXJXKXKXJXfX, 6 xXP.8 B , 9 7.gXlXkXdXI.K.S.M.x.h.s.i.e._ ( ^ ( E I I L L L J S S B B B 0 0 0 0 0 0 0 B B 0 9 9 9 B 0 0 B J B B B ) L 0 J E E I E ^ ) 7.7.i.s.k.x.V.S.H.K.I.qXgXjXlXlXxXxXxXzXzXjXF.p.E ( x.S.x.h.s.p.7.) ^ E E I I L L L J J J B J S S B B B B B B B B B B B B B B B B B B B S J J L L L I E E ^ ( _ 7.a.h.x.V.D.K.I.aXhXjXzXvXmXbXVXZXZXGXHXKXKXKXJXJXJXcXlXxXJXJXJXJXJXJXJXJXJXJXJXJXJXJXJXJXJXJXGXkXI.BXJXJXJXJXJXJXKXLXLXGXGXDXCXVXMXbXvXcXlXgXsXtXL.D.V.M.c.h.a.e.) ( ! ! ! I P L L L L J J J J S S J S B B B B B B B B B B J 0 B L L B S L L U P E ! ! ( 7.e.a.k.c.V.L.J.M.V.sXjXcXmXbXvXbXvXcXxXjXsXrXqXI.H.S.M.x.h.g.a.p.e.7.) ( ( P L ) L L J S J L S 0 0 0 0 0 0 0 9 9 0 0 0 0 0 0 0 0 0 0 B B B J J J S I L L L E ) ( _ e.p.s.z.M.S.H.wXC.8.L 9 > 8 ( I.L O k.VXGXDXGXGXHXLXKXJXJXJXJXJXJXKXKXKXKXLXHXHXGXDXZXVXMXbXvXxXlXjXgXtXwXP.H.A.M.x.h.p.7.! P I B L I B + O 8 +   O L B   , 6 + + , , O , 6 O   , B 0 8 8 8 , 8 6 + X     X O                           .     O     O O O O O O X     X X , 9 V 4 V B N N 3 3 O O O O O X O O O O O O O O O O O O O O O O O O ",
"      . .     .                                     + 3 8 J 9 B P S 6 3 , O           O O       .                                       + 6 6 + 6 , 6 8 8 +     , + o + + 3 3 , 6 8 6   6 7.      6 O   0 J 0 L L E ( 7.i.a.k.x.N.V.D.K.wXtXsXjXzXcXbXMXVXCXSXGXGXLXKXKXJXJXJXJXJXJXJXJXJXJXJXJXJXJXKXKXhX6 6 bXGXD.e.) k.H.lXcXjXjXgXtXI.H.V.c.z.s.e.7.7._ _ E E E I P L L J J B B B B B B B 0 0 B B 0 9 9 0 B 9 B J B B J B 8   8 I ^ E E ^ ( ( _ 7.i.i.a.h.h.v.V.D.K.I.tXgXjXjXjXxXxXzXxXxXlXjXtXI.K.D.F.S.c.h.s.p.i.7.( E E I L L L L L L S S B B B B B B B B B B B B B B B 0 B B B J J J S J L L I I E ^ ( _ 7.p.k.x.M.S.K.P.P.aXjXjXzXvXbXMXVXCXZXGXKXKXKXLXJXJXJXvXgXvXJXJXJXJXJXJXJXJXJXJXJXJXJXJXJXJXJXJXGXjXkXZXJXKXJXJXJXJXKXLXKXLXGXZXCXVXMXbXvXcXxXjXhXaXI.K.D.V.x.k.a.e.e.7.( ! ! E I I L L L L J J J S S S S B B B B B B B B B B B 0 S P L J P I L U P ! ! ( ) e.r.g.x.V.D.tXhXzXjXzXzXbXMXbXbXcXxXxXzXjXkXaXqXP.H.S.M.c.k.h.h.a.e.7.) ( ) ! 8 O 8 S L J B S J B B B 0 0 0 9 0 0 B B B B B B 0 0 B B B B B S J L L B I E E ( E _ _ i.s.z.M.H.K.H.wXaXJ.h.( 7.H.cXcXL , c.VXGXDXHXLXLXKXJXJXJXJXJXJXJXJXJXJXKXLXLXHXGXDXZXCXBXbXvXcXzXjXfXaXqXwXL.D.V.c.h.a.e.) ! I E I P +   0 ,     U J   6 0 6 8 6 8 6 + + 6 8 O O , 0 B 8 6 8 6 6 6 , O     O                             .       O O             X O 3 3 N P D N D D B N O                                                   ",
"                                                    + 6 8 L 0 S ! S 9 9 8 3 + O                                                       + 6 6 , 3 6 3 6 8 ,   O 6 o o + 6 6 , 3 6 + + 6 3 + 8 ^ +   6 +   + 0 J L I ( ) 7.a.k.x.N.M.S.H.P.wXtXgXjXxXcXbXMXVXZXSXGXGXHXKXKXJXJXJXJXJXJXJXJXJXJXJXJXJXJXKXJXjX6 6 vXKXCXcXjXjXxXvXcXjXjXfXaXI.H.A.v.x.a.s.h.7._ _ 7.( ^ E I L L L J J S B B B 0 0 0 0 0 0 0 0 0 0 0 q B J B J J J B B L I P E ( ) ( _ 7.i.p.a.h.x.x.c.M.S.K.I.qXaXjXlXlXxXxXxXcXcXzXxXjXhXsXI.P.H.x.z.h.p.i.7.( ^ E E I I I L L L J J S S B B B B B B B B B B B B B 0 B B J J J J J L L I E ^ ( _ _ i.p.k.v.A.D.K.I.tXdXhXzXcXvXbXBXVXVXCXGXDXLXKXKXJXKXKXKXJXPXKXJXJXJXJXJXJXJXJXJXJXJXJXJXJXJXJXJXJXKXGXPXJXJXKXJXJXJXJXJXGXLXLXGXGXGXZXZXVXBXmXbXxXjXkXdXrXL.D.V.v.k.a.p.i.e.` ^ ! E I I U U L J J J J S J S S B B B B B B S S B L L J J L L L J I I E ( ) _ e.a.a.x.A.P.qXfXjXxXvXzXvXmXmXbXvXcXxXzXjXhXkXsXqXK.H.S.M.v.x.z.k.g.p.p.i.) ( ( E L B J L L J S B B B B 0 0 0 0 0 B 0 0 0 B B B B B B B S J J J L L J E L I ^ ^ i.7.7.p.z.M.H.I.aXaXsXgXsXfXaXhXvXZXmXS , x.CXHXLXKXKXKXKXJXJXJXJXJXJXJXJXJXJXJXKXLXHXGXDXZXCXVXmXbXcXxXjXfXaXtXI.H.D.S.N.x.h.a.e.7.^ E E , O 0 ,   O ( J X 8 B 8 8 3 8 3 , 8 6 + 8 0 O   3 B 0 8 0 6 8 8 6 , O                                                 X X O + , 8 9 9 B W W D P D D B >       X X O O O O O O O O O O O O O X X O O O O O ",
"                                                    + 3 8 L B L ( P B 9 0 9 8 6 6 , + O                                           o 3 , , 6 6 6 , 0 q     , 8 , + + + + + + + + 6 6 6 0 6 o 8 ^ +   + q   o L E ^ _ 7.e.h.x.N.V.S.H.K.I.qXaXfXjXxXcXbXMXVXZXSXDXGXLXKXJXJXJXJXJXJXJXJXJXJXJXJXJXJXJXKXJXzX, 8 xXKXSXSXZXMXmXbXvXxXxXlXhXaXqXK.H.S.A.h.h.s.s.p.( ( ( ! E I L L L J J S B B B B 0 0 0 0 0 B J 0 0 J B B J J J L I E E I E ^ ( _ 7.e.p.g.h.x.M.S.J.H.U.qXsXfXfXhXjXxXxXvXbXbXmXmXmXcXcXlXxXlXaXI.F.V.c.k.s.p.q.7._ ( ^ ! E I I P L L L L L J J S B S B B B B B B B S S J J J L L I I E ! ( _ 7.i.p.h.k.v.S.H.K.I.aXtXsXkXlXvXbXvXMXVXZXZXGXCXLXKXKXKXJXJXJXJXJXJXJXJXJXJXJXJXJXJXJXJXJXJXJXJXJXJXJXJXJXJXJXKXJXJXJXJXJXJXJXGXGXHXGXZXCXVXBXBXmXvXzXzXjXhXgXdXqXP.L.K.A.x.k.k.a.e._ ( ^ ^ ^ E I I U L L J J J J J J J J J J J L L L B L J J E E I ^ ! ! ( _ e.p.h.x.V.H.K.qXaXjXcXbXMXCXVXVXCXBXMXMXmXbXcXzXjXfXaXI.I.H.A.M.v.v.c.z.z.p.p.e.7.7.( E ^ E L L L L J B B B B B B 0 0 0 0 0 0 0 B B B B B J J J J J L L I J ^ I ^ 7._ p.z.x.N.V.A.S.U.aXtXhXhXxXcXmXVXSXBXP 6 x.ZXLXKXLXKXJXJXJXJXJXJXJXJXJXJXJXJXJXKXLXLXHXDXZXCXVXmXvXcXzXjXfXsXaXqXH.H.D.S.M.x.h.p.e.7.( + O J ,   , ) 8 O 8 J 8 , B 8 6 8 6 , 6 6   8 6 X   + B J 8 0 8 6 8 8 3 O                                             O , , 8 8 8 8 9 9 S ^ W D W D V V O X                                                 ",
"o o o o o o o o o o o o o o o o o o o o o @ @       , 6 9 E 0 L 7.E B 0 B 9 8 9 8 6 8 8 O                         . .       .     6 6 + 6 8 3 6 8 B o   6 6 O 6 , + + , , + , 8 6 6 6 8 8 8 6 , i.6   @ q   O L ( ) p.a.k.c.N.M.S.D.K.P.qXsXhXjXzXvXmXMXVXZXSXGXGXHXKXKXJXJXJXJXJXJXJXJXJXJXJXKXJXJXJXJXjX0 , vXJXDXZXDXZXMXbXcXmXjXH.M.M.x.h.h.p.i.e._ ( ^ E E E I P L L J J J B B 0 0 0 0 0 0 q q q q q q 0 0 0 0 0 0 0 0 B B B J L L L P E E E E ! ^ ^ ^ ( ( 7.i.p.s.h.x.M.S.H.H.H.P.P.K.K.P.P.K.H.S.A.M.c.z.p.i._ ( ( E I E L L J S B B B B B 0 0 0 0 0 0 0 9 9 9 9 0 0 0 0 9 0 0 0 B B 0 0 B B B S J J L L L L P E ^ ( ( ( _ e.i.p.a.s.k.x.v.A.M.D.x.H.ZXGXGXGXGXHXHXHXHXHXHXHXGXHXHXHXHXHXHXHXLXLXLXLXLXHXHXLXLXHXHXHXLXLXHXGXmXU.U.U.F.A.v.v.c.x.z.h.a.p.p.e.` ! ! ! ! U ! I I P P U U L J J J J J S B 0 0 0 0 q 8 8 8 8 0 0 0 0 0 0 0 0 B B 0 0 0 B J L J L I E ^ ( 7.p.p.g.v.A.S.D.P.aXtXrXqXqXqXI.P.K.K.H.S.V.M.x.k.h.h.a.i.7.7._ ) ( ( ( ^ E E E I P J J B B B 0 0 0 0 0 0 0 0 0 0 B 0 0 0 0 0 0 B B B B B B B B B S J J J U I E ^ ^ ^ i.7._ p.i.c.hXhXhXjXcXmXBXVXGXVXE + x.CXJXKXKXKXJXJXKXJXJXJXJXJXJXJXJXJXJXKXLXLXHXGXZXCXBXMXbXvXcXlXjXsXtXI.P.K.D.S.V.k.a.a.a.7.O , 0   + 6 p.9 8 0 9 0 B 8 8 6 6 6 8 8 6 6 8 + 6 6 O   , 0 0 0 0 8 6 6 8 6                                     o     3 6 6 6 6 8 8 9 0 B L ( ~ D G W D N   > , , , , , , , 6 6 , , , , , , , 8 8 3 3 3 3 6 6 ",
"@ @ o o o o o o @ o o o o o @ @ o o o o o o o o   X 3 6 8 E 0 I e.! S B S B 0 0 8 8 q 8 O                             .       o , + + 3 6 6 6 q 8     6 6 o + , , , , 6 9 9 8 3 8 8 8 8 8 8 6 6 B z.8   + q   + J p.p.a.x.x.V.C.S.D.H.P.qXaXhXjXzXcXbXMXVXZXSXDXGXHXLXLXKXJXJXJXJXGXjXCXJXJXKXJXJXJXJXJXkX0 B bXJXHXGXZXVXBXMXCXqX7.8 +   O 3 + O O O O O O + O + + O O O O O O O O O O O O O O             O O O O O O O O O O O O O O X X X O O O O O O O O +     X O X O + + O O , , , , 3 8 O 3 3 , , , + O O , + X O + O O O O O O O O O X O O O X         O O O O O O O O O O O O O O O O O O O O O O O O O O O O + + , + 3 3 3 + O O O + O 3 O 3 3 6 P r.i.i.e.7._ _ _ i.i.i.d.p.p.a.a.s.h.s.s.a.s.s.k.z.z.z.k.s.s.s.a.d.p.s.8 + , 6 6 8 8 8 8 6 8 6 6 , 3 3 + + 3 3 3 3         X X O O O               O O O O O O O O O O O O O O O O   X O O O O + + O O O O O O + + , 1 6 , , 3 , O O O X X O , , O O X X O O , , + , O O + + + O O O O O O X X     O O O O O O O + X O     X O O O O O O O O O O O + + + + + + + + , , + + + + + + + + O , 3 + , E tXzXcXvXBXCXZXDXZX! 6 x.CXKXKXKXJXKXKXJXGXI.vXJXJXJXJXJXJXJXKXLXHXGXDXZXCXVXMXbXcXxXjXhXsXaXqXI.K.S.V.M.x.h.h.a., , 8 ,   B z.0 0 9 0 8 8 9 8 0 0 8 8 8 6 , , , B 3 8 0 X   , B B 6 6 0 9 6 8 0 o                                 o     6 6 6 8 8 8 9 9 B B P ) ~ G W W D S O O 6 3 6 6 6 6 6 8 8 8 8 8 8 8 8 8 8 8 8 6 8 8 8 8 ",
"                          .                       X 3 6 8 E B E e.^ L S B B B 0 0 8 0 8 O                             . .   o 6 0 + + 6 6 8 0 0 +   , 8 o + 8 o , 6 6 , , 6 8 6 6 6 8 8 8 8 9 9 6 0 s.q   + B   O B e.h.h.x.M.V.D.H.K.I.rXsXhXjXzXcXbXmXBXCXZXZXGXGXHXLXLXKXJXJXKXGXjXVXKXKXHXKXJXKXKXJXfX8 0 bXJXGXDXGXZXDXVXD.9 B 6 + 3 6 6 8 8 6 3 3 , , , , , , , , , , , , , , , , , , , , + + + + + + + + + + + + + + , , , , + + + + + + , , , , + + + + 3 3 3 3 , , , , , 3 3 , , , 3 3 8 3 3 3 O 3 6 , + , , + O + O O + + + , , , , + O O + + O O O O O O O O + + + + , + + + , , + , + + + + + + + + , , , , , , , , 3 3 3 3 8 8 8 9 8 8 0 0 9 B 8 8 9 9 B B B 0 B S S S S S S S S S L J J B B B B 0 J B B B B B 0 8 8 8 0 J S 0 B 8 8 8 8 8 8 8 8 8 6 8 8 6 3 3 3 3 3 3 , , + + O O O O O O + + + + O O O O O O + + O O O O O O O O O O O + + O O O o + + + + , , + 6 + O , 6 3 3 8 3 8 6 , , 3 3 3 3 3 3 3 3 3 3 , O O + , , , , , , , , , , , , , + + + + + + , , , , + + + + + + + + + + + , , , , , , , , , , , , , , , , 6 6 6 6 8 9 , O 6 0 8 8 H.cXBXVXCXSXGXCXE , M.ZXKXHXKXLXLXLXJXGXdXBXJXJXKXKXKXKXKXLXLXHXGXDXZXCXBXmXbXvXcXlXjXfXaXqXP.P.S.C.M.c.M.i., , B ,   I i.9 6 9 B 0 B 0 8 0 8 0 9 8 8 9 8 8 8 8 , , B B O   + B 0 0 0 8 8 8 6 6 O                               o   O 6 6 8 8 8 9 9 0 B S E 7.~ G ~ W D D > X               X                 X X             ",
"                        .                           3 6 0 ^ B E p.( L B B B B B B 9 0 q o                                 o 6 6 + o + 6 q 0 6 O O 6 6 O   , 6 + , 6 6 , O + 6 8 6 8 8 8 9 0 0 B 8 o 0 z.J O + J + O ^ k.c.S.J.K.K.L.I.tXdXhXjXzXvXmXBXVXZXGXHXLXKXJXJXJXJXJXJXJXJXJXJXJXJXJXJXJXJXJXJXJXjXq 0 BXJXJXKXKXKXmXh.9 J 8 3 , O O O   O O X X X X                                                                   O           X X X                                                         X             O X     O                 O O O O O                                       O O X X   O O O             X O         X O O + 3   O , 3 , 0 3 + + , 3 8 9 9 8 9 9 0 B B B B B 0 0 B B B B 0 0 B 0 0 0 0 0 0 0 8 8 ,   O + + O O O O           X X X         X X         X X X O O O O O O X X X X X             X X X X X X X O O X       X O           X         O O             X X X   X X X X X   X       O X X           X X X X X X     X                                                                       X       O     O O + , 6 L 9 p.vXDXSXHXGXZX7.O S.ZXJXJXJXJXJXJXJXJXJXJXJXJXJXJXJXJXJXJXJXJXKXLXGXDXZXVXVXmXvXxXjXfXsXtXI.wXwXH.D.V.7.3 O 6 6   I p.0 0 6 8 B 0 S B 9 0 8 6 6 6 8 0 0 0 9 6 8 + X 8 0 , X + 9 S 0 8 9 0 , 6 6 +                             o   O 6 6 8 8 8 0 9 B B S ! p.9.W ~ W D D O   X         X X X O X O O O X X O O O X     X O O ",
"                      .                           X 3 6 8 ^ S E a.8.P S B B B B 0 9 0 q +                               @ : 6 + 6 6 , + 8 8 + O + 6 + O + + + 6 3 , , 6 8 8 8 6 8 8 9 9 9 9 9 9 B B , B i.S O , , + X S ( ( 7.7.p.a.h.x.c.M.V.S.S.D.K.L.qXtXdXgXfXjXjXxXxXcXvXbXbXcXmXbXvXbXbXvXbXxXjXkXF.8 J jXzXjXaXsXH.! B 9 + + , O X 9 ! ! E P L P L L S S B B B B 0 0 9 8 8 8 8 6 6 6 6 3 3 3 3 3 3 3 3 3 , , , , , 3 6 8 6 , , 3 6 6 6 6 6 6 8 8 8 9 0 0 B B B B S S D L L L L E E E ^ 7.! e.! L ! P L ) P B B S 0 8 9 0 8 8 6 6 3 3 3 3 , , , , , , , , , , , , , , , , , , , , , 6 6 6 , , , , 3 6 6 8 8 8 8 0 0 B S J S L L L L L P I L ! E E W L g.xXfXfXfXgXfXhXjXjXlXlXlXlXlXxXxXxXxXxXxXxXxXxXxXxXxXxXxXlXlXjXlXlXlXfXi.i.p.p.7.7.( ( ! ! E E E E P L L L S S S S B 9 9 9 9 9 9 9 6 6 3 3 3 , , , , , , , , , , , , , , , , , , , , , , , , , 6 8 8 8 8 0 B 0 J P ^ E L E ! E ) e.) ! E ! ! E E ! P L L L L L L L S S B B 0 9 9 9 8 8 8 3 3 3 3 3 3 3 3 3 3 3 3 6 , , , , , , 3 3 , , , , , , , , 3 3 6 6 6 6 6 8 9 9 0 B B B J L J I L 6 O O + + + J 9 E A.K.P.I.I.^ O x.fXjXjXzXxXxXxXxXvXbXvXvXvXcXxXxXxXxXxXxXjXjXkXgXsXaXtXqXI.K.D.V.M.N.x.k.k.p.p.r.E 3 , 8 O O I a.6 B J B B B 8 0 0 9 B 0 0 0 9 9 0 0 8 8 0 6 8 +   8 J O   + 0 J 9 , 6 0 6 8 8 +         .                 o   O 6 8 8 8 8 9 9 B S J ( g.8.W 9.~ D S > X                 O     O X     X                 ",
"+ + o + + + + + + + + : 6 + + + 6 6 6 6 6 6 6 6 o o + 3 8 ^ J ^ g.8.P L L S B B B 0 0 0 +                             o + + + + J B + o 6 +   6 8 6 8 0 q 8 8 q 8 8 8 B B 0 8 8 8 8 8 8 9 0 9 9 B B S + 0 7.I + , +                 X X O O O + + , , , , , 3 6 6 8 8 8 8 0 B S J J 0 S J J J U U S J J U 8 q S 8 3 S 8 , 9 8 3 , , O 0 a.D.K.K.S.M.x.x.k.s.p.r.7.7._ ) ( ^ ^ ! L L L L L J J J B B B B B B B B B B B B B B B S J J J L L L P P L I I E ! ^ ( ( ) 7.7.p.p.a.a.a.g.a.k.c.x.x.V.P.tXsXzXcXxXzXsXS.V.x.h.i.) ` ( P I L L L L L J J J S B B B B B B B B B B B S S J B B B B B S J J L L L I E E E E ^ ( ( _ 7.e.i.p.a.h.k.x.c.M.S.D.A.H.D.I.qXqXV.vXSXDXGXGXDXDXGXGXHXHXHXHXLXLXKXKXJXKXKXLXHXHXHXHXHXHXHXGXGXGXGXGXZXjXqXhXjXfXsXaXI.I.P.K.H.D.S.S.c.x.k.k.h.p.i.e.7.8.) ( ! ! E E E I I P P L L L J J L L L L J J B B B B B S S S B B J J L P I E I P E ) 7.e.h.M.M.J.wXzXbXvXxXjXfXP.S.S.D.V.M.M.x.x.k.h.h.g.p.p.e.e.e.7.7.) ( ( ! E I P P P L P S S S S S S S S B B B B B B B B 0 B B B B B S J J J J L L L P I E E E ( _ 7.a.z.x.v.x.h._ 0 O , O 8 8 8 O + 8 + , 8 O U 0 3 9 9 8 q 0 0 0 0 J J S B 0 0 0 8 8 6 6 3 , + , , , , , + + , , , O O ,   X X   O 3 X B ( a.B S 0 B S B B 0 B B B B 0 J J J B B B B B J B L I S L P 0 , O , 0 9 8 8 0 8 6 8 6 +                       O o   O 6 8 8 8 9 9 9 B S L ) x.r.W 9.~ D D 4 3 B S B D Z L Z Z B B B L J B B J S S B B S S S S ",
"                      o o           .           X o 3 6 8 ^ L ) x.7.W L L S B B B 0 B 0 +                           X 6 6 + + 6 6 6 + + +           O o O o +   X O O O   X O O         X O O O X O X 6 + , P L 6 O 8 +   O   O O O O O O O O O X O O O , 3 , 3 6 3 3 6 3 6 8 8 6 0 6 6 6 6 3 8 , 3 8 + o 6 S 6 3 6 , 3 8 3 ,   O X ! D.K.D.D.S.M.x.h.g.a.r.e.7.( ( ( ^ E E I P L L L L J J B B B B B B B N B B B B B B B B B B B B B B J L L L J L L I I E E ^ E ! ) 8.e.e.r.p.p.p.g.k.k.k.M.J.D.V.aXlXhXhXtXh.S.k.a.e.) ) ( P P L L J J S B B B B B B B 0 0 0 0 0 0 0 0 0 0 0 0 0 0 B B B B B B S J L L I I I E ! ^ ( _ 7.e.i.r.p.s.k.x.c.M.V.V.S.H.wXP.sXJ.aXlXxXvXvXvXvXvXvXbXbXbXbXbXbXbXmXbXmXmXmXMXmXmXmXbXbXbXbXbXbXbXbXxXD.sXgXaXqXqXI.K.H.J.S.A.M.c.x.k.h.g.g.p.r.7.7.( ^ ! ! ! E E E L L L J J S B B B B B B B B B B 0 0 0 0 0 0 0 0 0 0 B B J L L P P P E ( ) e.h.c.h.K.qXaXhXzXhXD.P.V.l.x.c.x.h.h.a.p.p.e.r.e.7.7.) ) ) ( ( ! E P P P L L D S S S J S S B B B B B 0 0 0 0 0 0 B B 0 0 0 0 B B B B B B S J L L P P L I E ! ^ ( 7.p.i.s.z.x.v.h.I + O   X 6 3 , 6 6 6 8 , 3 + 3 3 , , 8 6 3 3 , 8 O 3 3 3 3 3 3 3 3 3 3 , , , , , , O O O , , , , O   3   X 9 ,   S L E 8 O 8 6 O , O O , , , , O X   O , , O O + , O O   O , O   O O X   X , J L 0 8 6 6 8 6 o                     O o   O 8 8 0 0 0 0 0 S J P 7.N.t.~ 8.~ D D 4 , O O O , , , < o , O , 3 3 , , , + + O O O O + + ",
"    . . .             o +                           6 8 0 ( L 7.S.p.E P L S B J B B S 0 +                         o 6 6 6 6 6 6 6 6 3       +     o O   O O   + + + + O , 8 8 , 8 6 , , , , , , 3 , 6 6 6 8 J _ I L , 6 S 8 6 8 6 6 6 8 8 8 8 9 9 9 9 9 B 0 9 9 0 0 B S S B B S L B L J J J B B 0 S 0 B L U L B 0 B B B S 8 3 S ` V.I.I.K.L.K.S.S.c.k.h.a.e.e.e.) _ ) ( ^ ! E E L L L L J J J B B B B B B B B B 9 B B B B B B B B B B B B S J L I I I E E E E ! ! ( ) ) 8.7.e.p.r.r.a.g.k.l.c.M.S.D.L.qXI.H.V.M.V.p.) 7.( ( ! E ! E L J J S S S 0 B B B B B B 0 B B B B B 0 0 0 B B B B B B B B J J L I I E E E E ^ ( _ 7.7.i.p.s.h.k.x.c.M.M.M.D.S.H.I.I.I.aXfXcXcXcXcXbXbXbXbXbXbXbXbXmXmXmXMXmXBXBXBXBXBXmXmXmXbXbXmXmXbXbXbXaXsXjXfXaXaXI.I.K.H.J.D.S.S.V.M.c.x.k.h.a.p.i.p.7.8.) ( ^ ! E E E I L L L L L S S S S S B B B B 0 0 0 0 0 B B B S S J J J L P P E ! ( ) 7.r.l.V.C.J.J.I.L.S.J.J.D.V.M.M.c.x.h.h.h.a.p.p.p.p.i.e.7._ ( ( ( ~ ! ! E E P P L L S S B B B B B B B B B B B B B B B B 0 0 0 0 B B B B 0 B B S J L L L E E ( _ _ ) 7.p.s.h.z.z.h.x.v.x.I L B 9 B L S B B 9 S B L L S S S S B L S S S S B 0 0 B B B S S B 0 B B B B B B B 0 9 9 8 8 8 9 8 4 9 9 3 8 P ) L 8 8 S 8 8 6 , 3 , 6 , , , + , O 6 9 8 3 , , , , + + + + + + O O , O     8 B 8 8 8 8 6 8 8 +         .         O +   O 8 q 0 0 0 0 B S L I r.V.r.9.8.9.D D >   X X O O O O O O O X O , , O X O O O O O O O O O ",
". . . . . . . . . .   . .   .         .           o 3 6 0 ( U 7.F.k.E E P L S S S S S J o                       + 6 3 + 6 6 6 8 8 +   + 6 6 6 q 9 0 0 0 0 0 0 B B 9 J L B ! h.z.8 I B 9 8 0 B B B B B B B S S B L P P P P E E ! E E ( 7.7.) ) 7.i.p.p.s.h.z.x.x.c.c.N.M.M.S.S.S.S.F.H.H.F.S.D.F.F.S.S.F.A.F.F.H.A.v.v.M.x.a.p.z.F.V.v.M.V.M.x.k.p._ _ _ 7.^ ( P I I P L J S B 0 8 0 0 0 B 0 9 8 9 8 8 8 4 4 4 4 3 4 4 8 4 4 8 8 8 8 9 9 9 9 9 9 9 9 9 B S S S L S L L P E E ! ! ^ ! E ( 7.) ) 7.7.) ( ( ^ E P U J U P P L L S B S B 9 9 8 9 9 9 9 8 8 8 8 8 8 8 8 8 8 8 6 6 8 8 0 8 8 9 9 0 B B 9 B B B B L L L L L P E E ^ ( ) 7.e.r.p.a.k.x.c.M.M.V.A.S.D.D.D.D.jXzXlXxXlXjXcXxXxXxXxXxXxXcXcXvXvXcXcXcXcXcXcXxXxXxXxXcXcXjXdXH.P.I.P.K.K.H.J.S.S.V.M.N.c.x.k.h.h.a.r.e.8.( ! ! E W P P D S D B 9 9 9 B 9 9 B 9 8 9 9 8 8 4 8 8 8 3 3 , , 3 3 8 3 4 9 B B B B S 9 S L U E E P P W ! ! E E P P P P ! ( ( ( ) ( ! ! ~ ~ ! ! ^ E W W W W P D S S B S S B N 9 9 N 9 9 N N 9 8 8 9 4 4 8 8 4 3 4 8 4 4 8 8 8 3 8 9 9 9 9 B B N B B B B B B L E ! ( ! ) ) a.e.h.a.h.a.p.p.h.a.a.c.A.N.c.N.M.A.A.A.D.A.A.S.A.M.V.A.M.A.M.v.M.M.M.c.x.g.k.k.h.a.a.a.a.e.7.8.8.) ^ ^ ^ ! ! E P P E P B L L S S S B B S S 9 B 9 9 B P D c.x.7.P E E L P L L L S S S B B S S B 4 X   , B 9 8 8 8 6 3 3 ,                   +   O 8 8 9 B 9 S S S L E p.H.j.~ t.~ D D < X > O , , , + O O O X O 4 + O O + , + O + , , , O ",
". . . . . . . . . . . o o .                     o o 6 6 0 ( U 7.K.x.! E P L S S S S J J +   .   .           o + 8 o + 6 6 8 8 6 o O O 3 8 8 8 8 8 8 9 0 9 9 0 0 B B 8 S L 8 L S.F.0 E P L B 0 L B B B B S S D S B S L P P E E E E ^ ( ( _ e.i.7.i.p.p.a.s.s.s.g.a.h.x.x.x.x.z.z.k.z.x.x.x.x.c.v.v.A.M.M.x.x.p.z.z.h.h.h.h.s.p.s.x.M.A.S.A.S.D.H.D.S.D.V.v.M.c.S.M.M.M.v.c.x.z.z.x.z.s.p.i.i.i.i.7.8.8.8.8.7.7.7.7.7.8.) ~ ~ ( ) ) ) ) ( ! ! ! ! ( ( ^ ! ( ! ! ( ( ( ) ) 7.7.7.7.7.p.p.e.e.i.i.p.a.p.e.7.e.e.i.p.h.a.e.) ( E I P L L P W P S S L S S B S S S S S J J S S S B S B B B S J J S J L L L P E P P E E E ! ^ ( ( ( ) ) ( 7.p.g.h.h.a.p.h.k.l.c.c.c.c.c.s.( E ( ( ( _ ) 7.7.e.e.e.e.7.7.e.e.e.e.7._ _ _ a.a.p.7.( ( 7.p.S.J.H.J.S.V.M.c.M.N.c.x.x.h.h.a.a.p.e.e.e.e.8.) ) ( ! ! ! W P P ! E E E P L S S S S S L L S S D S S L L L L L L P P P L S S L E P ( ! I ( e.) ( e.r.e.e.e.p.a.h.a.a.a.p.e.e.p.a.g.g.g.r.7.8.7.8.7.) ~ ! W W E ! ( ! ! P P P E ! E E E E E E E ^ ( ( ( ( ( ( ( 8.8.8.) 7.7.) 7.e.p.r.e.e.i.p.g.h.h.x.c.N.c.c.M.D.I.P.H.I.K.H.V.S.S.M.M.c.c.c.x.g.p.h.j.g.h.i.h.p.s.h.g.h.p.x.z.h.h.h.k.h.s.i.i.p.a.a.h.x.h.i.7.e.7.8.8.8.8.) ^ ^ E E E E P L L S L L L L B B B 9 B D 8 S E E E k.jXa.L ! P S P L L L L L L S S B S B B B 8 X   , 9 9 9 9 3 , 3 8 + +           . O +   O 8 q 9 B 0 S S L P ! h.wXj.9.t.~ G G M 4 X X O O O O O O + O O 3 O O O + O O O O O O X X ",
"* * + + + + + + + + o 6 6 o + + + + + + + 6 6 6 + + 6 8 0 ` I e.I.N.( E E P L S S S J L +   .               + 8 6 , 6 6 3 8 8 +   O , 8 8 8 8 8 8 9 0 0 0 0 0 B B J B B L L J L H.fXE E ( E ^ E ( ) 7.7.e.p.a.h.h.x.c.M.M.V.C.V.H.K.I.qXqXqXaXfXxXxXcXvXbXbXmXmXVXZXSXDXSXSXDXDXGXGXGXGXGXGXGXGXGXLXLXHXGXGXGXGXGXGXGXGXHXLXHXHXHXKXJXKXKXKXKXLXLXKXDXSXSXDXCXCXZXZXCXVXBXmXbXbXbXbXvXxXlXjXjXhXfXsXaXtXqXwXwXI.wXI.P.L.L.L.P.P.wXqXqXwXI.I.wXqXaXaXaXaXsXsXsXfXjXlXzXxXcXcXvXbXBXCXZXZXSXGXHXHXLXKXKXKXKXKXHXGXGXSXZXVXMXvXxXlXjXjXsXI.K.D.S.S.S.A.V.M.N.x.l.k.x.x.z.k.z.z.z.k.k.z.x.c.x.x.x.v.A.S.D.H.K.K.P.wXI.tXfXjXzXcXvXbXBXVXCXZXSXDXDXSXGXGXHXLXLXKXKXKXHXBXMXVXBXBXCXBXVXCXCXCXCXCXVXVXCXCXCXCXCXVXCXCXVXVXCXCXVXBXVXCXHXKXKXKXKXKXKXLXKXLXLXHXGXGXDXSXZXCXVXMXbXcXzXlXjXfXsXtXqXI.K.K.P.K.H.H.D.S.V.V.S.V.V.M.M.M.N.M.M.M.C.S.S.S.S.S.H.H.H.H.P.qXaXsXlXzXcXmXbXBXZXGXGXHXLXLXKXKXKXKXKXLXLXGXDXZXZXZXVXBXMXbXcXzXlXjXjXjXhXhXgXsXsXsXaXtXrXqXI.I.P.L.P.L.L.L.L.L.L.L.L.L.L.L.L.L.L.P.qXwXwXwXqXqXqXtXfXfXfXjXjXjXlXxXbXbXMXBXVXVXCXZXDXHXHXGXDXHXHXHXHXKXKXKXLXKXKXHXHXSXGXHXGXSXHXGXGXHXHXKXGXGXGXGXGXGXGXGXGXSXSXSXZXCXVXVXMXbXcXcXzXlXjXhXfXaXqXI.K.J.D.D.A.c.x.c.a.h.h.p.e.e.e.7.E ( E ( ! E L.qXE L E ! P L E P L L L L L S S B S B B S B 3 X   3 9 B 9 3 8 9 , 6 ,           . O +   O 0 0 9 B B S S P E E k.aXl.8.t.9.D W 4 4 B B B B B B Z J B B B L B 0 0 B 0 B B B B B B B ",
". . . .     . .       .                         O + 6 8 0 ` E i.rXV.) ! E E L L J L L U +     .           o + 6 + 8 6 3 8 6 O   + 3 8 8 8 8 8 8 9 0 0 0 0 B B B B 8 J L 0 L E B S z.xX7.B E P E ) ) 7.7.7.e.p.p.g.h.k.x.x.c.M.M.D.D.K.wXqXwXaXhXhXjXxXvXmXVXZXSXSXGXHXLXKXKXJXJXJXJXJXJXJXJXJXJXJXJXJXJXJXJXJXKXJXJXJXKXLXLXHXGXGXDXCXVXMXbXxXjXfXfXaXaXaXrXK.L.D.S.V.c.x.h.g.s.7.7.7.7.7._ ( ^ ( ( ^ E E W W W E ^ ^ ^ ^ ^ ^ ( ( ) 7.e.e.p.a.a.a.h.k.c.M.C.A.S.S.J.K.I.qXaXfXjXlXlXzXcXbXbXmXMXBXVXVXBXMXmXbXvXcXzXjXhXfXaXqXI.V.M.l.h.k.k.a.i.p.e.7.8.) ) ( ( ) ( ^ E E ^ ^ ^ ( ( ) 7.7.7.7.i.7.7.e.a.h.x.M.D.P.qXaXhXjXlXxXcXmXMXVXVXCXZXGXGXLXLXKXKXKXJXJXJXJXJXJXJXJXJXJXJXJXJXJXJXJXJXJXJXJXJXJXJXJXJXJXJXJXJXJXJXJXJXJXJXJXJXJXJXKXJXJXKXKXKXLXHXGXDXSXZXCXCXBXbXvXzXhXsXtXI.K.J.D.C.V.N.k.h.a.a.p.p.p.p.p.7.) ) ( ^ ^ ( ^ ^ ^ ! ^ ( ( ) ) 7.e.a.k.M.V.V.M.L.P.aXjXlXxXvXmXBXVXVXVXVXVXBXVXMXMXmXvXcXzXjXjXhXhXhXsXaXaXtXI.I.P.L.K.D.V.V.c.c.c.x.x.k.a.r.r.7.7.7.7.) ^ ^ ( ^ ^ E E E E ^ ! ! E ! ! ( ( ( ! ( ) 7.e.e.p.a.a.p.a.x.V.D.H.K.I.P.P.aXjXlXzXcXbXVXZXZXZXDXLXKXJXJXJXJXJXJXJXJXJXJXJXKXJXJXJXJXJXJXJXJXJXJXJXKXKXHXDXCXBXMXbXvXxXzXjXsXaXqXwXK.P.H.S.S.M.x.k.x.k.k.h.p.i.r.e.7.h.) 7.( ( jXhX) E ) P S E E L P L L L L L L S S S S B 9 N B 4 X   3 9 9 8 9 9 , 6 + +       .   O +   O 0 0 0 B B S S P E E k.sXl.8.r.8.D W 3 > X X             O     ,   X     O O O O O X O O ",
". .     . . . .       O o                           , 6 0 ) E p.tXS.7.( E E P L J L L L +               o + O + 6 6 , 8 q O   o 6 8 8 6 6 8 8 8 8 8 9 0 0 0 B B B B S J S B L ! ^ L h.xXp.9 ) ) 8.) ) 7.e.e.p.p.h.h.h.k.x.c.M.V.C.D.D.H.I.tXaXtXjXlXxXcXcXbXMXBXZXZXDXGXGXHXLXKXKXKXKXKXKXJXJXJXKXJXKXJXJXLXJXJXJXJXKXHXGXGXZXZXZXCXMXmXbXcXcXxXlXjXhXP.H.P.H.D.D.C.M.c.l.k.h.a.h.a.i.7._ ) ( ^ ) ) ( ^ ^ ( ( ( ! ! ( ( ( ( ( ( ) 7.7.i.p.a.h.k.k.c.c.M.S.J.H.K.P.I.qXtXsXfXjXjXzXxXxXvXbXbXbXmXVXVXVXMXmXBXBXBXmXmXbXbXcXlXaXP.wXH.V.V.M.l.a.a.e.7.8.) ) ( ( ) ( ( ( ^ ^ ^ ( ( ) ( ) 7.7.7.i.i.a.a.h.x.c.M.D.P.P.qXsXhXjXlXcXvXvXbXMXBXVXCXZXSXDXGXGXGXHXLXKXKXLXKXKXLXJXJXKXJXJXJXJXJXJXKXJXJXJXJXJXJXJXJXJXJXKXJXKXKXKXKXKXKXJXKXKXKXKXKXLXHXHXGXGXSXZXZXCXVXBXBXmXbXvXcXzXjXsXtXI.K.H.D.S.V.c.x.l.h.g.g.g.a.p.e.7.7.7.8.) 7.8.) ) ( ) ) 7.7.7.a.x.c.M.S.H.H.I.rXsXgXhXzXMXVXVXCXCXCXCXZXZXZXZXVXBXMXMXmXbXvXcXxXzXlXjXfXsXaXtXrXI.P.K.D.D.D.C.V.N.x.x.x.k.k.h.g.r.7.7.8.) ) ) ( ( ^ ^ ^ ^ ^ ! E E ! ^ ( ( ( ) ) ) ) 7.7.e.p.a.h.k.x.c.V.H.I.P.P.wXaXfXhXzXbXbXMXBXVXCXZXHXLXLXJXKXLXJXKXLXJXJXJXJXJXJXJXKXJXKXKXKXKXLXGXGXGXSXZXCXBXmXmXvXxXzXlXfXaXqXqXwXL.H.D.A.V.M.c.x.k.h.g.p.p.i.7.7.e.g.i.( a.zXqXE E E E ^ ^ W P E E P P L L D S S S S S B 9 9 B N 3 X   , B B 3 8 B , O ,             +   O 0 B B B B D L P E ( c.gXx.8.r.8.G W >   X X X X X X   X O X X , O O X O O       X X X X ",
". . . .                           .               O 3 6 0 _ E p.aXS.7.( ! E P L J L L P +       .       o +   , 6 , 8 8 O   + 6 6 6 6 6 8 8 q 8 8 8 9 0 0 0 B B B L S B I I J J J E I g.xXJ.7.i.( ( ) 7.e.p.a.a.h.h.k.x.c.M.V.S.D.D.H.P.wXtXaXaXhXjXzXcXvXmXBXVXCXZXSXDXGXGXHXHXKXKXJXJXJXJXJXJXJXJXKXLXJXKXLXJXKXHXGXGXHXGXGXGXZXCXBXMXmXvXcXxXjXjXtXjXjXD.K.K.D.S.M.c.x.k.g.a.p.p.i.e.7.7.7.7.) ( ( ! ! E E ! ! ! ! ! ^ ( ( ) e.e.e.i.p.g.k.x.c.M.M.M.S.J.H.K.P.I.qXaXsXfXjXjXjXxXcXvXbXmXMXBXmXMXBXBXBXBXMXmXbXbXcXjXjXjXjXfXtXI.K.V.x.x.x.a.h.a.p.p.e.7.) ) ( ) _ 7._ ) _ _ 7._ _ 7.e.i.i.p.h.k.c.M.A.S.H.P.wXtXfXjXjXzXcXvXvXmXMXVXVXCXZXZXZXSXGXGXGXHXLXLXKXKXKXJXJXJXJXJXJXJXJXJXJXJXJXJXJXJXJXJXJXJXJXJXKXJXJXJXJXJXJXKXKXLXLXLXKXLXLXHXGXGXSXSXZXCXCXVXBXMXbXvXcXcXzXlXhXsXqXP.H.J.S.V.c.c.x.k.h.a.p.p.i.e.7.7.7.7.7.7.7.7.7.7.e.i.p.a.a.h.x.c.V.D.P.wXtXdXzXvXbXMXMXMXMXBXVXVXVXVXCXCXVXMXMXmXbXbXvXvXcXzXlXlXhXfXgXsXrXqXI.L.K.J.D.D.V.M.x.l.k.k.k.h.g.p.r.r.7.7.8.8.( ^ ^ ^ ^ ^ ^ ^ ! ^ ! ^ ( ) ) ( ) ) 7.e.e.e.p.a.h.x.c.c.M.V.S.D.V.P.gXjXjXxXvXvXBXBXVXZXZXDXGXGXLXHXGXLXJXGXJXLXHXJXKXJXKXJXKXJXKXKXKXLXLXHXGXSXZXCXVXBXMXbXcXxXzXlXhXsXtXqXI.L.S.S.S.V.V.M.c.k.k.g.a.g.a.i.e.i.) e.h.sXV.E ) ! ! P E P S W ! S P P L L D D D D S B B S B 9 8 9 3     3 9 9 9 9 ,   6             +   O B B B B B D L P E ) V.jXN.8.r.8.P P >   > O > > , > > > O O O , O O O O + O O O O + O O ",
"o o o o + + + + . + O o o o + O O O o o o o o o + + 8 8 B _ ^ s.jXK.e._ ( E P P L L P I +   O O .       o +   6 3 6 8 +     6 6 6 6 6 8 q q q 8 0 0 0 0 B B B B J 0 B L L J P E L ! ^ L _ N.I ^ ( ) ) 7.7.7.e.r.a.a.h.x.c.c.M.V.C.C.J.P.I.P.qXsXhXjXzXxXcXbXMXBXVXCXZXSXGXGXHXHXLXKXJXJXKXJXJXKXHXZXZXvXVXJXKXHXKXHXGXGXGXGXSXZXCXVXBXBXmXbXcXxXjXhXP.cXxXe.e.D.C.M.c.x.l.l.k.g.p.i.r.7.7.8.( ^ ! ! ! ! ! ! ! ! ^ ( ( ( ( ) 7.7.e.e.p.p.a.h.x.x.x.N.M.M.S.D.J.H.H.P.I.tXaXsXhXjXfXjXzXzXxXcXcXvXvXvXcXcXcXcXcXxXzXzXlXhXfXhXhXfXH.D.H.S.c.N.c.p.a.p.p.p.i.e.7.7.) _ _ 7.7.7.7._ 7.7.7.e.i.i.p.a.h.k.c.M.S.D.K.P.qXtXfXjXlXxXcXvXvXbXmXMXMXVXCXZXZXZXDXGXGXGXHXLXLXLXKXJXKXKXJXJXKXJXJXJXJXJXJXJXJXJXJXJXJXJXJXJXJXJXKXKXKXKXKXKXKXKXKXKXLXHXGXGXDXSXSXZXCXCXVXVXMXmXbXvXcXcXzXlXhXsXrXI.L.K.H.D.N.N.c.x.h.h.a.p.p.i.e.e.e.7.7.7.) ) 8.7.e.i.p.a.x.x.x.N.S.H.P.I.tXaXjXcXjXaXK.xXvXbXmXmXmXmXmXmXbXvXvXvXxXzXzXlXzXjXhXhXfXsXaXtXrXqXI.I.L.H.D.D.V.V.N.c.x.k.h.a.p.p.p.p.r.7.7.7.8.( ( ( ( ( ( ( ^ ( ( ^ ( ) ) ) ( ) 7.e.i.i.p.a.h.k.x.c.S.S.x.e.jXP.K.jXlXxXcXbXbXMXVXZXZXZXGXGXGXHXKXHXGXJXGXjXqXBXLXKXKXJXKXKXKXLXHXHXHXHXGXZXZXCXBXMXmXvXxXzXlXhXsXaXtXqXP.P.S.S.A.M.M.N.x.k.h.h.a.a.p.p.e.e.) i.k.p.7.! ( ) ^ E E ( ^ E P E P P P L L L L L L B S L S 9 9 B 9 3 X   , B S 6 6   6       .     +   + B B B S B J L W ! ) A.zXC.8.g.8.W W M 5 5 5 4 4 4 4 4 4 4 3 4 8 3 4 4 3 8 8 8 8 8 8 8 8 ",
"o o o + + + + + + 6 + + + + 6 + + + , 1 , , 3 , , 3 8 9 B _ ( h.cXqXp.7.) ! P P L P I I +   O O         o 6   6 8 8     + 6 , 3 8 6 8 q 0 q 8 q 0 0 0 B B B B B J J L L J L P L I E I ^ ^ L ) ( ) ) 7.e.i.p.a.h.h.h.k.x.c.N.V.S.C.D.H.K.I.rXaXsXfXjXlXxXcXbXMXMXVXCXZXZXSXGXGXHXHXKXKXKXKXKXKXKXgXrXcXS.V.CXKXKXHXHXGXGXDXSXZXZXZXZXCXBXbXbXvXcXxXjXV.p.h.e.P V.H.D.V.N.x.l.h.a.h.g.p.p.r.r.7.7.) 8.8.8.8.( ( ^ ^ ( ( ) ( ) ) ) 7.7.p.a.h.h.k.k.k.c.M.V.S.D.D.D.K.P.wXqXtXtXsXgXjXjXlXxXcXcXcXvXbXbXbXbXbXvXvXcXcXcXcXxXlXhXsXaXtXV.V.K.D.c.c.c.k.h.p.p.e.7.7.7.7._ ) _ _ 7.7.7.7.7.e.i.i.p.p.h.h.k.c.M.S.H.P.I.aXsXfXjXjXlXxXcXvXbXbXmXMXBXVXVXZXZXDXDXGXGXHXLXHXKXKXLXKXJXJXJXJXJXJXJXJXJXJXJXJXJXJXJXJXJXJXJXJXJXJXJXJXKXLXKXKXLXLXLXHXGXGXGXDXSXSXZXCXVXBXBXMXmXbXvXcXcXzXjXjXhXsXqXI.K.J.S.V.V.N.x.k.h.h.a.a.p.7.7.7.7.7.e.7.e.e.e.i.p.a.h.h.k.N.S.J.K.I.aXfXfXlXI.h.BXmXx.mXmXMXmXmXmXmXmXMXbXvXvXcXcXcXzXlXjXhXjXhXgXaXtXrXwXI.P.K.J.D.S.V.M.c.x.x.k.k.h.h.h.a.p.r.7.7.7.7.8.( ( ( ( ^ ^ ( ( ( ^ ^ ( ) ) 7.7.e.e.e.e.a.h.g.k.c.V.H.D.a.L a.) k.jXlXcXvXMXBXBXCXCXCXZXGXGXHXHXHXHXHXJXU._ I.K.hXvXJXKXJXKXLXKXKXHXGXSXZXZXCXCXVXmXmXbXcXzXlXhXsXaXqXP.L.H.H.D.S.M.N.c.c.c.k.k.h.p.i.p.p.e.p.) ( e.7.) ( ^ ( ! E E W W W E P P P P L L L L L L S B B B B B 8 8 3 X   3 B 0 6   6             +   + B S B J L L L E ^ ( S.cXC.8.j.8.W ~ G G H D D D D N N N V N V D V V V V N N V N N N B B ",
"q 6 7 7 7 7 7 6 6 6 6 7 6 6 6 6 6 6 6 8 8 8 8 8 8 0 6 0 B _ ! s.xXaXs.i._ E E E P L L E O   O o         o 6   6 q 6   o + q , 6 8 8 8 8 8 q q q 0 B B B B B B B J J J L L P I I E I E ! ( ( ( ( ) ) 7.7.e.i.p.p.a.h.k.x.c.N.M.A.S.J.J.K.P.qXtXsXhXjXlXzXcXvXbXmXVXVXCXZXSXSXGXGXHXLXGXKXLXKXJXVX_ h.e.p.7.aXLXHXHXHXGXDXSXZXZXZXCXVXVXMXmXbXcXcXxXzXsXa.! ) ) c.H.J.S.V.x.l.k.l.h.g.g.p.e.7.7.7.) ( ( ( ( ( ( ( ( ( ( ) ) ) 7.7.7.7.e.p.a.h.h.h.x.c.c.M.M.V.S.H.K.K.P.qXtXaXsXfXhXjXjXzXzXxXcXvXvXvXvXvXbXvXvXcXzXxXzXjXzXqXg.P.gXl.p.K.V.V.h.x.h.g.a.a.p.e.e.7.7.7.7.7.7.7.7.7.7.7.e.p.p.p.h.l.x.c.N.V.D.K.I.wXtXsXfXjXjXlXxXcXcXvXbXbXMXBXBXVXCXZXZXZXDXGXGXGXGXHXLXLXLXLXLXJXKXJXKXJXJXJXKXJXJXJXJXJXJXJXJXJXKXJXLXKXLXKXHXLXLXLXLXGXGXGXGXDXSXSXZXCXCXBXBXBXmXbXbXvXcXxXzXlXjXhXgXtXqXP.K.J.A.V.N.x.x.h.g.a.a.p.p.p.e.7.7.e.e.e.e.i.i.p.a.h.h.c.V.S.H.K.qXsXhXjXjX7.7.h.P.p.P.VXbXBXmXmXmXbXvXbXbXvXcXcXzXzXlXjXhXfXsXaXaXaXrXI.P.L.K.H.D.C.V.V.M.N.x.l.k.k.h.a.p.p.i.e.7.7.) ( ( ( ) ( ( ( ( ( ( ( ( ) ) ) ) 7.7.e.e.p.h.k.x.N.V.V.S.H.M.7.B P J.lXxXxXvXbXMXBXVXCXZXDXGXGXGXGXGXHXJXMXE ^ I k.s.I.KXKXKXHXLXHXHXGXGXZXZXCXCXBXMXMXbXvXcXzXlXjXfXaXtXqXP.K.L.S.M.S.M.V.c.h.k.h.g.a.p.p.i.7.e.7.7.7.) ) ) ( ( ( ^ ! E E E E E E P L L L L L D S S B B B B B 3 9 S 3 3 O 9 B 6   8       .   O +   + B J B L L L I E ) 7.M.vXC.8.t.9.~ W W 9.~ ~ ~ W W W G G W W W G W W W W W P W D W P P W ",
": 6 7 6 q q q 8 7 7 7 7 6 6 6 6 8 8 q 8 0 q q q 0 0 6 8 0 ( ! h.cXaXi._ _ ( ^ E I I I ! +   O O         o 6   6 8 6   , 6 0 , 3 8 8 8 8 8 q q q 0 B B B B B S S J J J L L P I I E E E ^ ^ ^ ^ ( ) ) 7.7.e.i.p.p.h.h.c.x.x.N.N.c.D.J.J.K.P.wXtXtXgXhXjXzXxXvXbXmXMXBXVXCXZXSXDXGXGXHXGXLXHXHXLXCXI ) ) k.( S.KXGXGXGXGXDXSXZXZXZXCXVXBXMXmXbXcXcXzXjXjXaXN.a.x.D.H.S.V.N.l.k.h.g.a.p.r.r.7.7.7.7.8.) ) ( ( ( ( ^ ( ( ( ( ) ) 7.7.e.i.p.a.a.g.h.h.x.x.c.M.M.V.S.J.K.K.P.I.qXtXsXgXhXhXjXjXlXzXxXcXcXcXcXcXcXcXxXzXxXxXjXjXlXV.3 ( p.a.D k.J.C.x.x.x.h.h.h.p.r.e.7.e.7.7.7.7.7.7.e.i.i.i.p.p.p.g.h.x.c.M.V.D.K.P.I.tXsXfXjXjXzXxXcXcXcXvXbXmXbXbXMXVXCXZXZXZXDXGXGXGXGXHXGXHXLXHXLXKXKXLXLXKXJXJXJXJXJXJXJXJXJXJXJXKXKXKXKXLXLXLXGXGXHXGXGXDXSXSXSXSXCXmXmXVXVXmXmXmXbXbXvXcXxXzXlXjXhXfXaXqXI.K.H.D.S.V.N.c.x.h.h.h.a.p.p.p.e.i.p.p.e.e.i.p.a.h.h.M.M.M.S.H.P.I.qXjXlXI.E ) E E P M.mXbXbXmXmXbXbXvXvXvXcXzXzXlXjXlXjXhXfXgXaXtXtXI.P.K.D.S.S.S.S.V.V.N.x.x.l.k.h.g.a.p.e.e.7.7.8.8.) ) ( ( ( ( ( ^ ( ( ) ) ) ) 7.e.e.e.i.i.p.a.h.x.c.M.M.S.K.P.J.c.M.sXxXxXcXvXbXBXBXVXCXZXZXZXSXGXGXGXGXHXcXI E ` 7.^ xXJXKXKXKXHXGXGXDXSXZXCXCXCXBXMXmXvXcXxXzXlXhXsXtXqXI.L.H.D.D.V.M.M.c.x.M.x.x.h.a.p.p.i.7.e.e.7.7.7.) ) ( ( ( ^ ! E E E E E W P P L L L L L L L L S B B B , 3 S 3 3 X 8 9 6   8       .     O   + S L B L L L E E ! ( M.mXJ.8.t.~ G W 9.G 9.9.9.9.9.9.9.~ ~ ~ ~ ~ ~ ~ ~ ~ W W ~ W W W W W ",
"* 7 q * * 7 * 7 7 7 8 8 7 6 6 6 6 6 6 8 8 8 q q q 8 0 J q 8 B x.dXF.d.7._ ( ^ E I I I E +   X O         o 6   6 6 6 O 6 3 8 + , q 8 8 8 q 0 0 q 0 B B B B S J J J J J L L L P I E E ! ^ ^ ^ ^ ( ) 8.7.7.e.i.p.a.h.h.h.a.k.N.M.D.S.D.J.H.L.wXrXtXgXhXjXlXzXcXvXbXMXMXVXVXCXZXSXDXDXGXGXLXHXHXLXGXS.9 ) ) E tXDXHXSXSXSXSXZXCXVXVXVXVXMXmXmXbXcXxXzXlXjXjXwXJ.L.K.P.H.C.M.N.x.l.k.h.h.a.p.i.e.7.7.7._ ) ( ( ( ( ( ( ( ( ) ) _ 7.7.7.e.p.a.a.g.h.k.x.x.c.M.V.V.S.D.H.K.K.P.I.qXtXsXfXhXjXjXlXzXzXzXxXcXcXcXcXxXxXxXzXzXjXhXlXP.N X D P B c.K.M.M.k.x.k.h.h.p.i.e.e.e.7.7.7.7.7.7.e.p.e.e.p.a.g.h.k.x.c.V.S.J.K.I.qXaXsXfXhXjXjXzXxXcXcXcXbXbXvXbXMXVXCXZXZXZXZXDXDXGXGXGXGXGXKXHXKXKXKXJXJXKXJXKXKXJXJXJXJXJXKXKXKXKXLXGXLXHXGXGXHXGXGXGXGXSXSXSXZXZXZXmXbXBXBXbXmXbXvXcXcXxXzXlXjXjXhXgXaXrXI.L.K.D.S.V.M.c.x.k.h.h.g.p.p.p.i.p.p.i.e.i.p.a.g.h.k.k.c.V.D.K.I.tXsXfXjXH.B L ( P B tXmXmXbXbXbXvXvXbXvXcXxXzXlXjXjXlXjXfXsXsXtXrXqXI.I.I.K.J.D.D.D.V.V.c.x.x.x.k.k.h.g.a.p.e.7.7.7.8.) ) ) ( ( ( ) ( ( ( ( ) 8.7.7.e.e.i.p.p.a.h.h.x.N.M.A.D.H.I.tXaXsXlXxXxXcXbXbXMXMXBXVXCXCXCXZXSXSXSXGXHXbX7.S ^ ^ h.CXJXHXGXGXGXGXDXSXZXZXCXVXVXMXmXbXcXxXzXlXlXfXaXaXrXP.L.L.K.D.H.S.c.c.V.l.c.x.h.a.p.p.i.e.e.7.7.8.) ) ) ) ( ( ^ ! E E E E E E P P P L L L L L L L S S S S 8 8 B 9 B 3 0 B 8   8       .   O o   + J J B L P P E E ( ( h.sXM.W W ~ 9.G 9.9.9.9.9.9.~ ~ ~ ~ ~ W W W W W W W W W ~ W ~ a.7.L ",
"7 c q : 7 q 7 q q q q q q q q q q q q 8 8 q q q 8 q 0 6 8 0 0 J J I E _ 7.( ^ E I I I U +     O         o 6   6 6 8 + + O o o 3 8 8 8 8 q 0 0 0 B B B B B S J J J J J L L P I I E E ! ^ ^ ^ ( ) 7.7.7.7.e.p.a.g.h.k.H.P.H.M.c.S.C.S.J.H.L.wXqXtXsXfXjXlXlXzXcXvXmXMXBXVXVXCXZXZXSXDXGXGXGXGXGXLXbX7.P E p.zXDXSXDXSXSXSXZXCXVXVXVXVXMXmXvXcXcXcXzXzXhXaXaXtXwXK.K.D.V.M.N.x.l.k.h.h.a.p.e.7.7.7.7._ ) ( ) ) ) _ ) ) ) _ _ _ 7.7.7.e.p.p.a.g.h.k.x.x.c.M.M.V.S.D.H.K.K.P.I.qXtXsXsXhXjXjXjXlXzXzXxXxXcXxXzXzXxXxXlXlXlXjXjXjXk., 9 O ! D.J.V.V.c.x.h.h.g.p.p.p.e.7.7.7.7.7.7.7.e.i.e.i.p.g.h.x.c.c.M.A.D.H.K.I.qXtXaXfXfXhXjXjXzXzXcXvXvXvXbXmXMXBXVXVXCXCXZXZXSXGXGXSXGXGXLXGXLXKXHXLXKXKXLXKXKXKXKXKXKXKXKXKXLXLXKXLXGXHXGXDXGXGXGXDXSXSXZXZXZXCXZXVXMXBXmXbXbXvXcXxXxXzXlXjXjXhXfXsXtXqXI.P.K.D.S.V.N.c.x.k.k.h.g.a.p.p.p.p.p.e.p.a.a.g.g.k.x.c.M.D.H.H.P.tXfXjXlXqX) 8 9 B p.cXcXbXbXvXcXbXvXvXvXcXxXzXzXzXlXlXjXfXsXaXtXqXqXP.I.P.K.D.S.C.C.V.V.N.c.x.x.l.k.h.g.a.p.e.e.7.7.7.8.) ) ( ( ( ) ) ) ) ( ) ) 7.e.7.7.e.p.a.h.k.k.c.V.S.D.H.H.P.qXsXhXjXlXxXcXvXbXmXMXBXCXCXCXZXSXSXDXSXDXGXBXC.P ( h.lXGXLXHXGXGXGXGXDXZXZXCXVXVXBXmXbXvXcXxXzXjXjXfXsXaXqXP.L.L.J.J.D.S.tXH.N.c.x.k.h.g.p.p.i.i.e.7.7.8.) ) ) ) ( ^ ^ ! ! ! E E E E E P P L L L S S S B S S L L 8 + , , 8 , 8 9 8   8       . .   o   + B J S L J I ! E ^ I 9 B ^ ) ~ G 9.~ ~ ~ 9.9.9.9.~ ~ ~ ~ 9.~ ~ ~ ~ ~ W W W ~ W D D r.) B ",
"* 7 * @ * 7 : 7 7 7 7 7 7 7 7 7 q q q q q q q q g q 0 6 0 J q o o + + 6 0 J E ^ U I I U ,               o 6   6 6 8 + , + + , 6 8 8 8 q q 0 0 0 B B B B S J J J J J J L L I I I I E E ^ ^ ( ) _ ) 7.7.7.e.p.a.h.7.e.jXxXH.c.D.A.C.S.J.H.L.I.qXtXtXsXhXlXlXzXcXbXbXmXMXBXVXCXZXZXSXSXDXDXDXGXDXHXZXfXx.S.sXmXGXZXSXSXZXZXZXCXVXVXVXBXMXmXvXcXcXcXzXlXjXfXsXqXL.I.J.D.V.M.c.x.k.h.a.a.p.e.e.7.7.7._ _ ) ) ) ) _ _ ) _ _ _ _ 7.7.7.p.p.p.a.a.h.h.h.x.x.x.c.M.M.A.S.D.H.L.P.I.qXtXsXsXhXhXhXjXlXzXxXxXxXxXzXzXzXzXzXlXlXlXjXsXfXC.! L W k.V.H.K.M.N.c.k.h.h.a.p.p.p.e.7.7.e.e.e.e.i.p.p.p.a.g.h.k.c.M.V.S.D.J.K.I.qXqXtXsXfXhXjXjXlXlXxXcXcXcXbXbXmXMXBXBXVXVXCXZXZXSXSXSXHXSXBXxXcXHXKXHXHXLXLXKXKXKXKXLXLXLXLXKXKXHXbXcXcXZXGXGXDXDXSXSXZXZXCXCXCXVXVXBXBXmXmXbXvXcXcXxXzXlXjXjXjXfXsXaXtXqXI.P.K.D.S.V.M.c.x.x.k.k.h.a.a.a.p.p.p.i.p.a.h.h.h.k.x.D.A.S.H.H.I.tXaXsXhXI.x.^ E 7.hXvXxXvXbXvXvXvXcXcXcXcXxXzXlXjXjXlXjXfXsXsXaXrXqXI.P.K.D.C.V.C.C.M.M.N.x.x.l.l.k.a.a.p.e.e.e.7.7.7.7.) ) ) ) ( ( ) ) ) ) ) 7.7.e.7.e.i.p.g.h.k.k.c.V.S.S.K.U.wXaXsXhXjXzXxXcXvXbXbXMXBXVXVXCXCXCXZXSXSXSXSXVXjXH.P.jXZXGXGXGXGXGXDXSXSXZXCXCXVXBXMXbXvXcXxXzXlXhXfXgXaXqXI.L.K.H.K.S.M.H.zXP.h.h.h.h.h.g.a.p.e.e.e.e.7.7.7.7.) ) ( ^ ^ ! ! ! ! ! E E E P P L L L L L L D S S S S S 8 8 8 9 8 0 S 8   8       . .       + 0 J B J L J B 6 6 6 , , , P E L ~ ~ ~ W ~ ~ ~ ~ ~ ~ ~ ~ ~ ~ ~ W W W W W ^ P W P 8 9 8 9 ",
"* : * * 7 d 7 7 g g g g g g g q g g g g g g g g g q 0 J q o   6 + + + o 6 6 6 , 8 B S S 3               o 6   6 6 6 + 6 0 q q 6 8 8 8 q 0 0 0 0 B B B B J J J J J J L L P I E E E E E ! ^ ( ) ) ( ) 7.7.e.p.a.h.! B P S E p.c.V.S.S.J.H.L.P.wXqXtXsXhXjXlXzXcXvXvXbXmXMXBXVXCXCXZXZXDXDXGXGXDXGXSXMXcXxXmXSXCXSXZXCXCXCXVXVXVXBXMXmXbXbXbXvXcXxXxXhXjXhXtXwXI.I.D.D.S.V.M.c.x.k.h.a.p.p.i.e.e.7.7._ _ _ ) _ _ _ ) _ _ _ _ 7.7.7.p.p.p.p.g.h.h.k.x.x.x.c.M.M.A.S.S.D.K.K.P.wXtXtXaXsXsXfXhXjXjXhXlXzXzXzXzXzXzXlXlXlXjXhXfXfXJ.N.h.M.C.V.H.H.M.x.c.k.h.h.a.p.p.i.r.e.e.e.e.e.e.i.i.p.a.g.h.h.k.c.M.V.A.S.D.H.P.I.qXtXsXgXfXhXjXjXlXzXzXxXcXcXvXbXmXmXMXBXVXCXZXZXZXSXGXGXbXI.K.qXzXGXLXHXHXLXLXGXLXLXLXHXHXHXHXHXcXx.p.S.hXSXDXSXSXZXZXCXCXCXVXVXVXmXmXmXbXbXbXcXcXxXzXzXlXjXhXhXgXsXtXrXqXI.L.K.J.D.A.M.N.c.x.k.h.h.a.a.a.p.p.p.a.a.a.g.k.x.x.k.c.x.M.H.P.qXaXtXfXfXaXK.c.S.wXzXcXvXvXvXbXvXcXcXxXxXxXzXlXjXhXhXhXgXsXsXaXtXwXP.I.P.K.H.J.D.D.S.V.V.M.x.x.l.k.k.h.a.a.p.p.r.e.e.7.7.7.7.7.) ) ( ( ( ) 7.7.7.7.7.7.e.p.a.h.k.x.x.c.V.S.S.H.I.qXqXsXhXjXzXxXxXvXbXbXmXMXMXBXVXVXVXCXVXCXZXZXZXBXbXmXZXSXGXDXDXDXSXZXZXZXCXVXVXBXBXmXbXcXcXzXzXjXhXsXsXaXwXI.L.L.H.J.S.M.i.e.E 7.c.h.h.h.g.a.p.e.7.e.e.7.7.8.) ( ( ( ( ^ ! ! ! ! E E E E P P L L L L L L L L L S B S B B B 9 3 8 S 8   8                 + 8 8 8 q 3 , , 6 6 , , 6 6 + 9 W W P ~ 9.9.9.9.9.8.8.8.8.) ) ~ ( ( ( ( ^ ^ E E E Z 0 0 J ",
"* % % * * * - - - - - - - - * * + @ - * * * * * + : : * . . .   @ @ + .     O o O + + w +   X . @       o 6   6 6 8 + 8 B q 0 8 8 q q 0 0 0 0 0 B B B S J J J J L L L L P I E E E E E ! ^ ( ) ) ( ) 7.7.e.p.a.h.) , E P L a.H.N.S.S.S.H.L.P.wXqXaXsXfXhXjXlXxXcXcXvXbXmXMXBXVXVXVXCXZXZXZXSXZXZXCXZXBXMXVXCXVXCXVXCXVXVXVXVXVXMXmXbXbXvXvXcXcXzXzXlXhXsXtXtXtXK.D.D.S.V.c.c.x.k.h.a.p.i.i.e.7.7.7.7._ _ _ _ _ ) ) _ _ 7.7.7.7.i.e.e.p.p.a.h.k.k.x.x.x.N.M.M.V.S.C.D.J.H.K.I.qXqXtXtXaXfXhXfXsXsXhXjXlXlXlXlXlXjXhXlXhXgXhXjXrXwXD.S.S.H.D.S.S.c.x.h.h.h.a.a.p.i.e.e.e.e.e.e.e.i.i.p.a.h.h.k.x.N.M.M.V.S.D.H.P.P.wXqXtXaXsXfXhXjXjXlXlXzXcXcXcXbXbXbXmXMXBXVXCXCXCXZXZXVXfXp.M.K.x.ZXGXGXGXHXHXGXHXHXHXHXHXGXGXGXH.h.x.l.P.GXGXZXZXCXCXCXVXVXVXBXBXmXmXmXvXcXcXcXxXzXlXlXjXhXhXfXsXaXrXqXI.P.K.H.D.S.V.M.N.c.x.k.k.h.a.a.a.a.p.p.a.g.g.h.k.x.c.x.k.x.S.P.P.P.qXqXtXqXsXfXwXqXjXxXjXxXzXlXcXcXzXcXlXlXlXlXjXhXfXgXsXtXtXtXtXwXP.P.K.K.K.H.J.D.V.V.V.V.M.c.x.x.l.k.k.h.g.a.p.p.r.e.7.7.7.7.7.) ) ) ( ) 7.7.7.7.7.e.7.e.p.g.h.k.c.N.M.V.S.H.H.P.wXqXsXfXhXlXxXxXvXvXbXbXMXMXBXBXVXVXCXBXCXZXZXCXVXVXCXZXCXSXDXSXSXZXZXCXVXVXBXBXmXmXbXvXcXxXlXlXjXfXsXaXtXqXwXP.L.K.V.H.c.E ( ^ 7.h.x.h.h.h.g.p.p.e.e.7.7.7.7.) ( ( ( ( ( ( ^ ! ! E E E E E P P P P D L L L L L L S S S S S 9 4 9 B 8 X 8 O         . @   o + + o o 3 O   + + O + o     o + O 3 8 < 4 4 4 4 4 4 8 8 3 4 4 4 8 8 8 8 8 6 8 6 6 q 8 q ",
"* . . % . . . . . . . . . . . . . . . . . . . . . .   + @ + * + + @ + @ + o + + O               @       o 6   6 6 8 + 3 6 , q 8 8 8 0 0 0 0 0 B B B B J L J L L L L L L I I I E E ! E E ^ ) _ ) ) 7.7.e.e.p.a.h.h.L E D 7.x.M.V.C.C.S.H.L.P.wXqXqXtXsXfXhXlXlXxXcXcXvXbXmXMXBXVXVXCXCXCXCXCXZXCXZXZXCXVXVXVXVXVXVXVXVXMXMXBXBXmXmXmXbXvXcXxXzXzXlXxXgXaXfXqXwXL.H.H.D.V.M.v.c.z.h.a.p.p.p.p.p.i.7.7._ _ _ _ _ ) _ _ 7.7.7.e.i.i.i.p.p.a.a.a.h.k.h.k.x.c.M.M.M.M.S.D.D.H.K.I.wXqXqXtXaXsXsXsXhXjXhXjXjXhXhXhXhXfXhXfXfXhXsXaXaXaXP.K.P.I.J.D.V.C.x.k.h.k.h.g.a.p.e.e.e.e.i.i.p.p.p.p.a.h.x.x.c.c.M.M.V.S.D.H.K.P.I.I.qXtXsXfXjXjXhXlXzXlXzXcXcXcXvXvXbXmXmXmXBXBXVXCXZXZXlX7.7.E D.GXDXDXDXGXGXGXGXGXGXGXGXGXGXDXP.7.p.L sXZXZXCXCXVXVXVXVXBXBXMXMXmXbXbXbXvXcXcXzXzXlXjXjXhXfXsXaXtXqXI.I.L.K.J.S.S.A.V.M.N.c.x.z.h.g.h.h.h.g.h.p.h.k.k.k.x.c.N.S.V.H.P.H.P.aXsXqXsXsXgXjXhXjXhXzXlXjXxXzXzXlXlXjXjXjXjXjXjXhXfXsXsXtXtXrXqXwXwXK.K.H.D.C.V.V.M.M.N.c.x.x.x.x.h.h.g.a.p.e.7.7.8.7.7.7.7.) ( ( ) 8.8.8.8.7.7.7.e.7.i.g.g.h.k.c.M.V.M.S.H.H.P.aXsXsXfXhXlXxXxXvXcXvXvXbXMXMXMXBXVXBXMXVXVXVXCXCXZXCXZXDXZXZXZXZXZXZXCXVXVXBXMXmXbXvXvXcXzXjXjXhXfXaXrXwXwXI.K.J.J.D.A.A.p.L B e.x.x.k.h.g.h.a.p.p.e.e.e.e.7.7.7.) ( ( ( ( ( ! ! ! ! E E E P W P P P L L L L L L L S B 9 9 9 9 9 B 8 X 8 O         .     O o O O O O O , , O O 6 , 6 + , 3 3 , O 3 , , , , , , + + O O > > , , , , 1 + 1 + 1 + 1 q ",
"* * * * * * * * 1 * * * 1 * 1 * 7 7 7 7 7 7 1 1 7 6 6 7 7 6 6 6 6 6 8 8 6 6 6 8 9 6 , + + + O   X   X   o +   6 q + 6   6 B O o B 0 0 0 0 B B B B B S S D L L L L L L L P E E I E ! ! ( ( ( ( ( 7.7.7.e.e.p.p.p.h.p.7.e.h.x.c.c.M.C.J.H.K.L.I.wXqXtXaXfXhXjXlXzXzXxXcXvXbXbXmXMXMXBXVXCXCXVXVXVXCXVXVXBXBXBXBXMXBXBXBXBXMXmXmXbXvXvXvXvXcXxXxXlXlXjXfXgXsXaXwXP.P.J.D.S.M.c.x.x.z.h.s.g.a.i.7.i.7.7.7.7.7._ _ ) _ _ _ _ 7.7.e.e.i.i.p.g.g.h.h.x.x.x.c.c.N.N.M.C.C.A.S.H.L.P.wXwXqXqXaXsXfXfXfXsXfXfXfXjXjXjXjXjXhXfXgXsXsXsXaXqXqXwXK.J.J.S.C.M.C.x.k.g.g.g.g.g.e.i.i.i.i.i.p.p.a.s.h.h.h.z.x.c.M.M.C.S.D.J.K.L.P.I.qXtXaXsXfXhXhXjXjXlXzXzXcXcXcXvXbXbXmXMXMXMXBXVXBXVXbXH.i.h.bXGXSXCXDXDXSXGXGXDXGXDXDXDXSXSXbXP.p.H.mXZXCXVXVXVXVXBXBXMXmXbXmXbXvXvXcXcXxXzXlXlXjXjXjXfXsXtXtXtXtXqXI.K.H.D.S.A.A.M.v.x.x.z.n.h.s.s.s.s.s.h.g.h.h.k.c.l.k.x.M.V.S.H.K.I.qXqXaXaXgXgXfXhXjXjXzXzXzXxXxXzXzXzXlXlXlXlXjXhXfXsXaXaXaXtXqXI.P.K.H.J.F.D.D.S.V.M.v.c.c.x.x.k.h.h.h.s.a.p.p.i.e.7.7.7.7.7.7.7._ _ 7.7.7.7.7.7.i.p.a.p.g.h.z.x.c.N.M.A.S.K.U.I.qXaXsXkXjXjXlXxXxXcXcXcXbXbXMXMXMXBXBXBXBXVXVXVXVXVXVXVXVXCXZXZXCXVXVXBXMXMXmXmXbXbXcXxXzXlXjXhXgXaXtXrXwXI.P.L.K.J.D.S.V.N.k.h.k.c.h.h.k.h.a.a.p.p.r.r.r.e.7.8.8.8.) ( ( ~ ~ ~ ^ ! E E E E E E W P P P P P L D D L 3 8 L 9 3 B 9 S B O 6 X     O O     O + , 3 8 B N N B B B D L P L L D L L L L L D D L L L L L L D S D D D D L L L J J L L J B B ",
"7 * * * * * * * 7 * * 1 * 7 7 7 7 7 7 7 7 7 7 : 6 6 7 7 7 7 6 7 6 6 8 8 8 q 0 B B 0 8 6 , , + O +       6 q   6 q 6 q + + 6   + S S B 0 B B B B B B B J J L L L L L L P I P E E E ! ! ! ! ( ) ) 7.7.7.7.e.p.p.a.h.a.p.g.k.c.M.M.C.C.S.J.J.H.L.I.qXtXaXsXfXhXjXjXzXxXcXcXvXvXbXbXmXMXBXBXBXBXVXVXVXBXVXBXMXMXMXBXMXmXmXmXbXbXbXbXbXvXcXcXxXxXzXzXjXhXfXaXaXqXwXI.P.H.D.S.M.x.x.x.z.h.a.p.p.7.7.e.e.e.7.7.7.7.7._ 7.7.7.7.e.e.r.r.e.p.p.p.a.a.g.h.k.k.x.x.c.c.M.V.S.D.J.H.H.K.L.P.I.I.wXqXtXaXsXsXfXgXgXfXhXhXfXfXfXfXsXaXaXaXqXwXqXI.L.H.J.S.C.M.M.c.l.h.a.p.p.p.p.p.i.i.p.p.p.a.a.g.h.h.h.k.k.x.c.N.M.C.A.S.J.H.P.I.qXrXtXtXsXgXfXhXjXjXlXzXzXzXcXcXvXvXbXbXbXmXMXBXBXBXMXcXxXvXBXZXZXZXSXZXZXZXZXZXZXZXZXZXZXZXZXMXvXMXZXZXVXVXVXBXMXMXmXmXbXvXbXvXvXcXcXxXzXzXjXjXhXhXfXsXaXtXrXrXI.P.K.H.H.H.S.S.A.M.c.x.z.z.z.h.s.h.h.a.s.h.g.h.h.k.x.k.x.M.V.C.S.H.K.I.wXqXtXtXsXgXfXhXjXjXlXlXlXlXjXjXjXjXlXjXhXfXgXgXsXaXsXtXqXP.L.K.K.K.K.H.S.V.V.V.V.V.C.M.c.x.k.h.h.h.k.h.h.a.p.p.e.e.e.7.7.7.8.8._ _ 7.7.7.7.7.7.r.i.a.p.g.h.h.k.x.c.v.M.S.H.K.P.I.rXsXfXhXjXjXlXzXxXcXcXcXcXcXvXbXbXBXBXMXMXMXMXMXBXVXVXVXVXVXVXBXBXBXmXmXbXbXvXcXcXxXzXlXjXhXhXgXsXtXrXI.P.L.L.H.D.D.A.C.V.N.c.N.M.x.l.k.h.g.a.a.a.r.r.i.e.7.7.8.8.) ) ( ( ( ( ( ~ ! E E E E E E W P P P P P P P P 4 , 8 3 8 S B J 0   0 O X   O O O O + 3 6 8 9 B E L B D P W P D P P D D L L L D P L L L L L L L P L P P L P P P L S D D L D D D ",
": : : : : : : ; : : : : : 6 ; ; : : : 7 6 : 6 : 6 : 6 6 6 6 8 8 q 7 7 q q 7 0 g q q 8 6 , + O   +   .   8 6   8 8 6 q 8 , + + 6 0 0 0 0 0 0 B S Z S J L L L L L L L L U P U E E ^ ^ ^ ^ ( ` 7.7.e.e.e.e.i.p.s.h.s.h.h.z.x.c.N.M.V.V.S.S.F.K.P.I.qXtXaXsXfXhXjXjXlXlXxXxXcXvXbXbXmXmXmXmXMXMXBXBXBXBXBXBXMXMXBXBXMXMXMXmXbXbXbXbXvXvXcXxXzXzXzXzXjXjXhXfXtXtXrXrXI.K.D.D.V.N.V.N.x.k.h.s.a.p.p.a.e.e.e.e.7.7.7._ 7._ _ _ e.e.e.e.p.a.a.a.h.h.k.k.k.k.x.x.x.c.M.V.V.C.D.D.J.K.L.P.I.wXrXrXtXaXsXsXsXsXsXsXgXfXfXfXsXaXtXtXrXrXwXI.qXI.P.K.J.D.S.A.V.V.N.x.h.a.g.h.a.p.p.r.p.p.a.a.s.h.k.k.k.k.x.x.M.M.A.A.S.J.H.K.K.P.wXqXqXtXsXfXfXhXjXjXlXlXzXzXxXcXcXvXvXbXmXmXmXMXMXmXMXBXVXCXZXCXCXSXSXZXSXSXZXZXZXCXCXCXCXCXCXVXBXBXBXMXBXVXBXBXMXmXmXmXbXbXbXvXcXcXxXzXzXzXzXjXhXhXgXsXaXtXrXwXI.P.L.K.K.K.D.D.S.V.M.c.x.x.x.l.k.k.k.h.k.k.x.x.x.c.x.x.M.S.A.S.S.H.K.I.qXqXaXaXsXfXfXhXjXjXjXjXlXlXlXjXjXjXhXhXhXfXfXsXsXtXtXrXrXI.I.L.L.K.K.J.D.C.V.V.V.V.V.M.M.c.x.x.l.k.k.k.s.a.p.i.e.e.e.e.e.e.e.e.e.e.e.e.e.e.e.e.p.a.a.a.s.k.z.x.v.V.V.C.D.K.P.I.rXaXhXhXjXjXjXzXxXcXcXcXcXvXvXbXbXbXmXmXMXMXMXMXMXBXBXBXVXVXBXBXBXBXBXMXmXmXbXvXcXcXxXzXlXjXhXhXfXsXtXtXwXP.P.L.K.K.H.S.S.C.C.M.N.N.N.x.k.g.j.g.g.g.p.p.p.i.7._ _ _ _ ) ( ( ( ( ( ( ^ E E E E E E E I P I P L L L L B , 3 8 B J B J 0   J +     O o O o + 6 8 9 0 B B J L L I E E W W W W W W W W P W W W W P P L L W P P P L L P W L L L L L L L E ",
"= ; = ; : ; : ; ; : : : ; ; ; ; ; : 7 7 7 7 7 7 7 7 7 7 7 7 7 7 7 ; 7 7 7 g g J q q 8 6 + + O   X       q : . 8 q 8 8 q 8 8 0 q 0 0 0 0 0 S J J Z Z J J J J K J J J U U U U I I Q / ^ ^ ` ` ` _ i.i.i.i.i.i.d.d.f.n.z.z.z.z.b.b.v.v.A.S.G.F.F.Y.K.U.U.U.I.aXdXdXdXkXkXkXjXjXxXxXxXxXxXxXxXxXxXxXxXxXxXxXxXxXxXxXxXxXxXxXnXnXnXjXjXjXjXjXhXkXkXsXdXaXaXI.U.U.K.K.F.A.A.A.v.c.b.b.n.n.f.n.s.d.d.d.i.2.2.>.>.>.>.>.2.2.2.2.2.2.i.d.d.d.d.d.d.n.n.n.n.n.n.n.b.b.b.b.b.v.M.A.A.G.F.Y.F.Y.U.U.U.U.U.U.I.I.I.I.I.I.UXUXI.I.U.U.U.U.U.U.F.G.G.T.T.T.v.v.b.b.n.f.d.d.d.f.s.s.d.d.d.d.s.d.d.s.n.n.n.z.b.b.x.b.b.b.M.A.A.S.G.F.F.Y.Y.U.U.I.I.qXUXdXdXdXdXkXdXsXkXkXkXjXjXjXjXjXlXxXxXxXxXxXxXxXxXcXxXvXbXvXbXvXvXvXvXcXcXcXxXxXxXxXxXxXxXxXxXzXjXjXjXjXjXjXjXhXkXkXkXsXdXdXdXaXI.I.U.U.K.Y.F.F.F.F.F.G.S.A.A.v.b.b.b.x.b.b.n.s.d.s.n.n.n.n.n.f.n.n.f.f.b.b.v.v.T.G.G.Y.Y.Y.U.Y.U.U.U.}.}.}.}.}.dXdXdXdXdXdX}.}.}.UXaXI.I.I.U.U.U.U.U.Y.F.G.A.A.A.A.A.A.v.b.b.b.b.b.b.n.n.n.d.d.d.d.i.2.2.2.2.2.2.2.2.2.d.d.i.2.2.2.2.d.d.d.d.d.f.n.n.b.b.b.v.A.G.F.F.Y.U.U.I.UXUXaXdXdXkXkXjXjXnXxXxXxXxXxXnXnXxXxXcXcXcXvXxXcXcXcXxXxXvXvXxXxXxXlXlXjXjXjXjXhXgXdXaXdXaXaXI.I.I.L.K.K.K.K.F.A.A.M.N.v.v.x.x.z.h.h.h.h.h.h.s.s.d.i.i.>.q.>.` ` ( ^ ^ ^ ^ ^ ^ ^ Q E Q E Q E E E I I I I P P P B S S J L J I 0   U +     o +   o + 3 6 6 8 q 0 J E E P P E ( E E E E E E E E E E E E E E E I I I I U U U I I I U U U U U I Q ",
"u u u u u & & & u & = & u & = = = = = = u = = = = = = = = = = ; = ; u s s s s g : : w + o   X X +       0 q o 6 q q 6 q 8 0 0 6 q 7 q q 8 8 7 6 0 q 0 q q q q q q q q q q g g g q g g g g g g g h f f f h h v v h v v v h z v T v v v v v v v v v v v v v T T T T T T T T T R ;.;.R T T T T ;.;.;.;.R ;.;.;.;.;.;.;.T T T T ;.T -.T T T T T -.-.-.-.T T T b T T b v b b l l v l l l l l l l l l l l l l l l l l l l l l z l l l l l l a a a l l a a a a a l l n n l l l l l b b b b b l l l b -.b b b v v v b b v v v v v v v v -.-.b b b b b b l l z z z k k z k k f f f f k k k k k f f f k k f f f f f v v v v v h v v v v v v K K K T T T T T T T T T T R R T T T T T T R R R R R T R ;.;.;./ / / / / / / ;.;.R / R R R / R R R R T T T T T T T T T T T T T b v v v v v v v v v v k k k k k v v v v v v v v v k k h z z v v v k l l k z l l l l l l l v b b b l b X.X.X.-.X.X.b l l l b b b b b v l l b X.X.X.b b l l l b b b n n n l n n n X.X.n l l l l l b b l l l l l l l l l l l l l b b n n n n n X.X.n n n n n n X.X.n b b b v v b -.b v b b b b T -.T T T T T T -.;.;.;.T T T R R ;./ / / R R R / / >./ / R R R / / R R T T T T T T T T T T T T T T T Y Y Y U K Y T Y U K K K K K K K K K K J J K K K J J J J J J J J J Z Z J J J J J J Z B Z J J J J S L J J J J U 8   L +     o + .   X o + + 6 6 J J 0 q q 0 g g g g g g g g g g h g g g g g g g h d d d d d d d f f f f f f h v ",
"k k f f f f f f j j j j j j j u s s s s s j s s u u s s s s j j s s s u ; ; = = * @ @ .     . . + . . . 8 : O + + + + + + + 6 @ @ @ @ @ + + @ @ * * * * * * * * * @ @ + * * * * * * * : : 7 s d f f f k k k v v v v v v v b b T T T b b b b T T T T T b b b b T -.T T T T T T T T T T T -.-.-.-.b T b b b b T -.;.-.-.;.-.;.;.-.-.-.-.-.-.;.;.;.;.;.;.;.;.,.,.;.:.-.:.:.,.:.,.:.:.:.-.-.-.-.-.-.-.-.-.-.-.-.-.:.-.-.-.-.-.X.X.X.X.O.O.O.O.O.O.O.O.O.O.O.o.O.O.-.-.-.-.-.-.-.-.-.-.;.-.-.-.-.;.;.,.,.,.;.-.;.;.;.;.;.-.-.-.-.-.-.-.-.-.X.X.X.X.X.-.X.X.-.-.X.X.X.b v v v v v n n n n n n n n n n v v v v v v v v b b v v b b b v b b T v b T T T T T T T T T -.-.;.R T T T T ;.T T R T T T T T ;.v v T v T T T T T T T v T T T ;.T T T T T T T T T b T b T T T T -.X.X.X.X.X.X.X.-.X.X.b b b X.X.b b b b b X.X.X.-.X.X.X.-.-.-.-.X.X.X.-.-.-.-.-.-.-.-.-.X.X.-.-.-.X.-.-.-.-.-.-.:.:.;.:.,.,.,.,.:.:.:.:.:.:.:.:.,.,.:.-.-.:.:.:.:.:.o.O.O.O.O.o.O.O.O.O.O.O.O.o.:.:.-.:.:.:.:.:.:.:.:.:.-.-.:.:.-.:.:.:.:.:.:.:.-.-.:.-.-.-.-.-.:.:.:.:.-.-.:.:.,.,.,.,.,.,.,.,.,.,.,.;.;.,.,.,.;.;.T b b b T T T T T T T T T T R T T T T T T T T T T T T T T T T T T T v v v T v K T T K K K K h h h h h h d d 7 q q 7 7 7 7 7 : : * * : 7 7 7 7 1 1 * 1 : 1 * 6 1 , , 1 1 6 6 3 6 6 6 6 8 8 6 +   0 +     o + @   . X @ + * : J q q 7 q g q 7 s s s d d s s d d d d d s s d s f f f f f f f f k k k k k k v v ",
"% % % % $ $ % % $ % $ $ $ $ $ % % % % % % % % % # # # # % % # % % $ & & = = * % % @ @ . . . . @ . . o . o     .   . . .       . . . . . @ @ @ @ . . . . . . . . @ @ @ @ % % % % . . # # % * = ; & & = = = = = ; = = u u u u u u u u e e u u u u u u u u u u u u u u u u u i u u u u u u i f i f u i f i u u f f i i f f f f f i k i k k k k i i i i i i i i i i i i i i i i i i i a i i i i i i i i i i i i i i i i i i i i i i i i i i i i i i i i i i i i i i p p p i i i i i p i i i i i i p i i i i i i i i i i i i i i i p p p p p p p p p e e e p p u e e e e u u u u e e e e u u u u u u u u u u u u u u u e e u u u u u u u s u j u j j u u j j j j j f u j s u s s f s f s f f f f s v f f f f d f f f d f d s h f s s j i j i j u s u u u j u j u j i u u u u u u u u u u u u i u u u u u u u u u u u u u u i i i p u u u u u u p u p u u p p p p p p p p p i p i i i u p i i f i f i i i k i k i i i i i i i i i i i i i k k k i i i i i k k k k i i i i i i i i i i i i i i i i i i i k k k i i i k i i k k k k z k i i i i a k l a i a a k l l l l i k k n k k k k f f f f f s s s u u s s s s d s d s s s d s s s s f f s s s s s u u u u u u u ; = = ; 7 = = = = : : : : = = * * * * * * * * * * * * @ @ - * - - + + + + + + + @ + + o o o o o .         o o o       + o       o   . .     @ @ + . . % - * * - * - * * * * * * * * * * * * * * * * * & = & = = = = = = = = = = = ",
". . . . . . . . . . . . . . . . . . . . . . . . . . . . . . . . . . . . . . . . . . . . . . . .     .             . . .       . . . . . . . . . . . . . . . . . . . . . . . . . . . . # . . . . . . . . . . . . . . # # # # # . # # # % # # # # # # # # # # # # % % % % $ $ $ % $ % % % $ % $ % % % % $ & & $ % $ % & $ # # $ $ $ # # # $ $ $ $ # $ $ $ $ # # # # # % % # # # # # # # # # # # # # # # # # # # # # # # # # # # # # # # # # # # # # # # # # # # # # # # # # # # # # # # # # # # # # $ # # # # # # # # # $ $ $ $ # # # % # % # # # % # # # # # # % . . # # # # # # . . # # # . # . # # # # # # # # # % % % % % % % # % % % $ $ $ $ $ & & & & & & & % % % & & & & = & % ; & % = & & = = = = = = = = % = & % = = % = $ & & & & & $ $ % $ $ $ $ $ $ $ % % % % % % % % # # % % % % # # # . # # # # # # . # # # # # # # # % # . # # . # # # # # # # # # % # % % # # # # % % % # # # # # # # # # # # # # # # # # # # # # # # # # # # # # # # # # # # # # # # # # # # # # # # # # # # # # # # # # # # # # # # # # # # # # $ $ $ $ $ $ $ $ $ $ $ $ $ $ $ $ $ $ $ $ $ $ $ $ % % $ & & % % & % % % % % % % % % # % % % % # % . # % # # . # # # # # # % # # . # . . # . . # . . . . . . . . . . . . . . . . . . . . . . . . . . . . . . . . . . .                     o   X     o               . . . . . . . . . . . . . . . . . . . . . . . . . . . . . . . . . . . . . . . . . . . . . . . ",
". . . . . . . . . . . . . . . . . . . . . . . . . . . . . . . . . . . . . . . . . . . . . . . . . . . . . . . . . .       . . . . . . . . . . . . . . . . . . . . . . . . . . . . . . . . . . . . . . . # . . # # # # # # # % % # % % % % % % % % % % % % % % % % % & % & % % % & % & % & % & % % & & & & % & & = & % & & % & & $ & & % # % % % % % % % % % % % % % % % % # # # # # # # # # # # # . . . . . . . # # . . . . . . . . . . # # # # # # # # # # # # # # # # # # # # % % % % # # # # # # % % % % % % % % % % % % % % % % % % % % % % $ % % % % % % % % # % % % % % # % . # % % . # % % % % % % % % & & & % % % & & & & & & & & & = & & & & & & & = = = = = = = = = = = = = = = = ; ; ; ; ; ; ; ; = = u = = = = = = = = = = = & & & & = = = & & & & & & % & % & % & & & & & % % % % % # % # # # # # % % % % % & $ & $ % % % % % % % % % % % % % % % % % % % % % % % % % % % % % % % # # # # # % % % % % % % # # # % % # # # # # # . . # # # . # # # # # # # # # # # # % % # # # # # # # # # # # # # # % % # % % % % % & % % % $ % $ % % & $ # % & & % $ $ $ & & & & = = = = = = = = = & * * * * * * * * * * % % % % % * * % % % * * % % * * % % % % % # # # # % - - % # # % % % % % % . . . % % # . . . . . . . . . . . . . . . .           . . .                     o @   . .                   . . . . . . . . . . . . . . . . . . . . . . . . . . . . . . . . . . . . . . # . . . ",
". . . . . . . . . . . . . . . . . . . . . . . . . . . . . . . . . . . . . . . . . . . . . . . . . . . . .   . .   . . . . . . . . . . . . . . . . . . . . . . . . . . . . . . . . . . . . . # . # @ # # % % % % % % % % % - = = - % & & & = = = = = = = = & & = = = = = = = = = = = = = = = = = = = = = = & = = & & & & = u u = & & u u u $ $ ; % $ $ % % % $ $ $ $ $ % % % % % % % % % % % % % $ % % % % % % % $ % % % % % % $ % % % % % % % % % % % % % % % % % % % % % % % % $ $ % $ & & ; ; & & % % % % $ $ & & & & & $ % % $ & & & & $ $ $ & & & & & & $ $ & & & & & & % % & & & & & % % % & & & & & & & & & & & & & & & & & & & & & & & & & & & & & u u u ; = ; ; ; ; ; = u u u u u u u u u u u u u u u u u u u u u u u u u u u & & & & & = u & = & & & & & & & & & $ $ $ & & & & & & & & & & & % & % % & & & & & & & & & & $ $ $ $ $ $ $ & & & & & & & & $ $ $ & & & & $ $ $ $ $ $ & & & & & $ & % % % % % % % % % % % % $ % % % % % % % % % % % % % % % $ $ $ % % % % % % % % % % % % % % % % % & & % % % % % % & % % % & & & & & $ $ & ; & & ; & $ & u & u u u u = = = = = = = = = = = = = = ; = = = = ; ; ; = = = = = ; : = = = = = = = = * * % % % % * * * * * * % % * * * * % % % % - - - % % # @ . @ @ . . . . . . . . . . . . . . . . . . . .     . . . . .       o @ @ . . . .               . . . . . . . . . . . . . . @ @ @ @ . . . . . . . . . . . . . . . . . . # . . . . . ",
"# # # # # # # # # # # # # # # # # # # # # # . . . # . . # # . . . . . . . . . . . . . . . . . . . . . . . . . . . . . . . . . . . . . . . . . . . . . . . . . . . . . . . . . . # # # # # # # # % % % % % % = = = = = = = = = u = = = = u ; u u u u u u u u u u u u u u u u u s u u s s s s u u u u u u s u u u u i u u u f j u k u e z b z k k k k z z k k k z l l l l l k l z l k z k z k z k l l l l z l l l l l z l l l l l l l l l l l l l l l n n n l l l l l l l z z z l k k k k z k z k k k k k k k k k f f k k f f f i i k k k k k i i k k k k i i i i f i i i i i f f i f f i i i i u u u u f j u i i i u u u u u i u i i p p p p p p i i i p p p p p f f j f f f f f f f f f f f f f f f f f f f k k f f f f f f f f f f f f f f p p i i i i i i i p i f f f f i i i i i i i u u u u u u t t i i i f f f f i f f i i k k k k i i i i i i i i i k k k k k k k k k k i l l z l l l z z l l l l k k k k l l l l k l k k l m l l l l l l n n n n n n n n v l l l l l l l z k z k z k z k k k k k k k i i z z l l l l k k k k f k k k k k k k v T b f u u k z k f j f f u j s s s s s s s u u u u u u u u u u u u u u u u u u u u u u ; ; ; ; ; ; ; ; ; ; ; ; ; = = = = = ; ; = = & & & % - - . . . . . . . . . . . . . . . . . . . . . . . . . . . . . . . . . .   .   . . . .                           . . . . . . . . . . . # # # % % % % % % % % % % % # # # # # # # # # # # % % # # ",
"# # # # # # # # # # # # # # # # # # # # # # . . # # . . . . . . . . . . . . . . . . . . . . . . . . . . . . . . . . . . . . . . . . . . . . . . . . . . . . . . . . . . . . . . . . . . . . . . # # # . # # # # % % % % % % % % % % % % % % & & & & & & & & & & & & & & & & & & & & & & & & & & & $ $ $ $ $ $ $ & & & $ $ & & $ $ $ $ $ t $ t e t e t e t t t t e e e e e t t t t t t t t t t t t t t t t t t t t e t e t t t t e e e t e e e e e e e r r e e e e t t t t t e e t t e t t t t t t t t e t & $ & t t t e u e t t t e e r t r t r e e e e t t t e t & & & & t e e & & & & $ $ $ & & & & & & & & & u e u u u u u u e e e u u u u u u u u u u u u u u u u u u u u u u u u u u u u u u u u u u u u u u u u u u u u u u u u u e u e e e u u u u e e e t t t t t t t t u u t t t t t & u u & $ & & & & t t t t t t t t e e e e t e e e t e t e t e e e t t t u t r t r t e t t t t t t t t t t t e e e e e e e e e e e e e e e e e e e e r e e e e r r e e e e e e e e t r t r t r t r i r r r u r r r t e e e e r e e $ & & & & & & & u & $ $ $ % # # $ $ $ % $ & = & = = = = = = = = & & & & & $ & $ & & & & & $ & & & % % % % % % % % % % % % % % % % % % % % % % % % # % # # # # . . . . . . . . . . . . . . . . . . . . . . . . . .   .   .   . . . . . .     . . . .                       .   . . . . . . . . . . . . . . . . . # # # # . # # # # . . . # # # # . . # # # # # # ",
"# # # # # # # # # # # # # # # # # # # # . . . . # . . . . # . . . . . . . . . . . . . . . . . . . . . . . . . . . . . . . . . . . . . . . . . . . . . . . . . . . . . . . . # # # # # # # # # . . . . . . . . . . . . . . . . . . . . . . . . . . . . . . . . . . . . . . . . . . # # . . # # . . . . . . . . . # # # # # # # * = % # # # # # # # # # # # # # # # # # # # # # # # # # # # # # # # # # # # # # # # # # # # # # # # # # # # # # # # # # # # # # # # # # # # # # # # # # # # # # # # # # # # # # # . . . . . . # # . . . . . . . # . . . . . . . . . . . . . . . . . . . . . . . * . . . . . . . . # # # # # # # # # # # # # # # # % % % % % % % % # % % % % % % % % % % % % % % % % % % # % % % % # # % # % % # # # # # # # # # # # # # # # # # # . . . . . . . . . . . . . . . . * * . . . # . . . . . . . . . . . . . # . # # # # # # # # # # # # . . . . . . . # # # # . . . # # # # # # # # # # # # # # # # # # # # # # # # # # # # # # # # # # # # # # # # # # # # # # # # # # # # # # # # # # # # # # # # # # # # # # # # # % # # # # % & = = % # # # % % % . . . . . . . . . . . . # . # . . . # . . . . . . . . . . . . . . . . . . . . . . . . . . . . . . . . . . . . . . . . . . . . . . . . . . . . . . . . . . . . . . . . . . . . . . . . . . . . .   . . .           .   . . . . . . . . . . . . . . . . . . . . . . . . . . . . . . . . . . . . . . . . . . # # # ",
"# # % % # # # # # # # # # # # # # # # # # # # # # . . . . . . . # # # # . . . . . . . . . . . . . . . . . . . .       . . . . . . . . . . . . . . . . . # . # # # # # # # # # # # # # # # # # # . . . . . . # # . . . . . . # # # # # # # # # # # # # # # # . . # # # # # # # # % % % # # # % # % # % % % % % % % # % & % % = = K ; # = f s & # # # # # # # # # # # # # # # # # # # # # # # # # # # # % # % # # # # # # # # # # # # # # # # # # # # # # # # # # # # # # # # # # # # # # # # # # # # # # # # # # # # # # # # # # # % # # # # # # # # # # # # # # # # . . . . . . % . % * % # * 7 = % % % % % % % # # % % % % % % % % % % & & & % % % % % % % % % % % % % & % & % = % = % = % = % % % % % % % % % % % % % % % % % & & & & & & % % % % % % % % % # % % % # . . % % . # . . . . . . . % # . * = * % . . . # # # # # # # # # # # # . % # # # # # # # # . . # . . # . # # # # # # # # % % % % % % # # # # # # # # # # # # # # # # - % % % & # - # - # # # # % # # # # # # % % % % % % % # # # # % # # # # % % % # % # # # # # # # # # # # & s s & ; h d = % # % . . . # % % % % % # # # # # # # # # # # # # # # # # # # . # . # . . . . . # . # . . . . . . . . . . . . . . . . . . . . . . . . . . . . . . . . . . . . . . . . . . . . . . . . . . .       . . . . .                     . . . . . . . . . . . . . . . . . . . . . . . . . # # # . . . . . # # # # # # # # # # # # # ",
"$ & & e e & $ $ & & $ & $ $ $ $ & & & & $ $ $ & $ $ $ $ $ $ $ $ # # # # # # # . . . . . . . . . . . . . . . . . . . . . . . . . . . . . # # # # # # # # % # # # # # # % % # # # % # # % % % % % % % % % % % % % % % % % % % % % $ $ $ $ $ $ $ $ $ $ $ $ $ $ % % $ $ $ $ $ $ $ $ $ $ $ $ $ $ $ $ $ % $ $ $ $ $ $ $ $ $ $ $ $ $ $ & $ $ & e $ % $ $ $ $ $ $ $ $ $ $ $ $ $ $ $ % % % % % % % % % % % % % % % % % % % % % % % % % % % % % % % % % % % % % % % % % % % % % % % % % % & $ & $ & % % % $ $ $ $ $ $ $ $ $ $ $ $ $ $ $ % $ $ $ $ $ $ $ $ $ $ $ $ $ $ $ % $ $ $ $ $ $ $ $ $ $ $ & & $ & e & $ $ $ $ & $ $ $ $ & & & & & & $ & & & & & & & & & & & & & & & & & & & & & & & t & t & e & t & & & & & & & & & & & & & & & & & & & & & & & & & & & & & & & & $ $ $ $ $ $ $ $ $ $ & & $ $ & & & & e & & & & $ # $ $ $ $ $ $ $ $ $ $ $ $ $ $ % % # % $ % $ % $ % $ $ $ $ $ $ $ $ $ $ $ $ $ $ % % % % % % % $ $ $ % % % $ $ $ $ $ % % % % % % % % % $ $ $ $ % % % % % % $ % % % % # % % % % % % % % % % % % % % % % % % % % % % $ $ $ $ $ $ $ $ $ & $ $ & $ % & f & $ % % $ $ & $ % % % $ $ $ $ $ $ $ % % % % % % % % % % % % $ $ % % % % % % % % % % % % % % % % % % % % % % % # # # # # % # # % # % % % % % % # # # # # % % % % # % # % # # % % . . . . . . . . . . . . @ @ + + o o o o o o o o . @ @ @ @ @ @ % % @ % @ @ % % % % % % % % % % % % % % $ $ % $ % $ % $ % $ $ $ $ $ $ $ $ $ $ $ $ ",
"r r r p p p r r r r r r r r r r r r r r r r r r r r e e r r e e u u u e u u ; ; ; ; ; ; : : : : 1 1 1 7 7 7 : : : : : : : : = = = ; ; u u u u u u u u u u u u u u u u u u u u u e e e u u u p p e e r e r e e e e e e e e e e e e e e e e e e e e e e r r r r r r r r r r r r r r r r r r r r r r r r r r r r p r p p r r p r r t r r e r r r e e e e r r r r e e e e e e e e e e e e e e e e e e e e e e e e e e e e e e e e e e e e e e e e e e e e e e e e e e e e e e e e e e e e e e e e e e e e e e e e e e e r r r r r r e e e e r r r r e e e e e e e e e e r r r r r r r r r r r r r t r r e r r r r r r r r r r r r r r r r r r r r r r r r r r r r r r r r r r r r r r r r r r r r r r r r p p p p r r r r r r r r r r r r r r r r r r r r r r r r r r r r r r r r r r r r r r r r r r y r r r r r r r r r r r r r r e e r e r r r r r r r r r r r r e e e r e r r r e e e e e e e e e e e e e e e e e e e e r r r p e e e e e e e e e e e e e e e e e e e e e e e e u e p p p p p p e e e e e e e e e e e e e u u p r r r r r r r r r r r e e r e t e r r e e e u e e e e p p p p p u u u u u u u u e e e u e e e e e e e e e u u u e e e e e u e u e e e e e u u u e e u u u u u u u u u u u u u u u u u u u u u u u u u u s s s s s s d g g g g g g q q q q q q 0 q q 0 0 0 0 0 q q 7 7 7 7 7 s s 7 7 ; ; ; u u u u e e e e e u u & e e u p p i p i i i i i i i i p p i i i i i i ",
"a a a a a a a a a a y y y y a a a a y y y a a a a i i i a a i i a a i i p p p p & ; u ; & = ; * 7 q 7 7 7 7 7 : 7 7 * = = = 7 s u u i i i i p p i i a i a a a a a a a a a a a a a a a a a a a a a a a a a a a a a a a a a a a a | | a a | | | | | | a | | | | | | | | | | | | | | | [ a | | | | | | | | | | | | | | | | | | | | X.| | | | | | | | | | | | | | | | | | | a a a a | | a a | | | | | | | | | | | a | | | | | | | | X.| | | | | | | | | | | | | | | | | | | { { { { { | | | | | | | | | | | | | | | | | | | | | | | | | { { | | | | | | | | | | | | | | | | | | | | | | | | | | | { | | | | | | { { { { | | { { { { { { { { { { { { { { | | { { { { | | | | | | | | { | { { { { { { { | | | | { | | { | { { { { { { { { { { { { { { { { { { { { { { X.| | | | | | | { { | | | X.X.| | | | | { { { { | | | { | | | | | | | | | | | | { | | | { | | | | | | | | | | | { | | | | | | | { | | | | | | | | | | | { | { { | | | | | | | | | | | | | | | | | | | | | | | | | | | | | X.| | | | | | | X.| | | | | | X.X.| | | | | | | X.X.| | | | X.| | X.X.X.{ { { X.X.| | X.X.l | X.X.X.X.X.X.| { | X.X.X.X.X.X.X.X.X.X.X.X.X.X.X.X.X.X.| | l l X.X.X.| l l l l l n X.X.n m l a m m m l a n l l l a a a l l l a l l l l a a l k l k i k k f f f f h h f d 7 g q q 0 q q 7 7 s g g 0 0 N 0 7 d d 7 7 h 7 h s s s u p i a i a a a a a a a a a a a a a a a a l a a a a l l l a a a a | l | | ",
"| { { [ [ [ [ [ { [ [ [ [ [ [ [ { { { [ [ [ [ [ [ a a a [ a [ | y y a a a a p p p e & & s * = 7 - * - * - - * : + * * 7 7 s u i p p i i i a a a a a a a a a | | | | | | | [ [ [ | | { { { { { { { { { { { { { { { { { { { { { { ....{ { { ........} { { { ..........O...O.......................................O...} ..O.O.O.................} ................................................................o.............................................................................................o.........................} } ......} } } } } ..............} ....................o...............................................................@...............................................................................o.o.............o...............................................................o...................} ........................................................................o.&.o.o...o...o.o.o...................o.o.............................................................{ { O...o.o.o.o.o.o.O.....o.....O.O.o.o.O.O.O.O.O.O.o.o.o.o.O.O.O...O.O.O.o.O.O.O.O.O.O.o.O.o.o.o.O.o.O.o.O.O.O.O.O.o.o.o.O.O.O...{ ....O.O.O.O...{ { { { ......{ { { { { | { { { { { { { { X.X.{ { | | | | X.n l a k k k k h d : q q 8 0 7 7 7 7 7 q 9 8 8 8 q : g c s c s f f k k a l | | | | | | | { { { O.{ | | | | | | | | | | { { { { { { { { { { { ..",
"} } } } } } } } } } } } } } } } } } } } } } } { } } } { { { { } } } { { { { [ a a a i x s q 2 * * - - - . . . . - 1 2 = = p p a a a | [ a [ [ [ { { { { { { { { { } } { { { { ..{ } } ..} ............} } } } ..} } } } } ........................................+...........@.................+...........+.+.@.+.....+.+.+.+...................+.+.+.+.+.+.+.+.+.+.+.+.+.+.+.+.+.+.+.+.+.+.+.....+.+.+.+.+.@...+...............+.+.+.+.+.+.+.@.@.@.+.+.+.+.+.+.+.+.+.+.@.@.@.@.@.@.@.@.@.@.@.@.@.+.+.+.+.+.@.@.+.+.+.+.+.+.+.+.+.+...........+.....+.+...................+.+.+.+.+.+.....+.+...+...........+.+.+.+.+.+.+.@.@.@.@.@.+.+.+.@.@.@.@.+.+.+.+.@.@.@.@.@.+.+.+.+.+.@.@.+.@.@.@.@.@.@.@.@.@.+.+.+.@.+.+.+.+.+.@.=.=.@.@.@.+.+.+.+.+.@.@.@.+.+.+.+.+.@.+.+.+.+.......+...+.@.@.+.+.@.............+.+.+.+.+.+.....+.@.+.+.........+.@.@.@.+.+.+.+.+.+.+.+.+.+.+.+.+.+.+.+.+.+.+.+.+.@.@.@.@.@.+.+.+.@.@.@.@.@.@.@.@.@.@.@.@.@.@.@.@.@.@.@.@.@.@.@.@.@.@.+.@.+.+.+.+.@.+.+.@.@.+.@.@.@.@.@.+.+.@.@.@.@.@.@.+.+.@.@.@.@.@.@.@.@.@.@.@.@.@.@.@.@.@.@.@.@.@.@.@.@.@...@.@.@.@.@.@.@.@.@.@.@.@.@.@.@.@...&.....&.&...o...o.o.o.o.................................o.....@.....o.o.o.............................................{ { { { { { { { | { X.X.| l m f v c g B , , 1 * * * 6 3 3 8 N N Z g c f k n l a a a { [ { { { { { { { { { } ................} ..} ............} ......} } ..",
"#.#.#.#.#.#.#.$.#.#.#.#.#.#.#.$.#.#.#.#.#.#.#.#.#.#.#.#.#.#.#.#.................} [ y k = g q q : * - - 7 d ; % . 1 2 = u r a a { ......@.#.#.#.#.#.#.#.#.#.#.#.#.#.#.#.#.#.#.#.#.#.$.#.#.#.#.#.#.#.#.#.$.$.$.$.#.#.#.#.#.#.$.$.$.$.$.$.$.$.$.$.$.$.$.$.#.$.$.$.$.$.$.$.#.#.$.$.$.$.$.$.$.$.$.$.$.$.$.$.$.$.$.$.$.$.$.$.$.$.$.$.$.$.$.$.$.$.$.$.$.$.1.$.$.$.$.$.$.$.$.$.$.#.$.$.$.$.$.$.$.$.$.$.$.$.$.$.$.$.$.$.$.$.1.1.1.1.1.1.1.1.1.1.$.$.$.$.$.$.$.$.$.$.$.$.$.$.$.1.1.1.1.1.$.1.$.$.$.$.$.$.$.$.$.$.$.$.$.$.$.$.$.$.$.$.$.$.$.$.$.$.$.$.$.$.$.$.$.$.$.$.$.$.$.$.$.$.$.$.$.1.$.$.$.$.$.$.$.$.$.$.$.$.$.1.1.1.1.1.1.$.$.$.$.1.1.1.1.$.$.$.1.1.1.1.1.1.1.1.1.1.$.$.$.$.$.$.$.$.$.$.$.1.$.$.$.$.$.$.$.$.$.$.$.1.$.$.!.!.E.E.E.1.1.1.1.1.$.$.$.$.$.$.$.$.$.$.$.$.$.$.$.$.$.$.$.1.$.$.$.$.$.$.$.1.1.1.1.$.$.$.$.$.$.1.$.$.$.$.$.$.$.$.$.$.$.$.$.$.$.1.$.$.$.$.$.1.$.$.$.$.$.$.$.$.$.$.$.$.$.$.$.$.$.$.$.$.$.$.$.$.$.$.$.$.$.$.$.$.$.$.$.$.$.$.$.$.%.$.$.$.$.$.$.1.$.$.$.$.$.$.$.$.$.$.$.$.$.$.1.!.$.$.$.$.$.$.$.$.$.$.$.$.$.$.$.1.1.$.$.$.$.$.$.$.$.$.$.$.$.$.$.1.$.$.$.$.$.$.$.$.$.$.$.$.$.$.$.$.$.$.$.$.$.$.$.$.$.$.$.$.$.$.$.$.$.$.#.#.#.#.$.$.$.$.$.$.$.$.$.$.#.$.$.$.$.$.$.$.$.$.#.$.#.#.#.#.$.#.#.#.#.#.#.#.$.$.$.#.#.#.#.$.$.$.$.#.#.#.#.#.#.#.#.#.#.....{ a a p & h 0 , , 6 0 7 * * 1 6 N V 4 L h k a a { ......#.#.#.#.#.#.#.#.#.#.#.#.#.#.#.#.#.#.#.$.$.$.$.$.#.#.$.$.$.$.#.#.$.#.#.#.$.",
" X X X X X X X X.X.X X X X X XoX X X X X.X.X.X.X.X X X X X X X X X X X.X.X.X.X.X).!...a i d * : % % @ . 7 g 7 @ . - x t i y 4.`.)..X.X.X.X X X X X X X X X X X X X X X X X X X X X X X X.X.X.X.X X X X X X X X X X X X X X X X X X X X X X X X X X X X X X X X X X X X X X X X X X X X X X X X X X X X X X XoXoXoXoXoXoXoXoXoXoXoX X X X X XoXoX X X X X X X XoX X XoX X X X X X X X X X X X XoXoXoXoXoXoXoXoXoX X X X X X X X X X X X X X X X X X XoXoXoXoXoXoXoXoXoXoXoXoXoXoXoXoXoX X X X X XoXoXoXoXoXoXoXoXoXoXoXoXoXoXoXoXoXoXoX X X XoXoXoXoXoX X X XoXoXoXoXoXoX XoXoXoXoXoXoXoX X XoXoXoXoX X X X XoXOXoXoXoXoXoXoXoXOX X XoX X X X XoXoXoXoXoXoXoXoXoXoXoXoXoXoXoXoXoXoXoXoXoXoX XoXoX X X X X X XoXoXoXoXoXoXoXoXoXoXoXoXoXoXoX XoXoXoX XoXoXoXoXoXoX X X X X X XoXoXoXoXoXoX X XoXoXoXoXoXoXoXoXoXoXoXoXoXoXoX X X X XoXoX X X X X X X X X X X X XoXoXoXoXoX X XoXoXoXoXoXoX X XoXoX X X XoXoXoXoXOXoXoXoXoXoXoXoXoXoXoXoXoXoXoXoXoXoXoXoXoXoXoXoXoXoXoXoXoX X X XoXoXoXoXoX X XoXoXoXoXoXoXoXoXoXoXoXoX X X X X XoX X X X X X X XoX X X X X X X XoX XoXoXoXoXoXoXoXoXoXoX X X XoXoXoXoXoXoXoX XoXoX XoXoXoXoXoXoXoX X X X X X X X X X X X X X XoXoXoX X X X X X XoX X X X X X X X XoXoXoXoX X X XoX X X X X X X X X X X X X X X X X.X X X X X X X9X9X4.r i K + ,   8 J 0 * * 7 7 B 9 Z d k a ../.).)..X X X X X X X X X X X X X X X X X X X X XoXoX X X X X X XoXoX X X X X X X X X",
"-X-X-X-X-X-X-X-X-X-X*X*X*X*X-X*X-X-X-X-X-X-X-X-X-X-X-X-X-X-X-X-X*X-X-X-X-X-X-X-X4X4X`.a a f ; @ & ; * . . * % . # # 2 t r y `.8X4X-X-X-X;X-X-X-X-X-X-X-X-X-X-X-X-X-X-X-X-X-X-X-X-X>X>X-X-X-X>X>X>X>X>X>X>X>X>X>X>X>X*X*X*X*X*X*X*X*X*X*X*X*X*X*X*X*X*X*X*X*X*X*X*X*X*X*X*X*X*X*X*X*X*X*X*X*X*X*X*X*X*X-X*X*X*X*X*X*X*X*X*X*X*X*X*X*X*X*X*X*X*X*X*X*X*X*X*X*X*X*X*X*X:X>X*X*X:X>X>X>X>X>X:X:X>X>X>X>X*X*X*X*X>X>X>X>X>X>X>X*X*X>X>X>X>X:X:X:X>X>X:X>X>X>X:X:X*X>X>X>X>X:X*X>X>X>X>X>X>X>X>X>X>X>X>X>X>X*X*X*X>X>X>X*X>X>X>X>X>X>X>X>X:X*X*X*X*X*X>X>X>X>X>X:X:X>X*X*X-X*X*X*X*X*X*X*X*X>X*X*X*X*X>X>X*X*X=X=X*X*X*X*X:X:X:X*X*X:X:X:X*X*X*X*X*X*X:X:X:X*X*X*X*X*X:X>X>X>X>X>X*X*X*X*X>X*X*X>X>X>X>X>X>X>X>X>X*X*X>X:X*X*X*X*X>X:X*X*X*X*X*X*X*X:X*X*X*X*X*X*X*X*X*X*X*X:X*X*X*X*X*X>X>X:X*X>X>X>X:X:X:X:X>X>X>X>X*X:X>X>X>X>X>X>X>X:X:X:X:X:X>X>X>X>X>X:X:X:X>X>X:X>X>X>X:X*X:X>X>X>X>X>X>X>X>X>X:X:X>X:X:X:X:X:X:X:X:X:X>X:X>X>X:X:X>X:X:X:X:X:X*X:X>X>X*X*X:X>X>X>X>X>X>X:X>X>X>X>X>X*X*X*X*X>X:X:X>X:X:X>X>X>X>X>X>X>X>X>X>X*X:X:X>X>X*X>X>X>X-X>X>X>X>X>X>X>X>X>X>X*X*X*X*X*X*X*X*X*X*X*X*X*X*X*X*X*X*X*X*X*X*X*X*X*X*X*X*X*X*X-X-X-X-X-X*X-X-X-X-X-X-X-X-X-X>X>X>X>X>X>X>X>X>X>X>X>X>X>X>X-X*X*X-X-X-X-X-X-X-X-X*X-X-X-X-X-X-X*X-X*X*X*X-X-X-X-X-X-X-X-X-X4X4X..y m d o o 3 8 0 6 @ * 7 q 7 6 * f a ..9X8X4X;X*X=X=X=X-X-X-X-X-X-X-X;X;X-X-X-X-X-X-X-X-X-X-X-X-X-X-X-X-X-X-X-X-X-X-X-X*X*X*X",
"-X-X-X-X-X2X2X2X2X2X3X3X3X-X-X-X-X-X3X3X3X3X3X3X3X3X3X3X3X3X3X3X2X3X3X3X3X3X-X3X4X8X4X4.r p u % % % * % . - % % % . - s r t #.9X4X-X-X-X-X3X3X-X3X3X3X2X3X3X3X3X-X-X-X-X3X3X3X3X3X3X3X3X3X3X2X2X2X2X3X-X-X-X-X-X2X2X-X2X2X2X2X-X-X-X-X2X2X2X-X-X-X-X-X-X-X-X-X-X2X2X-X-X2X2X2X2X2X2X3X2X2X3X3X3X2X3X3X2X2X-X-X-X2X-X3X2X2X3X2X2X-X-X-X2X2X2X-X-X2X2X-X-X-X-X-X-X-X-X2X-X2X-X-X-X5X5X5X5X5X5X5X2X2X2X-X-X-X-X-X-X2X2X2X2X2X2X2X5X5X5X>X>X-X-X-X-X5X5X5X2X2X-X-X-X2X2X2X2X2X2X2X2X2X2X2X5X5X5X2X2X2X2X2X2X-X-X-X-X-X-X-X-X-X-X-X-X-X-X-X2X2X-X-X-X-X-X2X5X5X-X-X-X-X-X3X-X-X-X-X-X-X-X-X2X2X2X2X2X5X5X-X-X-X-X-X-X-X-X-X-X-X-X-X-X-X-X-X-X-X-X-X-X-X-X-X-X-X-X-X-X2X2X2X2X2X2X2X2X2X2X2X2X2X2X5X5X5X5X5X5X5X5X2X-X2X-X-X-X-X-X-X-X-X-X-X-X-X-X-X-X-X-X-X-X-X-X-X-X-X-X-X2X2X-X-X-X-X-X-X-X-X2X2X2X-X-X-X-X-X-X-X-X-X-X2X2X5X5X5X5X2X2X2X2X2X5X5X5X5X5X5X5X2X2X2X2X2X5X5X5X2X2X2X2X5X5X5X5X5X5X5X2X5X5X2X2X2X2X2X2X-X-X-X-X2X-X2X2X2X2X2X2X2X2X2X2X2X2X2X2X2X2X2X2X5X5X5X2X2X2X2X2X2X2X2X2X-X-X-X-X-X-X-X-X-X2X2X5X5X2X2X5X5X2X2X2X2X3X3X3X3X3X3X3X3X3X3X3X3X3X3X3X2X2X3X3X3X3X2X3X2X3X3X2X2X3X3X2X2X2X2X2X2X2X2X2X2X5X5X5X2X2X3X2X2X2X2X2X2X2X2X-X2X2X2X3X3X3X-X-X2X2X3X2X2X2X3X3X3X3X2X5X5X2X3X3X3X3X3X2X2X2X2X2X3X3X2X3X3X3X3X3X3X3X3X-X-X-X-X;X-X-X3X3X3X3X3X4X|.y a i = + O 9 3 6 : * : 7 7 7 8 T k a 9X8X4X-X3X-X-X-X-X4X4X4X3X-X-X-X-X3X3X3X-X-X-X3X-X-X-X-X-X-X3X-X3X-X-X-X2X-X-X-X3X3X3X3X",
"^.^.^.^.^.^.^.^.^.^.^.^.^.^.^.^.^.^.^.^.^.^.^.!.!.!.!.^.^.^.^.!././.^.^.^.^.^.!.^.1./.4.r e & ; % % % - . . @ % @ # . s r r r #.1.!./.!.!.^.^.!.^.^.^.^.^.^.^.^.^.^.^.^.^.^.^.^.^.^.^.^.^.!.!.!.!.!.!.!.!.!.^.^.^.^.^.^.^.^.^.^.^.^.^.^.^.^.^.!.^.^.^.^.^.^.^.^.^.^.^.^.^.^.^.!.^.^.^.^.^.^.^.^.^.^.^.^.^.^.^.^.^.^.^.^.^.^.(.(.(.(.(.(.(.(.(.^.(.(.^.^.(.(.(.(.(.(.^.^.^.^.^.^.^.^.^.^.(.(.(.^.(.(.(.(.(.^.^.^.^.^.^.^.^.^.^.^.^.^.^.^.^.^.^.^.^.^.^.^.(.(.(.(.^.(.(.(.(.(.^.^.^.^.^.^.^.^.^.^.^.^.(.(.(.(.(.(.(.(.(.(.(.(.(.(.(.(.(.(.(.(.(.(.(.(.(.(.(.(.(.(.(.(.(.(.(.(.(.(.(.(.(.^.(.(.(.(.(.(.(.(.(.(.(.(.(.(.(.(.(.(.(.(.(.(.(.(.(.(.(.(.(.(.(.(.(.(.(.(.(.(.(.(.(.(.(.(.(.(.(.(.(.^.^.^.^.^.^.^.(.(.(.(.(.(.(.(.(.(.^.^.(.(.(.(.(.(.(.(.(.(.(.(.(.(.(.(.(.(.(.(.(.(.(.(.(.(.(.(.(.^.^.^.(.(.(.(.(.^.(.(.(.(.(.^.^.^.^.^.^.^.^.^.^.^.^.^.^.^.^.^.^.^.^.^.(.(.(.(.(.^.^.^.^.^.^.^.^.^.^.^.^.^.^.^.^.(.(.(.^.^.^.^.^.^.(.(.(.^.^.(.(.(.(.^.(.(.^.(.(.(.(.^.^.^.^.^.^.^.^.^.^.(.^.^.^.^.^.^.(.(.^.^.^.^.^.^.^.^.^.^.^.^.^.^.^.^.^.^.^.^.^.(.^.^.^.^.^.^.^.^.^.^.^.^.^.^.^.^.^.^.^.^.(.^.^.^.^.^.^.^.^.^.^.^.^.^.^.^.^.(.(.(.^.^.^.^.^.^.^.^.^.^.^.^.^.^.^.^.^.^.^./././././.^./.!.!././.^.^.(.(.^.^.^.^.^.^.^.^.^.^./.!.!.!.!.!.!.^.^.^.^.^.^.^.^.^.^.^.^./...a a e = . 6 +     o * * * * * g : e { 3./.!.!.^.^.^.^.^.^.^.^.^.^.^.^.^.^.^.^.^.^.^.!.^.^.^.^.^.^.^.^.^.^.^.^.^.^.^.^.^.^.(.^.",
"} } } } } } } } } } } } } } } } } } } } } } } } } } { [ [ } } } } [ [ } [ [ [ [ [ [ y y r # % % . . . . . . . . . . . % & t t r y y y [ [ [ [ } [ [ [ [ [ [ [ } } } } [ [ } } } } } } } } } } } } } } } } } } } [ [ } } } } } } } } } } } } } } } } } } } } } } ..} } ....} } ..} } } } } } } ......} ........} +.} +...} } } } } } } } } }  . . .+.+. . . . .+. . . . . . . . .+.+.+.+.+.+. . .+.+.+.+.+.+.+.+.+.+.+. . .+.+.+.+. . . . . . .+. . . . . . . . .+.+.+... .}  .+.+. . . .+.+.+.+.+.+.+.+.+.+.+.+.+.+.+.+.+.+.+.+.+.+.+.+.+. . . .+.+.+. . . .+.+.+.+.+.+.+.+.+.+.+. .+. .+.} } +.+.+.+.+. .+.+.+.+. .+.+.+.+.+.+.+.+.+.+.+.+.+.+.+.+.+.+.+.+.+.+.+.+.+. .+.+.+.+.+.+. . . .+.+.+.+.+.+.+. . . .+.+. .+.+.+.+.+.+.+.+.+.+. . . .+.+.+.+.+.+.+.+.+.+.+.+.+.+.+.+.+.+.+.+.+.+.+.+.+.+. .+.+. .+.} +.+...} } } +.+.+.+.+.+.+.+.+.+.+.+.+.+.+.} } ..+. . . . . . . . . . . . . . . . .+.+.+.+.+.+.+. . .+.+.+.+. . .+.+.+.+.+.+.+.+.+.+.+.+.+.+.+.+.+. . . . . . . . .+. . . . . . .+.+. . . . . . . . . . . . . . . . .+.+.+. .} }  . .+.+.+.+.+.+...} +.....} +.+.} } ..} } ......} ........} ......} ..} } } } } } } } } } } } } } } [ } } } } { } } } } } } } } } } } } } } } } } } } } } } } } } } } } } } } } } } } { [ [ [ { [ [ { { [ [ [ y r e & # # % % @ . o o o   o o . + . % & p e r a [ [ [ [ [ [ [ [ [ [ [ [ [ [ } } } } } } } } } } } } } } } } } } } } } } } } } } } ",
"[ [ [ [ [ [ [ [ [ [ [ [ [ [ [ [ [ [ y y y y y y y y y y y y y y y y y y y a a y y r r t $ & % # . . . - .   o   . . . . % # # $ $ t r r r r r y y y y y y y [ [ y [ [ [ y [ [ [ y y [ [ [ [ [ [ [ [ [ y [ [ [ [ [ [ [ y [ [ [ [ [ y [ [ [ [ { { [ [ [ [ [ [ { [ [ [ [ } [ [ } } } [ [ [ [ } } } } } } } } } } } } } } } } } } } } } } } } } } } } } } } } } } } } } } } } } } } } } } } } } } } } } } } } } } } } } } } } } } } } } } } } } } } } } } } } } } } } } } } } } } } } } } } } } } } } } } } } } } } } } } } } } } } } } } } } } } } } } } } } } } } } } } } } } } } } } } } } } } } } } } } } } } } } } } } } } } } } } } } } } } } } } } } } } } } } } } } } } } } } } } } } } } } } } } } } } } } } } } } } } } } } } } } } } } } } } } } } } } } } } } } } } } } } } } } } } } } } } } } } } } } } } } } } } } } } } } } } } } } } } } } } } } } } } } } } } } } } } } } } } } } } } } } } } } } } } } } } } } } } } } } } } } } } } } } } } } } } } } } } } } } } } } } } } } } } } } } } } } } } } } } } } } } } } } } } } } } } } } } } } } } } } } } } } } } } } } } } [ } } } } } } } } } } [ [ [ } [ [ } [ { [ { { [ [ [ [ [ y [ [ [ [ [ [ [ [ [ [ [ [ [ [ [ [ [ [ [ [ [ [ [ [ y [ [ [ [ [ y [ y y { { y y y a y y y y y r y r r r r r r t & = # . % . . * o + + o O o . @ : . . % = t e r r t r r r r r y r r r r y y y y y y y y y y y y y y y [ [ [ [ [ [ [ [ [ [ [ [ [ ",
"y y y y y y y y y y y y y y y y y r r r y y r r r r r r r r r r r y r t r t $ r e t t $ & u % * : * * 7 2 + 7 .   . . @ % - 2 x = t u e u r r r r r y r y y y y r r r r r r r r r r r r r r r r r r r r r r r r r r r r r r r r r r r r r r y r r y y y r y y y y y y y y y y y y y y y y y y y y y y y y y y y y y y y y y [ y y y y y y y y y y y y y y y y y y y y y y y y y y y y y y y y y y y y y y y y y y y y y y y y y y y y y y y [ y y y y y y y [ [ [ y [ y y y [ [ [ y y y y y [ [ [ [ y y y y [ [ y y y y y y [ [ [ y y [ [ [ [ [ y y y y y y [ [ [ [ y y y y y y y [ y [ y [ [ y y y y y y y [ [ [ [ [ [ [ [ [ [ [ [ y y [ [ [ [ y [ [ [ [ [ [ [ [ [ [ [ [ [ [ [ { [ [ [ [ [ [ [ [ [ [ [ [ [ [ [ [ [ [ [ [ [ [ [ [ [ y y [ [ [ [ [ [ [ [ [ [ y y [ y y y y y y y y y y y y y y y [ [ y y [ y y y y y y y y y y y y y y y y y y y y y y y y y a y [ [ [ y [ [ [ [ [ [ [ [ [ [ [ [ [ y [ y [ y [ [ [ [ [ [ [ y [ y [ y y y [ [ [ [ [ y [ y y y [ [ y y y y y y [ y [ [ [ [ [ [ [ [ y [ [ [ [ y y y y y y y [ [ [ y y y y y y y y y y y y y y y y y y y [ y [ y y [ y y [ [ y y y y y y y y y y a y y y r y y y y y r r r r r r r y r r r r r y y r r y y y y y r r r r r r r r r y r r r r y r r y a r r y r r a r r r i i i p i i k i i i i i i j q g q 7 ; 7 % : 6 0 0 N 0 0 q q q q g s 7 = u s = d # u e r r r r r r p a a i r y y y y y y i a a a a y y y a a y a a y y y y y ",
"r r r r r r r r r r r r r r r r r t t t e e t t t $ $ $ $ t t t $ t $ $ t $ # $ & # $ # # - . . . . . . o + o . @ * @ . @ + + - - % % % $ $ $ t $ t t t t t t r r e t $ t t t t t t t t e r r r r r r r r e r r r e e e r r r r r r r r r r r t t r r r r y r r y r y y r y a r r r r e r r r r r r r r r r r r y r r r r r r r r r r r r r r r r r r r r r r r r r r r r r r r r r r r r r r r r r r r r r r r r r r r r r r r r r r r r r r r r r r r r r r r r r r r r r r r y y r r r r y r r r r r r r r r r r r r r r r r r r r r r r r r r r r r r r r r r r r r r r r r r y r r r r r r r r r r r r r y y y y y r y y y y r y r y y y y y r y r y r y y y y r r r r y y r r r r y y y y y y y y y y y y y y y r y r y y y r y r r r y r y r y r y r y r r r r r r r r r r r r r r r r r r r r r r r r r r r r r r r r r r r r r r r r r r r r r r r r r r r y r r r r r r r r r r r r r r r r r y r y r r r r r r r r r r r r r r r r r r r r r r r r r r r r r r r r r r r r r r r r r r r r r r r r r r r r r r r r r r r r r r r r r r r r r r r r r r r r r r r r r r r r r r r r r r r r r r r r r a a a a a a r a r p p r r i t t t r r r r r r e r r r r r r r r r r r e e r r r r i t t e t e e e e e e t e p p t u u & & & e u & $ # % $ % % # , , + @ @ d c   . O o , O + + + + 1 1 - * # - o - - * d s & e e e & $ $ $ e e e e e e e e e e e e e e e e e e e e r r t e r r e ",
"t t $ & & e e e e & $ $ & & $ $ t $ $ $ $ $ $ $ & $ $ $ % # # # $ & - # & d u . % % . . . o - . . @ .     1 . @ c 0 w .   o o . . . . # # # % % % $ $ $ $ $ & & e e t t t $ $ t & $ t $ e k k l k k l k l k z k k k z k z k l l l k k k z k l u $ i k k k l k k l a k k k k k u & & & & & & & & t & t t t t t t e t t e e t t e t t t t t t t t t t t t t e e e & & & & & & & & & & & & & & e e e e e e e e e e e e t t t t t & e & & & e e e & e e e e e e e e e e e e e e e e e e e e e e e e e e e e e e e e e e e e e e e e e e e e e e e t e e e e e e e e e e e e e e e e e e e t e e e e e e e e e e e e e e e e e e e e r e e t e e r e e e e e e e e e e e e e e e e e e e e & e e e e e e e e e e e e e e e e e e e e e e e e e e e e r e e e e e e e e e e e t e e e e e e e e e e e e e t t e & e e e e e e e e e e e e e e e e e e e e e e e e e e t & t & t & t & e e e e t & t & e e e e e e e e e e & & & & e e e & & & & & & & & & & & & & & & e & & & & & e e & & e & e & e & & & t & t & & & e & & & & & t & e e e e e e e e e e e e & e e e e u t e t t u t e t e e u t t & & & e & & & & & i -.;.b T T b ;.;.-.-.-.T -.t $ k -.-.-.-.-.-.b -.T b b b b b v b b n b b b b b v -.k $ & e e $ $ u $ $ f u & u # & & # # & = % & & = % * * * o + + +   + c 2.g 1 + , o O + , + + +   o 2 o 2 1 * : R ; . . & . $ % $ % # % $ & $ $ $ $ $ $ $ $ $ $ $ $ $ t t t $ $ $ $ t t t $ ",
"e & & & & & & & & & $ $ $ $ $ $ $ $ $ $ & & $ % % % & = & % % % = & - - * d c = . * = 2 o o q @ . @ o + + o . K K 7 o   X o @ * . % % - * % % % % % & % & = = = # & u u u & & & & $ & $ e k n n l l l l l l l l l l l l l l l l l l l v v z T u # f v l b X.l b n n n v b v i & & $ $ $ % % % % $ % % % % $ $ $ $ # $ $ $ & $ $ & $ $ $ $ $ $ $ $ $ $ $ $ $ $ $ $ $ $ $ $ $ $ $ $ $ $ $ % % $ $ $ $ $ $ $ $ $ $ $ $ $ $ $ $ $ $ $ $ $ $ $ $ $ $ $ $ $ $ $ $ $ $ $ $ $ $ $ $ $ $ $ $ $ $ $ $ $ $ $ $ $ $ $ $ $ $ $ $ $ $ $ $ $ $ $ $ $ $ $ $ $ $ $ $ $ $ $ $ $ $ $ $ $ $ $ $ $ $ $ $ e $ $ $ $ $ $ $ $ $ $ $ $ $ $ $ $ $ $ $ $ $ $ $ $ $ $ $ $ $ $ $ $ $ $ $ $ $ $ $ $ $ $ $ $ $ $ $ $ $ $ & & $ $ $ $ $ $ $ $ $ $ $ $ $ $ $ $ $ $ $ $ $ $ $ $ $ $ $ $ $ $ $ $ $ $ $ $ $ $ $ $ $ $ $ $ $ $ $ $ $ $ $ $ $ # & # $ $ $ $ $ t t $ $ $ $ $ $ $ $ $ $ t $ $ $ $ $ $ $ $ $ $ $ $ $ $ $ $ $ $ $ $ $ $ $ $ $ $ $ $ $ $ $ $ $ $ $ $ $ $ $ $ $ $ $ $ $ & $ $ $ $ $ $ & & $ $ $ $ % $ $ $ $ $ $ $ $ $ $ $ $ # # # $ $ $ $ $ $ $ $ $ $ $ $ $ $ $ $ $ $ $ $ $ $ $ $ $ $ $ $ $ $ $ $ e $ $ & $ # $ # % % % % = % % & & & & & & $ v >.;.>.2.>.>.>.>.>.>.>.>.u # k ;.-.;.;.;.;.;.-.;.;.-.-.-.-.-.T T b b -.-.-.T -.>.k $ $ & & $ $ % & u s ; & # % = = = = ; = = # * * * * 2 1 * o , o   + * _ s._ P D S B S L J 8 L B 8 B 0 Z q * d.c . 7 ; = j = = = = = = = = & & & & & u e & = = = = = = = = & & & = u = = = ",
"e e e e e & & & & & & & & & & & $ % % $ & & & & # % % = % % # % % . # - - * d T . . 2 2 + o : @ * @ + 6 8 o K R d :     O . @ @ % # # % % % % % % % * * * * * = % $ = u s = & $ & & & # & k n n k k k n n n n n n n n n n n n n n n v b b v T e # k -.b -.X.X.X.b -.b T -.v e $ $ % % % % % % % # $ e u u u u u p p i $ $ i e e r r r r y r y r r r r r y r y r r r r r r r r r r r r r r r r r r r r r y y y r r r r r r r r r r r r r r r r r r r r r r r r r r r r r r r r r r r r r r r y y r r r r r r r r r r r r r r r r r r r r r r r r r r r r r r r r r r r r r r r r r r l t t r r r r r r r r r r r r r r r r r r r r r r r r r r r r r r r r r r r r r r r r r r r r r r r r r r r r r r r y y r r r r y y r r r r r r r r r r r r r r r r r r r r r r r r r r r r r r r r r r r r r e r p e l e p r r r y y y y y y y y y y y y y y r r r y i y r r r y y y y y r y r y y y y y y y y y y y y y r y r y y y y y y r r y y y y y y y r y y y a y y y r r r y y y y r r r r r r r r r y r i a a a y y y i i i i i i p i i i i i i i i i a a i a i i i e k e $ i k f u f u i v u % % % % & & $ $ $ & % u >.f.2.f.2.>.>.>.2.>.f.f.u # h >.;.>.>.>.>.>.;.;.;.;.;.;.;.;.;.-.-.-.;.;.;.;.;.;.f # % $ & % & % u f ; % = * d s s s s ; & & % % = = 7 2 1 * * * * 1 o   0 e.e.P S S B S L B S S B 8 0 J 6 8 s.Y o c * % * = * * * * = = & % & = = & = u u & = = = = = & = = = & = u u = u j ",
"t e u u j f j f e e u u u s s s = ; ; ; ; ; 7 s ; : ; : * % % * = ; % . o . * c R . . 2 1 + @ @ @ w + O 1 1 d.K * @ O , 8 7 : ; 7 7 : = : ; 7 s ; ; ; ; ; ; ; ; s & % = s s = % & & & % u v b b b b b b b b b b b b b b b b b -.-.-.-.-.-.T ;.u # v ;.-.-.-.-.-.-.;.-.-.;.T u u $ % % % % % # % $ u n T b b b b -.-.-.e e -.-.X.X.X.X.X.X.X.X.X.X.X.X.X.-.X.X.O.X.O.X.X.X.X.X.X.X.X.X.X.X.X.X.X.X.X.X.X.X.X.X.X.X.X.X.X.X.X.X.X.X.X.X.X.X.o.X.o.X.X.X.X.X.X.X.X.X.X.X.X.-.X.X.X.X.X.X.X.X.X.X.X.X.X.X.X.X.o.o.o.X.O.X.X.X.X.X.X.X.X.X.X.X.X.X.O.X.X.X.X.X.X.X.X.X.X.X.X.X.X.X.X.X.| ,.r a X.X.X.X.X.X.X.X.X.X.X.X.X.X.X.X.X.X.X.X.X.O.X.O.X.O.X.X.X.X.X.X.X.X.X.X.X.X.X.X.X.X.X.X.X.X.X.X.X.X.X.X.X.X.X.X.X.X.X.X.X.X.X.X.X.X.X.X.X.X.X.X.X.X.X.X.X.X.X.X.X.X.X.X.X.X.X.X.X.X.X.X.X.O.O.O.O.O.X.X.X.X.X.l :.a X.X.X.X.X.X.X.X.O.X.o.o.o.X.X.O.O.o.o.X.-.-.-.X.X.X.X.o.o.o.o.o.o.X.X.o.o.o.o.o.o.X.o.o.-.-.-.-.-.o.o.o.-.-.-.-.o.-.-.:.:.:.:.:.-.:.:.:.:.:.:.:.:.:.-.-.-.:.:.:.-.:.:.:.:.:.:.:.:.-.:.:.:.:.:.-.-.:.:.:.:.-.-.-.:.,.,.,.,.,.,.,.,.,.,.,.,.2.2.2.2.2.,.3.i e ,.f.f.m.m.m.m.T.2.s % # % % % % % $ $ = $ f.}.m.2.f.n.f.f.f.f.f.n.u # T 2.>.>.2.>.2.>.>.,.>.,.>.>.>.;.;.;.;.;.;.;.;.;.>.>.h $ & & % % # v d = d % % / d ; ; d h d d c K c K T T K g K K : J Q 1 , O S l.~ L P L L W L P 3 B L J 0 6 s.d.  q   + c * = h d 7 s g h g d d h h d d h f s s d h h h d h c s s d c h s h T ",
"% & $ = & # & s . % % = % . = ; . . . * . . . 7 = : * . . . . . d ; * - . . . . ` R . + 7 7 . * : w o 8 o ` Y + :   o 6 o   : : * @ . . . . % 7 % - * . . . . : s K . % = s s = % & % # & v T T T T v T -.;.T v T T T T T T -.-.-.-.;.;.T T >.j # v R ;.>.;.;.;.;.;.;.;.>.;.= = % # # % % # # & k n b b b b b b X.-.-.$ i X.b X.X.X.X.X.X.-.-.X.X.X.X.X.b X.X.X.X.X.X.X.X.X.X.X.X.X.X.X.X.l X.X.X.X.X.X.X.X.X.X.X.X.X.X.X.X.X.X.X.X.X.X.X.X.X.X.X.X.X.X.X.X.X.X.X.X.X.X.X.X.X.X.X.X.X.X.X.X.X.X.X.X.X.X.X.X.X.X.X.X.X.X.X.X.X.X.X.X.X.X.X.X.X.X.X.X.X.X.X.X.X.X.X.X.| X.l X.X.X.| | :.i r n l n l l l l l l X.X.X.X.X.X.| l | | | l l n | l l l | X.| n | n | | | | X.X.X.| | | | | | | | X.| | X.X.X.| | | | | X.| | | | | | l X.X.X.X.| l | l | l X.l X.X.X.X.X.X.X.X.X.X.X.X.X.X.X.X.X.X.l l n X.a n l ,.a X.n X.X.l | X.X.X.| X.X.X.X.X.X.X.X.X.X.X.X.X.X.X.X.X.X.X.X.X.X.X.X.X.X.X.X.X.X.X.X.X.X.X.X.X.X.X.X.X.X.X.X.X.X.X.X.X.X.X.X.-.-.-.-.-.X.X.X.-.-.-.-.-.-.-.-.-.-.-.-.-.:.-.-.X.-.-.;.-.-.-.-.-.-.-.;.;.;.;.-.-.-.;.;.;.;.;.,.,.,.,.,.,.;.,.2.2.2.2.,.2.2.b $ 2.f.m.T.m.2.n.m.b.d.; = # # = # # = & = u f.m.m.m.b.m.m.b.n.m.b.b.= . ;.f.>.>.2.d.>.2.>.>.>.>.>.>.>.>.>.>.>.f.;.>.;.>.>.>.h % # = . . d T * * 7 . >.R * . # . 7 . . % c . . . 7       q q   1 J o O + ^ a.p.L P W L L B 3 L J J + _ n.o 0 + @ . Y U K >.. . . . . = g h 7 . . . * : . % s s . # . * * * * h . . * # : ",
"# % s = # . # s = % = = # . # = 7 * 7 : . % . * 7 . % 7 : . . : % . . * + . . . + d.g . * 6 7 o 6 o 6 + ^ ^ + q   o : .   : +   . . 7 - . . : * . . * * . . * 7 . s K . : % s f & # % # & T v T T T T v f f v T T T T T T T R R ;.;.;.;.;.;.>.j . T >.;.;.>.>.>.;.;.;.;.>.>.; = % % % % # % = d v b -.;.;.-.-.-.;.;.;.& i X.b -.-.-.X.-.-.b b X.-.-.-.-.-.X.X.X.X.X.X.b b b b b b b X.X.b b b n n n l l l l n n n n n n X.n n n n b b b b b X.X.X.X.X.X.X.X.X.X.X.X.X.X.X.X.b b X.X.X.X.X.X.X.X.X.X.X.X.X.X.b b X.X.X.X.X.X.n n b b n n n n n l n n n n l l l l l l l l l n n n l n ,.i r n l n l l l l l l l l l l l l l l l l l l l l l l l l l l l l l l l l l l l l l l l l l l l l n n n n X.X.l l l l l l l l X.X.X.X.X.n l n n n l l l n n n l l l l l l l n l n n l l l n n n l l l l l l n l n l 3.a n n n b n n X.X.X.n n n n n n n l X.X.X.X.X.X.X.X.X.X.X.X.X.X.X.X.X.X.X.X.X.X.X.X.-.X.X.-.X.-.X.X.-.-.-.-.-.-.-.-.-.-.-.-.-.-.-.-.-.-.;.;.;.;.;.;.;.;.;.;.;.-.-.-.;.;.;.;.-.-.-.-.-.-.-.-.;.;.-.-.;.;.;.;.;.>.>.>.>.>.>.>.>.>.>.2.2.;.f.m.f.f.f.2.f.m.f.b $ f.T.T.T.T.T.T.G.A.T.n.d # # . . % % # & u d.m.b.b.m.b.b.n.b.n.b.G.s . ;.f.f.f.f.f.f.f.d.d.d.>.>.>.>.>.f.;.z T ;.>.>.f.>.f.c . % . # h R # s = . Y K K . . . * K U 7 h 7   . . + Q 7 6 J 6     q /     + E c.i.B L P S 8 9 L B + ^ F.+ K @ . . Z K . . 2 d . . . 2 U : 7 K . - * . h Y Y K d % . . * c h d Y d . . . U ",
"= = s % . * # * s = s = . . . = 7 * 7 7 . . @ : .   . * 7 @ : d . . . 7 q + * * . * d.6 o q * + + 6   J i.+ 8 o . q q @ + J +   + . 7 g 7 q g . +   . 7 * q q . . . d c . * = d s # % . % T T T T R T T c c T ;.R R R R T T R R R R R ;.R ;.>.g . T >.>.>.>.>.>.>.>.>.>.>.d.s * # # . . . * s K T ;.;.>.;.;.;.;.;.;.>.& u T T -.T ;.-.-.-.-.;.-.-.-.-.-.-.T T T b b b b b v v v v v b v v v v l n n n n n n n n n n v v b v b b v v v v v v b b b b b b b b b b b b b b b b b b v b b b b b b b T b b b b b b v b b v v v v v k v v v v v v k k l l l l k k k k l k k k k k n n k n 2.i u k k n l l l l l l l l l l l l k k k k l l l l l l l l l l l l l l l k l k k k l l l l k k k l k k k k l l l l l l l l k k l l l l l k l k k k k l k k l l k k k k k k k k k k l l k l n k k k k l k k i l k k l m.k n n n n n n b b v n n k n v v v n n b v n n n n v b b v b v v v v b b b b b b b b -.-.-.-.-.-.-.-.-.-.-.;.;.;.;.;.;.;.;.;.;.;.;.;.;.;.;.;.;.;.;.;.>.>.>.>.;.;.;.;.;.;.;.;.;.;.;.;.;.;.;.;.;.;.;.;.;.;.;.;.>.>.>.>.>.>.>.>.2.f.f.2.>.>.2.>.m.f.f.T.m.m.m.R = f.Y.Y.G.Y.Y.Y.Y.Y.Y.Y.d.7 - . . * # * = g f.T.T.v.G.A.b.T.T.m.v.T.7 . / b.n.n.f.f.f.f.d.d.f.d.>.>.>.>.>.>.T R >.d.>.d.d.2.h . # . s Y g . # . / K . Y * . . . g g 7 K K   @ . 8 Q q 8 J     o   ^ ^   , O P z._ P L L B L S , ^ S.8 0 + . 7 @ K 7 . * . J . . + / 7   . g : . . 7 Y : . @ g . . . K U : @ 7 7 . . * Y ",
"% * d % . . . = # . = * . . . * . . @ 7 . . @ : . . @ . * * 7 * . . . * * + 7 . *   J d.. * * + : : 6 i.+ 6 o   + q 6 @ + 0 + .   . : 7 . q 7   . . + g * 7 q . - . . c 7 . * % g = # . # T T T T Y Y T T Y T T T T R T T T R R R R R / R / >.d . Y >./ d.b.n.>.d.d.d.2.d.d.7 * # . . . # 7 K R >.>.>.>.;.;.;.>.;.;.2.= u T T R T ;.T T T T ;.;.T T T T T T T T b b v v v v v v v v v v z z v v v v v v v v v v v v v v v v v v v v v v v b T T b b T T T T T T T T b v v T T T T T v b v v v v T T b v v v v v b v v v v v v v v v v v v v v h v v h h h h h k h k k k k k h h k k f.p e v f k f f f f k f k f k k k k f f f f k f k f k f k f k f k f f f f f k f k k k f k f k f f f f f k k k k k k k k k k k k k f k f k f k k k f k f f f f f f f k k k h h k k k k k k k k k k k f f f f f f f f f m.k v v v v k k v v v v v v h v v v v v v v v v v v v v v v v v v v v v T T T T T T T T T T T T T ;.;.T T ;.R ;.R ;.;.;.;.;.;.;.;.>.>.>.>.>.>.>.>.>.>.>.>.>.>.>.>.>.>.;.;.;.;.;.;.;.;.;.;.;.R ;.R ;.>.;.;.;.;.;.R ;.;.>.>.>.2.d.f.f.>.d.U.f.>.T.m.m.m.m.m.m./ = d.U.G.Y.Y.Y.U.U.U.F.F.F.` 7 . . . . * # g n.T.A.M.G.A.n.dXY.m.T.G.h . / n.f.n.d.d.f.d.f.f.d.d.d.2.d.d.>.d.d.>.d.>.>.d.>.d.K . . : K g * 7 . Y Y . . 7 Y . . 7 U + . + Y :   + U + X   0 K   . + q ^ ^ 3     ! a.E L P E L + U U.q + 8 . q / ` g   +   . K Y 7 J K . . + . K 7 : U g . @ @ Y : @ @ Y 7 . . 7 c + . q K ",
". . % * # @ = : . . . * * @ * : . .   @ : 7 : * . . . @ * . @ @ . . . + @ . * + . 6   s.0 . 6 o 8   d.^   6   q 1 0 o     @ q   . * g . . . q o . * * *   . 1 7 @ . . . Y * . # = 7 . . # T T K Y Y T Y Y Y Y Y Y Y R R Y Y Y R R / / ` / / d.g . Y >.>._ >.>.` d.d.d.d.d.f.7 * . . . % 7 U R / >.>.` ` >.>.>.>.>.>.d.= : R Y T R Y T R T K K K T T T T T T T T T K K K K K K K K K K h h K K v h h h h c c c c v c v v K K v v K T K K K T T T K K T T T T T T T T T T T T K K T T T K K K K K T T K K T T K K K K K K K K K c c c c c c c h c h h h h h h h h h h h h h h h h h h n.d = c f f f f f f f d f f h h h h h h h h f f h h h h h h h h h f f f f f h h h h h h h h h h h h h h h h h h h h h h h h h h h h f h h h f f h h h h f f h h h h h h h h h h h h h h h h h h h h h h h h h h f d h T.h c K c c c c c c c h h v c c c v v K K K v c v v K K K K K K K K K T T T T T T T T T Y T T T Y R R T R R R R R R R / / / ` / / / / >.>.>.>.>.>.>.>.>.>.>.>.>./ ;.>.;./ / / / R / / / / / / / / / / R / / / / / >.>.>.>.q.d.d.f.f.>.K >./ d.T.v.G.v.v.b.v.R - d.U.G.F.F.U.F.F.U.F.K.F.v._ q   . + . . q b.A.S.A.F.A.>.b.s.z.A.G.c . / b.n.n.f.f.n.d.s.d.d.d.d.i.i.d.d.>.d.>.i.>.d.2.>.b.Y . . c c * 7 . ` Y . . . + J K K Y 7 . o   q Y 6 J U   .   o Y 0 q ` B   7.^ +   8 k.p.L P E P   V.s.  0   0 J . o 0 1   +   I U 6 0 0 * .   + / g q K 7 @ .   J ` q K U . . . . J J Z U g ",
". . . * 7 7 7 + . . . : q 7 q 7 . .   * 7 6 * * . . + 7 @   . * 7 * * q +   . q . 6 . ` I . + + + , 7.i.  6 + ^ * + . . .   J 8 q 6 1   o . 8 0 7 q +     . + 6 + q * . * U * @ # 7 . . . K Y Y Y Y Y R R Y Y R Y Y Y R Y Y / R Q / ` ` ` ` d.c . K >.s._ J J q.s.d.d.d.n.b.g * . . @ q U ` >.` ` ` ` ` >.>.>.` ` ` d.* 7 ` Y R Q / Y / / Y Y K Y Y Y R Y Y Y Y Y T U T T T U K K K K K K K K h h c K c K K K K K K K K K U U U T U T U U U T Y U U Y Y Y Y Y Y U Y Y Y T Y T U Y Y T T Y Y Y Y U U U U Y Y T U U K K K U K K K K K K K K K K c Z h Z h Z h h h h h h h h h h h c h v.h * K h g g g g g g g g g g g g g h h g g g h g g g g h h g g g g g g g g h h h g h h g g g g g g h h h g g g g g g g g g g g g h g g g g g g g h h h h g h h h g g h h h g h h h g g g g h h h h h h h h h h h g K Y.c K K c c c K K K K h h K K c c K K K K K K c c K K K K K K K U U U T Y Y Y Y Y T T Y Y Y Y Y Y Y R Q / / / / / / / ` ` ` ` ` ` >.>.` ` _ >.>.>.>.>.>.>.>.` ` ` ` ` ` ` ` ` ` / ` ` Q / / ` ` / / / ` ` / ` >.>.>.>.q.q.i.i.d.s.n.s.i.` i.A.b.b.b.M.b.b.b.^ * s.U.F.F.F.U.H.H.U.K.K.F.K.V._ q . . . - g A.G.F.F.K.D.d.J ^ A.A.T.7 . / v.n.z.b.z.z.d.s.d.d.i.d.i.i.i.i.` i.i.s.d.n.>.n.` 7 . . J g . . J U * q   . : Q * + g J   .   q U 0 q U     X 6 0 8 8 8 U   q S.  X 0 S.V.S E L W O V.e.  0   `       + Z *   1 0       U *     q K . . c J   . . g g . : c + .   * Z 6 . 7 Z ",
". . @ * . . + * .   . * * + * + . .   q +   . 7 : 6 : q .     + q . : 8 +     q   q   s.J   6 + 6   7.s.  + 8 _   o   . . . 0 8 + + o .     * J + 7 0 . o . + 0 * @ c +   J J . 7 q . . . J K / Y U U Y ^ ^ Y Y / Q / / / / / ` ` ` ` ` ` >.s.J   I s.s.p.i.p.s.s.s.s.s.x.F.J *   + 7 K / q.i.q.7.7.q.i.i.i.i.q.q.i.s.* q >./ / Y ` ` / ` ` ` Q / ^ / / / / Q Y Y Y Y Y Y Y Y U K K K K U K K K K K K K U U U U K K U U U U U Y U U U U U Y Y Y U Y Y Y Y Y Y Y U U Y Y Q Y Y Y Y I Y Y Y Y Y Y Y U U U Y Y U U U U U U U U U K K K K K K K K K J J J J K K K K J J J K K K K K K K F.K : K g c g g g g g g g g g g g g c g g g g g g g g g g g g g g g g c J J g g g g g g g g g g g J J g g g g g g g g g g g g g g g g g g g g g g J J J J g g g g Z J K K K J J K K K J J J J J J J K K K K J g J K K U.K Y U K K K U U K K K K K K K K K K U U U U K K U U U U U U U U Y Y U Y Y Y Y Y Q Q Q Q / / ` ` / ^ ` ` ` ` ` ` ` ` ` ` _ >.q.q.q.i._ _ q.q.q.i.q.>.q.>.q._ _ _ >.>._ ` _ _ >.` ` ` ^ ^ ^ / ` ` ^ ^ _ ` ` _ 7.7._ _ >.i.i.d.s.n.n.b.x.v.A.z.b.A.v.x.v.b.v.` 1 k.H.D.K.J.K.K.K.U.K.F.L.F.D.c.` 6   o + Z F.G.F.H.H.H.D.z.A.K.F.F.q   ` G.z.z.b.z.b.z.s.s.s.s.a.d.p.d.s.d.s.d.p.d.s.s.i.q 1 @ . J J   U ^ o * I o   Z 6   + o Q o O , I       U J     8 8   O   U 3 O S.  , B c.V.S E ! S , N.a.  0 6 I   o   o I I U U , O   o 0 L 6 0 J o     + J 6   8 K   o . 0 0     8 1 o o + Z ",
": @ g : . . . 7 . . * + .   . *   @ + q .   + + 6 +   6 @ .   q +   @ + + + . q   8 o d.J @ 6 + 6 + ^ s.+ + 0 i.  q 8     8 q .   + q   o o q o     q       + 0 .   : 6 . q J   g g . . + g * J ^ ^ Y ^ Q I ^ ^ ^ ^ / / ^ ` ` ` _ _ ` ` >.d.s.J   I i.p.z.x.z.s.s.z.z.s.c.U.U +   7 K ^ q.d.d.i.s.s.h.s.s.s.s.s.s.s.b.1 Z d.` _ _ _ ` _ _ ` _ >.` ` ` ` ` / ^ Q Q Q Q Q Q Y I U U U U U U U U U K K K U U U U U U U U U I Y Y Y Y Y Y Y Q Q Q Q Q Q Q Q ^ ^ Q Q ^ ^ Q Q Q Q Q Q Q Q Q Q Q Q Q I ^ Y I I Y Y I U I U U I I U U U K J K K U U U K K K K K K U K K J K K K U U U K U U U.I 6 U J J J J J J J J J J J J J J K K K J J J J J J K J K J J J K K K K K K K J J J J J K K K K U U K K J K K U U U U K K U U U K K K K K K K K K U U K K K K K U U U U U U U U U U U U U K K K K K K K K U J U U I I.I ` Q I U I I U U U U U U U U U U U U U I Y I U U U Y Y Y Y Y Q Q Q Q Q Q Q ^ ^ ^ ^ ^ ( ` _ _ 7._ ` ` ` _ _ _ q.q.q.q.q.q.q.i.i.i.i.i.i.i.i.i.d.d.d.d.i.q.7.7.q.q.q.i.q.7.q.q.q._ ` _ ` ( ( _ _ 7.7.( ) _ _ 7._ 7.7._ d.d.s.z.h.s.b.x.x.z.x.S.A.A.v.A.v.M.7.1 x.F.H.U.H.K.P.F.F.K.U.K.V.v.z.i.J     6 J U.F.F.H.H.K.D.K.F.D.F.F.q   ` F.z.s.x.z.x.x.k.s.s.s.s.s.a.p.p.s.s.s.s.d.i.s.0 0 I .   J J   v.J   . ^ 0 q ` 6   ,   ^ J 8 _ q   O O 8 ` 0 L _ 6   O   0 S L H.6   B N.x.D ^ E !   V.s.  0 8 ^       o J q 6 U B   +   , d.8 8 ^ +   +   6 _ U Y 0   * . * ^ L L d.q O +   Z ",
"q : q   . o   @ 8 * 0 o   o   6 8 0 0 o     . + o .   + 8 + 6 6         6 + w q   0   s.J X + 3 6 o ( s.+ + 8 i.    0 : 6 J o .   o 8 q 8 J 8     o O 8 6 8 8 +   o   6 0 J 0   U J   o * q ^   I _ I ` ^ E E ^ ^ ^ ^ ^ ` ` _ ` _ _ _ i.d.d.x.I   I p.s.h.h.s.k.z.c.h.k.x.rXI *   8 _ i.a.s.n.x.x.h.z.x.z.k.z.h.h.n.v.6 0 d.i._ i.7._ 7.q.q._ ` _ _ _ _ _ ` ` _ Q Q Q Q I Y Y I I U U I I I I U I U U U U U U U I I I I I I Y ^ Q I I ^ ^ E E ^ Q Q ^ ^ Q ^ ^ ^ ^ ^ ^ ^ ^ ^ ^ ( ^ ^ ^ ^ ^ ^ ^ ^ ^ ^ E I E E E ^ ^ I I Q ^ E I E I I U U U U U U I U K J U U U K U U U U U U U U ^ / dXI 8 I J U U U U U U K K U K K U U U U U U U U U U U U I I I I U U U U U I I U U I I I I Y Q I I I I Y I I U I Y I I Y Y Y Y ^ ^ ^ Y Y ^ ^ ^ Q I I Y Y Y Y Q E I I I Q ^ ^ I I I I I I I Y Q ^ Y U U U I I I I I I ^ dXU i.` I ^ I ^ I U U I I Y I I Y I U Y I I Y ^ ^ ^ Y ^ ^ ^ ^ ^ ^ ^ ^ ^ ^ ^ ^ ` ` ` ^ _ _ _ _ ` _ _ ` q.i._ _ i.i.i.d.d.7.i.d.p.i.i.p.i.d.p.s.s.d.p.s.p.i.i.i.i.7.7.d.d._ _ i.i._ ` _ _ _ _ _ _ _ ` ) _ _ _ 7.7.7.i.i.d.d.s.s.s.z.x.x.c.c.v.A.A.v.v.v.K.M.M.7., V.K.S.H.F.S.K.K.S.K.U.K.K.M.x.z.^ o + 1 I Y.K.I.H.H.P.H.H.D.K.F.F.0   s.Y.A.M.v.c.x.x.x.k.z.k.a.p.s.s.s.s.p.s.h.7.p.J 0 i.6     J J O v.0   J U + 6 U 6 + O   I U 8 0 L   O   8 E S 0 I +   o   J B L H., O S N.c.L ! ! P O N.h.  B 6 ^ +     U 8   o o L   o o E +     J B   O 1 I +   8 J     O 6 U 6 + B 0 O X   L ",
". + + 6     . 8   . + +       8 +   o q       6       * 6 o + * o     + 6 X o q   0   s.J X + 3 6 + ` a.o , 0 _   o q + + q +   o   8 q 8 8 0   +   o 0 8 0 0         0 8 ^ U   U 0   . o + U Y + U ^ I ^ _ ^ Q ^ ` ` ` ` _ _ _ _ q.i.q._ _ x.^   ^ h.s.h.z.k.z.h.x.k.x.v.aX^ 8 O 0 7.s.z.z.x.x.M.x.x.v.x.x.v.v.c.c.G.q J s.d.d.q.i.p.d.d.n.s.i.p.i.i.i.i.q._ _ ` ` ` / Q Q ^ Q Q Q Y Q Q Q Q Q I I I I Y Y I I I I I Y ^ ^ / ^ ^ ( ( ( ( ` ` ` ^ ^ ^ ( ` _ _ ` ` ` ` ` ` ` ` ` ` ` ( ` ` ` ` ^ ` ` ( ( ` ( ^ ( ( ^ ^ ^ ^ ^ ^ ^ ^ ^ ^ Y I I I I Y I I I I I I U I I I I I I I I / ^ dX^ q ^ U U U I I I I U U I I I I I I I I I Q Q Q Q Q Q ^ ^ / / ^ ^ / / ^ ^ ` ` ` ` ` ` ` ` ` ` ` ` ` ` ` ` ` ` ` ` ` ` ` ` ` ^ ^ ^ ` ` ` ` ^ ^ ^ ^ ` ` ` ` ^ ^ ^ ^ ( ^ ^ ^ ^ ^ ^ ^ ^ ^ / / / ^ ^ / Q Q Q Y I I ^ ^ ^ kXQ d._ ^ ^ ^ ^ ^ ^ ^ ^ / / ^ ^ / / ^ / / ^ ^ / / / ^ ^ ^ ^ ^ ^ ^ ^ ^ ` _ _ _ q.q.q.q.7.7.i.i.7.i.d.i.d.s.s.s.s.s.d.d.s.s.d.s.s.s.s.p.s.s.s.s.s.d.d.p.s.d.s.s.s.p.s.s.p.s.s.p.p.d.i._ ` _ 7.7._ _ 7.7.7.e.i.i.i.i.i.p.s.s.s.z.x.c.c.c.A.A.A.S.S.A.A.A.F.A.S.i.6 V.H.K.K.F.F.I.I.K.U.U.I.rXH.A.z.` + + , ^ I.U.I.P.P.L.P.L.J.K.H.U.0   d.F.M.A.V.M.c.c.x.k.z.z.h.h.s.p.h.s.s.i.7.x.^ 0 d.q 8 O   J E   S.8 U U o     0 I + o 0 J     O ^ 6   , I 6     6 I ,   J J + 8 K.+ O L M.c.L ~ ! P O M.h.  0 3 ^ I I I I   o   + J I 6 E 0 O o O , J B 6 E 8 X O   B J o 8 I ,     , B 1 X 8 P ",
". .   q * . : 6       6 +   8 8 .   . q o . 6 1   . . 7 +     + +   o 6     @ 6   0   s.J O , 3 6 + ` d.O 6 B (   6 6     + 6     o c +     q 6     8 6     6 6 .   + 8   J U   I q     6 6 8 Q L + ` Q ` ^ ` ^ ` ` _ _ _ _ q.7.7.q.q.i.p.d.M.E   ( z.s.h.x.x.z.x.c.c.c.A.sX_ 8   B p.z.c.v.M.M.A.M.A.S.A.M.A.A.v.v.F.q J s.s.h.s.h.n.h.n.z.z.h.h.s.d.d.d.d.i.q.i._ _ ` ^ ^ ` ^ ^ / ^ ^ ^ ^ Q Q Q ^ ^ ^ ^ ^ ^ / ^ ^ ^ / ` ` ` ` ` _ _ ` ` _ >.` _ ` ` ` ` >.i._ _ _ ` ` _ _ _ ` 2._ ` ` _ _ _ ` i._ _ _ _ _ _ ` _ _ ` ( ( ` ( ^ ^ ^ ^ ^ ^ ^ Q Y ^ ^ ^ ^ Q Q Y Y Y Y Y Y Y Y Y Y ` ` kX^ 8 ^ I I Y Y I ^ ^ I Y ^ ^ ^ ^ ^ ^ ^ ^ ^ ^ ^ ^ ^ ^ ^ ^ ` ` ` ` ` ` ` ` ` ` ` ` _ _ _ _ _ _ i.i.i.i.i.i.i.i.i.i.i.i.i.i._ i.R._ _ _ i._ _ _ _ ` _ _ _ _ _ _ _ 7._ _ _ _ _ _ _ ` ` ` ` ` ^ ^ ^ ` ^ ^ ^ ^ ^ ^ ^ ^ ^ ` kX^ d.i.^ ` ^ ^ ^ ^ ^ ^ ` ^ / / ^ ^ ^ / ^ ^ ^ ^ / / / ^ ^ ^ ^ ` ` ` ` _ _ _ _ _ _ _ i.a.s.s.s.s.s.s.s.s.s.s.s.h.h.s.z.s.h.n.n.z.z.z.h.z.z.z.z.h.s.s.h.n.z.n.s.s.s.s.s.s.z.h.s.d.p.d.7.7.q.i.7._ _ 7.i.7.i.i.i.i.d.p.s.s.z.x.x.x.c.c.c.A.A.S.S.G.F.F.F.A.S.F.q.8 A.K.I.U.Y.U.I.aXdXaXI.aXtXK.D.b.p.6 , , _ aXI.I.I.I.P.K.L.H.K.H.I.J   s.F.M.A.A.M.N.M.v.c.x.z.x.x.h.s.h.p.z.s.s._ + s.I 6 I O   0 I o K.I J 0   + o   J S J 7.+   O , 0 E 8 ( I O   , O ( L q ^ 6   B K.O O L V.c.D ~ ^ W O V.k.  0 , _ J q 8 I 6   O O U U 6 J U +   + O I J 8 E 8 O + O , 7.B U J o +     ^ ^ I E B ",
".   . 6 q + q @ .     6 6 6 0 :   o   . q 1 q * . o . 6       + 6 : 6 q       8   0   s.J o , 3 6 + ` p.O 6 S ` 6 0 +     @ 0 q + 0 +       6 0 o 6 q       o J + 6 0     q J . U q     8 J 6 6 ` Z 0 7.Q ^ ` ` ` _ _ _ _ 7.q.q.q.q.q.d.k.x.A.I   ( x.h.h.x.x.x.M.M.M.v.A.fX7.8   B s.z.v.v.A.F.F.S.F.F.F.S.S.S.M.M.H.8 J s.s.b.x.z.n.b.z.s.s.x.z.n.s.d.s.n.s.s.d.i.i.>.` ` ` ` ` ^ ^ / / / ^ ^ / / ^ ^ Q ^ ^ ` ` ` ` ` ` ` _ ` ` _ _ _ _ >.q.>.i.i.i.>.` ` >.i._ _ _ _ 2.i.i._ i.i._ _ i.i.i._ d.7.7.q._ _ i._ _ _ _ ( ( ` ` ^ ^ ^ ^ ^ ^ ^ / / ^ ^ / ^ ^ Q Q Q Q Q Q Q ^ ^ ^ ^ ` ` kX` q ^ ^ I ^ ^ ^ ^ ^ ^ ^ / ^ ^ ^ ^ ^ ^ ^ ^ ` ` ` ` ` ` ` ` _ ` ` ` ` _ _ _ _ 7.i.d.d.d.d.d.i.d.d.d.d.d.d.d.i.d.d.d.d.d.d.i.i.d.d.d._ _ i.d.d.d.d.d.d.i.i.i.d.d.i.i.q.i.i.i.q.>._ _ _ _ ` ` ` ` ` ` ` ` ` ` ^ ` ` ` _ jX` h.d.` _ ` ` ^ ^ ^ ` ` ^ ^ ^ ^ ^ ^ ^ ` ` ` ^ ^ ^ ` ^ ^ ` ` ` ` _ _ _ 2.i.i.i.i.d.s.p.p.s.s.d.s.s.s.n.n.s.s.h.z.z.c.h.z.x.x.z.z.z.x.z.z.z.x.x.x.x.x.z.z.z.n.h.z.s.s.z.n.s.s.p.i.i.i.d.d.d.i.7.7.i.i.i.i.i.i.i.p.s.s.s.z.x.x.x.c.A.G.F.F.F.F.G.G.S.S.F.S.F.q.8 F.U.U.}.U.I.I.I.aXI.I.I.L.A.V.h.p., o 1 _ qXwXI.P.I.qXwXqXqXI.U.qXB   s.K.A.A.M.M.N.M.v.v.z.h.z.k.s.s.d.k.p.s.h.6 _ ( , I B     S U O K.0 o I o   + 6 _ , , J L O +   L B 6 9 ! O +     J q 6 J B O 8 H., O L V.c.D ^ ^ W O V.z.  B , `       J I O o 8 J O   o L 0 O , B B O   9 I       J 8   O I 6   O , P + , 8 L ",
".   + 7 * . 6 + .   o + o 6 7 +   . . + q o + 6     . * .     * 1 +   8 6     0   0   s.J o , , 6 O _ s.O , S _ 6 0 o     . 0 8 8 0 o   @   6 J 6 8 0       o 0 6 : 0     c U   J 0     + J 0 6 8 ` 6 J ` ^ _ ^ ^ ` _ _ _ _ _ 7.i.d.d.p.a.h.A.^   ` x.k.k.x.x.c.v.v.M.M.S.hXd.0   J h.x.M.A.S.F.H.H.H.H.H.F.F.F.S.S.U.9 L z.n.x.x.z.z.x.z.s.z.c.z.x.z.h.h.z.n.s.s.d.d.i._ _ _ ` _ ` ( ( ( ( ( ^ ^ ^ ^ ^ ^ ^ ( ` ` ` _ _ _ _ _ 7.i.7.q.i.i.i.i.d.i.d.p.i._ _ i.i.i.i.i.e.7.i.i.i.d.i.i.i.i.i.i.i.p.q.i.i.7.q.i.q.7.7._ _ ` _ ) ( _ ` ` ( ( ` ( ( ^ ^ ^ ^ ^ ^ ^ ^ ^ ^ ^ ^ ^ ^ ^ ^ ` ` jX_ 0 ^ ^ ^ ^ ^ ^ ^ ^ ^ ^ ^ ^ ( ^ ` ` ( ` _ ( ( ` ` _ _ _ _ 7.7.7.q.i.i.i.i.d.d.p.s.a.p.p.s.p.s.s.s.s.d.p.s.p.a.s.s.s.a.s.s.i.p.s.p.i.i.i.a.d.d.d.d.p.p.p.p.p.d.i.i.i.i.i.d.i.i.7.i.i.i._ _ 7.7._ _ _ _ _ _ ` _ ` ` _ jX_ x.p.7.d.7.7._ _ _ _ ` ` ` ` ` ` ` ` ` ` ` ` ` ` _ ` _ _ _ _ 7.i.i.7.i.i.p.s.s.s.s.s.s.s.z.z.z.x.x.z.x.x.x.c.x.x.x.M.v.v.M.M.c.x.v.c.x.x.c.v.x.x.x.x.v.v.c.v.v.v.x.x.z.h.h.s.a.p.p.p.d.i.i.i.i.i.d.p.p.p.p.p.s.s.s.b.x.x.x.x.M.A.D.M.S.F.F.F.H.H.H.H.S.H.p.8 F.I.K.U.K.I.I.I.tXqXqXtXI.H.H.c.s.1 , , _ qXqXwXwXwXwXI.I.P.I.I.qX0   p.U.D.S.M.A.M.M.v.v.x.z.x.z.h.h.s.h.p.x.B I p., J E , X X B E   S.L + 0 g .   ^ 8   O O S   + 0 I   O   B 6 + + 0 8 o   , S O 8 J.O O D V.N.L ~ ^ E O A.x.  J 6 ^ O O o O ^ I 6 ` 6     + 3 ^ 0 J E   +     L 9 + q E   o   8 8   O J 0   + X P ",
"+ . + 7 . .   8 o   6 6     . 1 .   o 0 o   o 1 .     1 6 * * 6   .   o q +   0   0   s.J o , , 6 O _ h.O + S 7.O , +     o +     o 0       0 +     8 6     6 8     + 8   J I   J 0     O q J 0 , J 7.o ^ ^ _ ^ ^ ` _ _ _ _ i.i.7.i.s.s.p.a.A.(   ( x.z.z.x.x.c.x.c.A.A.F.jXs.q   J h.M.F.K.K.H.K.P.H.H.K.K.H.H.F.F.qX8 L z.s.z.z.x.c.x.x.c.v.c.x.c.c.x.z.s.s.s.s.p.p.d.i.7._ ` ` ( ( ( ` ` ( ( ^ ( ( ( ( ( ` ` ( ` _ _ _ _ 7.i.i.q.i.d.p.i.i.p.d.i.d.s.s.s.s.d.d.p.p.i.e.i.p.p.i.i.d.i.i.i.i.p.i.i.p.a.p.i.p.i.i.7.7.7.7.7.7.7._ ` ( ^ ^ ( ( ( ^ ^ ^ ^ ^ ^ ^ ^ ^ ^ ^ ^ ^ ^ ( ( ` _ jX_ B ` ^ ^ ^ ^ ^ ( ( ( ( ` ` _ ` ` ` _ _ _ _ _ _ _ 7.i.i.i.7.i.i.p.p.p.d.d.i.d.p.s.s.s.s.s.s.s.s.s.s.s.s.s.s.s.s.s.s.s.s.s.s.s.s.s.s.s.s.s.p.d.d.d.d.p.p.p.d.s.p.p.p.p.p.p.p.d.i.i.i.i.i.i.i.7.i.i.i.q._ _ _ _ _ _ i.jXi.c.s.7.d.i.i._ _ _ _ _ _ _ _ _ _ _ _ _ _ ` ` ` ` ` _ _ _ _ 7.i.i.i.i.i.d.d.s.s.s.p.s.d.s.s.n.z.z.z.b.x.v.M.A.v.c.v.M.x.z.x.v.v.x.x.v.c.x.v.v.c.x.z.z.x.x.x.x.x.z.k.k.z.k.s.s.h.s.i.a.d.i.i.i.i.i.i.i.i.p.s.s.s.s.s.x.x.x.x.M.A.A.A.F.H.K.Y.F.G.S.A.S.A.K.a.8 F.rXL.H.K.I.I.I.tXtXrXP.L.P.K.v.p.O + + 7.aXqXwXtXqXP.K.H.J.K.qXaXZ o i.U.F.F.S.S.C.M.v.v.v.v.v.x.z.z.h.s.x.E 0 7.1 I P L 8 O   B I + v.B   + / U ` /   + O   J _ I ^ 8     + , ^ 0 I I   O   + B 0 I D.O O D M.M.P ^ ^ E O S.x.  J 6 (       o ^ J 8 U 0   O   S ( 8 J I , O O   P E J ^ q   + + O _ ` B E + O ,   B ",
": * * * . . . : 7 * 8 :       1 + . q q   @   + + . . : 8 + : :   o   . q 7 + 0   0 O s.L + 3 , 6 O 7.z.o + J 7.  + 0 + + q +       q + + q 0       o 8 + 7 q +     @ g . U Y   U 0   O + q 0 0 J w ^ J 6 ^ ! ` ( ` ` ` _ R.i.i.i.e.p.s.h.k.A.(   ( z.z.x.v.c.v.N.v.A.A.F.hXs.8   J z.V.H.P.P.K.P.wXI.P.I.P.K.P.H.H.qX3 P c.k.z.x.M.A.M.v.V.V.M.M.M.v.c.z.h.h.h.h.s.a.p.i.i.i._ _ _ _ _ _ _ ) ( ( ( ` _ _ _ _ _ _ _ _ 7.7.q.i.i.i.i.p.d.a.p.p.p.a.p.a.s.h.h.h.s.a.a.a.p.p.a.a.a.p.a.a.a.a.a.a.a.p.a.a.a.s.s.p.p.p.i.i.p.p.i.7.i._ ` ` ( ` ` ` ` ` ( ^ ( ` ` ` ^ ( ( ( ( ( ` ` _ _ e.jX_ J 7.( _ _ ( ( _ _ _ _ _ 7.7.7.7.7.7.7.e.7.e.i.i.i.p.p.p.i.p.p.a.s.s.a.p.s.s.h.h.h.h.z.x.k.k.k.k.z.z.z.z.z.k.h.h.k.h.h.z.z.k.h.h.z.z.z.k.z.k.k.k.k.h.h.h.h.h.h.h.h.g.g.s.d.d.d.p.p.p.p.p.p.i.i.p.p.i.q.7.i.7.i.d.p.jX7.v.s.i.p.i.p.e.e.7.7.7.7.7.7.7.7.7.7.7._ _ 7.7.7.7.7.7.7.i.i.i.i.p.s.s.h.h.h.h.h.s.z.h.z.x.x.z.x.x.x.v.v.M.A.M.M.S.A.M.M.V.A.S.V.V.c.c.c.N.M.M.M.v.M.M.M.M.M.v.v.v.h.k.h.g.g.h.s.p.s.a.p.p.i.i.i.i.i.p.a.a.h.k.k.z.h.z.x.c.A.H.H.J.J.H.K.K.K.H.K.P.S.D.K.p.8 H.rXI.I.qXtXtXqXqXqXwXL.L.P.D.V.s., , , e.aXqXwXtXwXP.rXqXI.P.qXsXZ . s.K.S.F.D.S.M.V.c.c.c.c.z.z.k.h.h.x.7.O p.P B E J J 0     I I O S.I   0 / * q J ,     O J 0 8 8 J       L ( B 6 0       + ^ E L H.O O L C.M.W ( ^ E O S.c.  J , ^       J E   O   J o     ^ 8     0 J     0 E 1   o J o     U U O   L 0 O   O I ",
"+ q q . . . @ @ 7 7 6 @       + 6 + q . @ @   : o @ o + +   . + .     o 7   o J   0 o s.L + 3 , 8 O 7.z.O 3 J _   + L 6 + J 6   o   6 J q g + o   o . 0 Z J q . @ .   6 q U U   I J     1 J 0 J B 0 + _ 8 q _ ` ` ` ` ` _ i.i.i.a.p.a.s.h.h.A.(   ( x.z.x.M.M.M.A.M.A.M.F.hXs.0   U v.A.D.H.P.P.P.rXrXqXrXI.K.P.H.K.tX3 E V.v.v.M.V.V.V.A.V.A.S.A.V.v.v.c.x.x.c.h.s.s.s.p.p.i.7.p.i.i.e.7.7._ _ _ ` ` ( _ _ _ _ q.7.7.7.i.i.p.i.i.a.s.s.s.h.h.s.h.h.h.s.a.s.h.s.h.h.h.a.s.k.k.h.h.h.h.h.k.k.k.h.h.h.s.s.h.h.s.g.s.p.p.s.s.i.e.p.7._ _ _ 7.e.e.7.` ( ( ` _ _ ` ^ ` ` _ _ _ 7.7.7.7.p.jX_ J 7.( _ _ _ _ 7.7.7.7.7.7.e.i.i.e.i.i.p.i.i.p.p.p.p.p.p.s.s.s.s.s.s.s.s.h.k.z.z.k.h.k.x.x.z.z.z.x.x.x.x.M.x.z.x.v.v.c.x.x.x.x.x.z.z.z.z.z.z.x.x.x.x.z.k.x.z.z.h.h.h.z.z.h.h.h.s.s.s.s.s.s.p.p.p.p.p.p.d.p.i.p.s.s.jX7.v.z.p.s.p.s.p.p.i.i.e.e.i.i.e.e.i.i.e.7.e.i.p.p.i.i.i.i.p.a.s.s.s.p.a.h.h.z.z.z.z.z.k.x.c.x.x.v.v.v.M.M.A.A.M.M.S.M.S.S.V.M.M.M.M.M.c.c.M.V.A.V.V.v.v.N.M.M.v.v.M.v.z.h.z.h.s.h.x.p.p.p.p.p.p.a.s.h.h.h.s.h.k.z.x.x.N.M.M.A.S.H.H.P.P.U.I.I.I.qXaXI.I.P.e.9 K.I.I.I.I.I.tXtXqXaXrXP.K.H.M.M.h., O 6 7.qXtXwXwXwXrXwXtXqXK.U.aX0   x.U.A.F.D.A.N.V.A.M.c.c.z.x.x.k.c.a.+ p._ 0 ^ I B L 0 +   J ^ + S.0 7 ^ * .   q ^ 8 6 ^ U     O L 8 6 8 I 6   o q E , o 0 L X L K., O P C.N.P ( ^ E O F.v.  J + _ I J 0 J o O o + J U 6 ^ I   + o O 6 U J ^ 0   O o 0 B 8 8 I ,     , E , 6 B ^ ",
"1 + 7 + . . o 7 +   o 6 o     6 +   o 6       8 6 + 8 8       : 8   o q       0   B O s.L + 3 , 8 + i.z.O , S i.  , 8     , +     + 0 6   6 6       + J o w q o       0 + I I   ^ J     , 0 0 B 0 L 8 6 p.8 9 s.7._ _ i.e.7.p.7.p.p.s.k.h.h.F.^ . ` x.l.N.x.v.v.A.S.S.J.H.fXz.0   L z.M.F.K.wXwXqXqXqXqXqXqXqXI.I.P.aX9 L S.M.A.V.S.S.A.S.S.D.H.D.M.M.V.c.c.M.x.x.k.k.k.a.a.a.a.i.e.r.r.r.e.e.e.i.7.7.i.i.7.7.7.i.i.i.p.p.p.p.s.g.h.h.a.s.h.z.h.z.x.c.c.x.h.k.x.h.h.x.x.h.a.h.x.c.x.x.x.h.h.x.x.z.k.k.k.k.k.h.s.h.h.p.r.p.p.i.p.p.i.q.7._ _ _ _ 7.7._ _ _ ` _ 7._ _ _ _ 7.7.7._ e.i.jXe.B i.( 7._ _ _ _ 7.7.7.7.7.e.i.i.i.i.p.p.p.i.i.p.p.p.s.s.s.s.h.h.h.k.z.x.z.x.x.x.x.v.v.v.v.M.M.v.v.v.v.v.v.v.v.v.v.x.v.M.x.x.z.x.x.x.x.x.x.x.x.z.z.z.x.x.z.z.z.z.h.z.x.z.x.z.z.z.h.h.h.h.s.h.s.s.a.s.s.p.h.p.p.p.h.lX_ v.x.h.s.s.s.p.p.p.p.p.p.i.i.p.p.p.i.i.i.i.i.p.i.i.p.p.p.p.p.a.s.s.k.z.z.z.z.z.x.x.x.c.x.v.A.M.M.S.A.A.A.S.F.D.S.S.D.D.S.S.A.A.S.S.V.V.S.S.A.V.V.S.A.V.M.M.V.V.M.N.c.x.x.k.k.a.k.k.a.a.g.h.g.h.h.h.h.h.k.h.k.x.c.c.M.M.c.A.H.H.K.I.I.I.P.wXP.wXI.I.rXqXK.a.3 H.I.rXtXtXaXaXaXtXtXtXqXwXP.S.c.h.+ O 8 i.I.aXaXI.rXI.UXrXqXP.I.sXJ . x.K.A.A.S.A.C.C.V.M.c.c.c.x.k.c.M.9 S x.O ! E L L L 0 O   J ! + F.0 ^ ,       o ^ U J ` 6 O o   q ^ J U J     , O L ^ 0 ! + , L I., O E M.c.E ( ) E X S.k.  J O a.J 6 0 J   O     I J 0 J B O + + + L J B ^ B   O X J ( I L ^ X O O O L L P I , ",
"      6 6 1 6 1 . .   1 6 o 6 * o     + 6   + 6 o     8 +     o 6 w 8 6       8   B O s.L + 3 3 8 + i.z.+ , S i.+ 6 O       q 8 + 6 0   .   0 6 + + 8 :     + 0   o 6 6   I I   ^ J     , 0 0 B B , I 3 B _ X ^ 7._ ) 7.7.7.i.i.a.p.a.h.h.z.F.` . ` x.l.N.x.A.G.H.S.A.J.P.jXc.0   L x.M.D.H.I.qXI.wXqXqXqXqXwXI.I.K.aX9 L S.N.V.M.A.S.S.S.S.S.S.J.S.D.D.V.M.V.c.c.x.x.k.h.h.h.a.a.p.p.p.i.e.e.e.e.7.7.e.e.7.7.7.i.7.7.i.p.p.a.s.a.k.x.k.h.k.x.x.k.k.x.x.c.c.N.M.c.x.k.k.x.c.c.k.x.k.x.x.x.N.c.h.c.c.c.x.k.k.k.k.k.k.h.s.h.s.a.a.p.p.p.i.q.q.7.7.i.q.7.7.7.7.7.7.7.7.7.7.7.7.7.7.i.i.lXi.B p._ i.7.7.7.7.e.i.i.i.i.i.i.i.i.i.i.i.p.p.a.a.p.p.s.h.h.h.z.z.z.z.z.z.z.x.x.x.c.v.v.v.x.v.M.M.v.M.M.v.A.M.M.M.M.v.v.v.v.v.M.M.v.x.x.v.v.v.v.v.v.v.v.c.x.x.c.c.x.x.x.h.z.z.z.k.h.h.s.s.h.s.p.p.s.h.s.i.h.a.p.p.s.lX7.M.z.h.p.s.s.a.p.p.p.p.p.p.p.p.p.p.i.p.p.p.p.p.p.p.a.s.s.h.h.h.h.h.z.z.z.x.x.x.v.v.v.N.v.N.V.A.M.M.S.S.D.S.S.F.F.F.D.D.D.D.D.J.H.H.A.S.S.S.S.S.D.D.S.S.S.S.S.D.S.A.M.c.c.c.k.k.h.h.h.h.h.h.a.a.p.a.g.k.x.x.x.c.N.N.c.V.A.D.H.D.K.I.qXtXqXI.P.qXqXK.tXI.K.a.8 L.qXI.wXqXtXaXsXaXqXqXaXrXP.M.x.h., + 6 i.aXdXaXqXtXtXI.I.wXwXP.aXJ   z.U.F.J.D.V.V.C.V.N.c.x.k.x.c.V._ X h.3 E E B P L L 0 O   J ^ + K.B   ^ 6   + 8 ^   O 0 J o + o U 8   + _ ,     o L 6   0 0   L I., X P V.c.E ) ( E O S.k.  L , 7.+ O   0 I     8 ^   X O ^ 6   O P L X   L J O + O E ,     ! , O   + E , , , J ",
".     q 0 6 8 1   .   6 0 6 0 +       + 8 6 0 8 . .   + + o o w +     + 6     0   B O s.J o 6 6 8 + _ z.+ , J i.6 0         J J 6 c + o     + J q 8 q       o 0 6 6 B +   E E   ^ J     , B B B 0 B B B 6 ( J 3 7.e._ 7.i.e.p.d.a.a.s.h.h.h.F.`   ` x.N.C.C.A.v.M.v.c.S.P.jXM.0   L v.A.F.H.U.qXI.qXtXtXqXqXqXqXI.P.aX9 L A.c.M.V.S.D.D.J.D.S.A.S.S.J.S.M.M.M.x.c.c.x.k.h.k.h.p.h.a.p.p.p.i.e.e.i.7.e.i.i.e.i.i.p.i.i.p.p.s.s.h.g.k.x.x.x.x.c.x.M.N.c.c.c.c.c.x.N.c.c.x.x.c.N.x.x.M.V.N.k.l.c.x.c.c.x.z.k.k.k.z.k.k.h.s.h.s.p.p.s.a.p.p.p.i.i.i.p.e.7.7.e.7.7.7.7.7.e.e.e.e.e.i.p.i.lXp.B p.i.i.7.e.i.i.i.i.p.p.p.p.p.p.p.a.a.p.h.a.p.a.s.h.h.h.h.z.x.x.x.x.x.z.z.x.v.v.v.v.v.v.v.M.M.M.M.M.V.V.S.S.A.A.S.S.S.A.A.A.M.A.A.A.M.v.M.M.M.M.M.M.M.v.M.v.v.c.z.x.x.x.x.x.x.x.z.z.k.h.z.z.h.h.h.h.h.h.h.h.h.s.h.xXi.M.x.k.h.h.h.h.s.s.s.s.a.p.p.s.a.p.p.p.p.p.p.p.a.s.s.h.h.z.z.z.z.z.z.z.z.x.c.v.v.M.A.S.S.S.A.S.F.A.D.H.H.H.H.H.K.H.K.K.K.H.H.D.D.D.H.K.H.D.D.J.H.H.D.D.D.S.A.S.V.c.M.c.x.c.x.c.k.k.k.k.k.h.h.h.h.h.k.k.k.k.x.c.N.N.x.M.S.H.J.J.P.I.qXI.qXqXtXaXaXqXK.H.F.a.3 P.tXI.qXqXtXaXsXaXqXI.rXI.H.M.c.k., + 8 i.aXtXqXwXI.P.aXwXI.P.P.aXI   x.U.F.F.F.D.S.V.A.M.M.N.x.c.v.x., ` E S E E L P P P B X   J ^ , K.B   0 0 , 0 I J   o + J 8 + 0 I O   O 0 0 6 o ^ 8     , J , S wX3 X L S.N.E ( ^ E , S.k.  J 6 ^     O + _ J q ) + O + O 0 ! 8 E _ O   ,   3 L , S E   +   8 L + O I B   O + ^ ",
"  . . 6 +   + +       + + o * o       : + 6 6 6   @   o 6 6 6 q         0 6 + 0   B O s.J O 3 6 8 + _ h.+ , J _ + 8 o       0 6   8 8   o   6 q o 8 J X     o c 6 6 0 ,   I I   ^ J     , B B B B B 9 S 8 E _ O 7.i.7.7.p.i.i.d.i.d.h.k.j.s.F._   _ M.N.N.N.M.A.M.A.S.H.K.hXM.8   P v.A.S.J.K.I.qXqXtXtXtXtXtXtXqXI.sXB P A.c.M.V.S.S.S.J.H.D.D.D.D.H.D.V.V.V.M.c.c.c.k.h.k.k.p.h.a.p.p.a.p.p.p.i.i.p.p.p.i.p.p.p.s.h.s.a.a.h.k.k.k.k.x.c.M.c.x.c.c.c.M.M.M.c.x.c.c.M.c.x.x.c.c.c.c.c.c.c.M.M.M.v.v.v.c.c.c.c.c.x.x.k.h.h.h.a.a.s.s.p.p.p.p.p.p.a.p.i.p.p.i.i.i.e.i.i.i.i.e.i.i.p.i.lXp.B s.i.i.i.p.p.p.p.p.p.p.s.p.p.p.s.s.s.s.h.s.a.s.h.z.z.h.z.z.x.z.x.x.x.x.c.v.M.M.M.v.v.M.A.A.V.M.M.A.A.S.M.A.A.M.A.A.A.A.S.A.M.M.A.A.A.M.M.M.M.M.M.M.M.M.M.M.M.v.x.x.v.v.v.c.v.v.v.x.x.z.z.z.z.h.h.h.h.h.h.h.k.h.z.xXi.M.M.x.z.z.k.h.h.h.h.h.s.s.s.s.s.a.s.s.s.s.s.a.s.s.h.h.h.h.z.x.x.c.v.v.v.v.M.V.V.M.V.A.F.S.M.A.H.J.S.F.H.H.H.H.H.H.H.H.H.H.H.H.H.H.H.K.H.D.S.D.D.S.D.J.D.S.S.D.S.V.V.N.x.c.x.c.x.x.h.k.k.k.k.k.x.x.x.k.h.k.x.N.N.c.M.V.S.H.H.P.qXI.aXqXtXaXsXqXqXP.F.F.P.k.6 I.sXtXaXtXqXtXaXaXqXqXI.L.H.V.c.k., + 6 i.sXtXqXaXtXqXwXI.qXwXL.I.^ o x.U.D.S.D.D.S.M.V.M.V.M.x.x.x.e.O a.B ( L P P P L L B X   L ^ + K.J , + I 0 L ^   o +   I ! B _ J   ,   O ^ J J ^ o O o   B J 0 P.3 O L S.c.W ( ( ^ , S.z.  J 3 ` +   O   J J 6 L ^       O 7.L 0 J , , ,   a.7.B _ E   +   O 7.I 0 i.6   ,   B ",
"  . 6 +       * .   * + .     * +     8 o     6 .     6 8 o @ 8 @ .     0 6 + q   B O s.J O 3 3 8 , _ h.+ 3 J ^   + q O + q +       0   o + 0     + q 6     6 q     o 8   L I   E S     , 0 0 B B 0 B 0 0 E _ O ( 7.7.7.p.i.i.i.2.d.g.z.l.h.F.2.  I 7.8.8.7.r.x.c.S.H.H.H.fXA.0   L v.M.A.H.K.I.I.I.qXtXaXaXaXaXtXwXfXB P A.c.M.N.V.V.A.D.H.H.K.K.H.H.H.D.S.S.A.c.v.M.c.z.x.x.h.h.a.p.a.a.a.p.p.i.i.p.p.i.i.p.p.p.a.s.s.s.s.h.h.x.k.k.k.c.N.c.x.c.c.c.M.V.M.N.N.M.x.c.N.N.M.M.N.M.N.M.M.V.V.M.V.V.V.V.M.M.c.c.z.x.x.k.k.k.k.s.s.s.s.s.a.p.p.p.p.p.p.p.p.p.p.i.p.i.i.i.i.i.i.i.i.p.i.xXp.B s.p.i.i.p.p.p.p.p.p.p.s.s.p.p.a.s.s.p.a.h.h.h.h.h.z.x.z.z.x.x.x.c.v.c.v.v.M.M.M.M.M.V.S.A.A.A.A.A.S.S.A.S.S.A.M.A.A.M.A.S.S.S.M.M.V.A.M.M.M.M.M.M.V.A.v.v.M.A.M.M.M.v.x.x.x.x.x.x.x.z.x.z.h.h.z.z.k.h.h.h.h.h.h.xX7.M.v.x.z.z.h.h.h.h.h.h.s.s.s.h.h.s.s.s.s.s.h.h.s.s.h.h.h.k.z.x.x.v.c.c.c.v.M.M.M.M.A.A.S.F.S.S.H.H.H.H.H.P.P.H.H.H.D.J.H.H.H.K.K.P.H.K.H.D.D.H.H.J.J.H.H.D.D.D.D.S.S.M.M.c.c.x.x.k.k.k.h.h.h.k.k.k.k.k.x.c.N.M.M.M.A.S.D.K.P.I.aXwXqXqXaXwXqXI.P.A.F.F.P.h., P.tXI.aXaXtXtXaXaXqXqXqXI.K.V.c.h., , , i.kXaXqXaXtXtXwXC.x.l.c.A.I   n.U.H.D.S.V.A.A.V.c.M.x.x.x.c._ 6 7.E E P L E L L L 0 X   L ^ + F.0   B J + , q 0 + O   U ,   + U 6 +   J L   + B B     O U B S H., O L V.c.P ( ( ^ , S.x.  S + ` 8     0 8   O O P 6 + + P ,     0 L     6 _     + I , O O S ! , + B B   O X L ",
"+ + q +   o . + 0 + q 1       6 8 + 0 : o     o + : o 6 +     + +     + 8     0   B O s.J o 6 , 6 , ) h., 6 L (     J 6 q J +       : 0 o U 8         0 8 0 J         0 , E I   I B     3 B 0 B 8 L 9 B 0 E 7.  ^ _ _ e.p.i.p.i.i.d.p.j.x.x.G.R.  + 1 1 N B 4 S z.M.A.S.D.sXF.B O J x.M.S.K.U.qXqXqXqXtXaXaXtXtXtXqXfXB P S.c.M.M.V.S.S.H.H.H.H.K.H.H.K.K.D.V.V.M.M.M.v.x.x.c.x.s.a.a.a.a.a.a.p.p.p.p.p.i.i.p.p.p.p.p.p.h.z.k.h.k.x.x.x.x.x.c.N.M.M.M.V.M.M.N.M.M.x.x.M.V.V.V.V.S.S.S.S.A.N.M.S.M.M.M.M.M.M.c.z.x.x.z.k.x.l.h.h.s.s.h.h.h.s.a.p.p.p.p.p.p.i.i.p.i.i.p.i.i.i.i.p.p.p.xXp.S h.p.i.i.p.p.p.p.p.a.s.s.a.p.a.s.h.h.h.p.s.h.h.h.h.z.z.z.x.x.x.c.v.v.x.c.v.v.M.M.M.V.A.A.A.A.S.S.S.A.A.S.D.F.D.S.S.S.S.A.S.F.F.S.S.S.S.A.A.A.S.S.A.A.A.v.v.v.M.v.v.v.c.x.x.x.x.x.x.x.x.x.x.z.x.x.x.z.z.x.h.k.h.h.lXi.S.x.x.z.h.h.h.k.z.s.s.h.h.h.h.s.a.s.s.s.h.h.k.h.h.h.h.z.x.x.x.c.x.c.c.v.M.M.V.A.A.D.S.S.H.K.K.K.H.U.K.K.U.I.P.U.I.P.P.P.P.K.K.H.H.K.K.K.H.K.P.K.H.H.H.H.D.S.S.A.V.M.N.M.c.c.x.x.h.k.k.k.h.h.k.k.k.k.x.c.c.x.c.V.D.V.D.K.P.I.I.tXqXtXtXaXaXsXaXtXI.I.P.I.k.8 qXaXqXtXtXtXaXsXaXqXqXwXP.K.A.c.h., , 6 i.aXqXqXaXqXH.9 9 J c 0 J 1 X d.Y.D.D.D.S.S.A.A.N.N.c.c.c.V.7.+ a.L E P P ! S L L 0 X   L ^ O F.0 0 E + O o O ^ 0 8 E S   O   6 0 + J E 6   O + 0   O J 0 X 9 S., O P M.N.W 8.^ ^ O S.c.  S + I J 8 J ( + + + O 0 B 0 P S O   O , I 8 P ( ,   +   B I 6 B I ,   O O E J + J E ",
"o o + o     . o 1 . 6 1 . .   + o + q +         6 6 6 3       o + + 6 6     o 8   S O s.J + 6 , 6 + ( z., , U 7.  + 8 o + 8 6   .   8 c 6 8 8 o     6 J 6 q 0   o     8 , ^ I   I B     6 B B B 0 B J B 9 ( ^   ( _ 7.i.i.i.a.i.i.s.p.j.x.h.A.`   : s d s 7 O S M.A.A.S.D.aXS.0 O L v.M.S.P.U.qXtXqXtXtXtXtXqXtXtXqXfXB E S.M.A.V.D.J.H.H.H.H.H.P.P.P.P.P.H.S.A.V.M.M.M.c.x.c.x.h.h.s.a.a.a.p.a.p.p.p.p.p.p.a.a.a.a.p.p.s.z.z.z.k.x.c.c.c.c.M.M.M.N.M.V.V.V.V.S.M.N.M.V.M.M.A.S.D.S.N.M.D.D.S.S.V.V.V.V.A.V.V.V.v.M.c.c.v.c.x.x.h.h.h.h.h.s.s.s.s.a.a.s.s.p.p.a.p.p.p.p.p.p.p.p.a.s.xXi.J h.p.p.p.p.p.p.s.s.s.s.a.a.s.s.h.h.h.k.h.h.h.h.z.x.z.h.x.x.x.c.v.M.v.v.v.v.v.M.A.A.A.A.A.V.A.S.S.S.A.A.A.A.A.S.S.S.S.S.S.S.S.S.F.H.F.S.S.S.S.S.S.S.A.A.A.v.v.v.v.v.M.v.M.v.v.v.v.v.v.x.k.z.x.x.z.h.h.z.x.z.z.k.h.lXi.F.M.c.z.k.k.z.z.z.s.h.h.h.h.h.s.s.s.s.h.h.h.k.k.k.k.k.x.c.c.v.v.v.V.V.S.S.D.D.D.D.S.D.D.D.H.K.K.H.K.H.H.K.P.I.I.I.P.P.I.I.I.P.P.P.K.H.H.H.H.H.H.H.H.H.H.H.H.D.D.D.N.c.c.c.c.c.c.k.x.k.k.k.k.x.x.x.x.x.x.x.x.c.V.D.V.H.K.I.wXI.qXtXsXtXtXsXaXtXqXqXI.L.I.s.8 I.tXtXqXtXaXsXsXaXtXtXI.P.K.S.M.k.+ + 6 e.I.I.tXaXtXH.9 0 K v v f - o s.H.S.D.H.F.S.M.M.N.N.x.v.z.c.` O p.P P W E L P L L 0     L ( O F.q I 0       o E 0 q _ 0   o O 0 L 0 ^ U + o O   0 I I ( 8   S D., X E c.M.E 8.^ ^ O S.c.  S , ^ B 0 U E   ,     L I 9 L (   , X O ^ L B I 6 +     8 _ I ^ I   +     I ( P 7.E ",
". .   + o   * 6     + 6 +   + 6       8 +     6 +   + 8 @     o 0 + + q       8   S o s.L + 6 , 8 + ( x., O J i.  q 6     O q o   6 J       0 +     q 6   @ 8 6     6 3   L L   ! S     6 B B B J 8 B B B I ( O _ 7.7.i.7.i.s.i.e.s.g.k.z.s.S.2.  . . # # #   J M.v.M.S.S.I.A.0 O L M.M.S.H.H.U.wXqXqXtXtXqXtXaXaXqXfXB E D.M.S.V.D.J.H.H.K.P.P.K.P.P.H.K.H.D.S.S.M.v.M.c.c.c.x.k.k.h.s.a.p.p.p.p.p.p.p.p.s.s.s.s.h.h.s.p.s.h.z.x.x.x.c.M.V.V.M.N.N.M.V.S.S.V.V.A.S.S.V.M.V.S.A.M.S.S.S.D.S.V.V.D.D.S.A.V.V.V.A.M.M.c.x.c.c.x.x.z.z.h.s.s.s.s.h.s.p.p.p.a.p.p.p.p.p.p.p.p.p.a.p.a.s.lX7.S h.i.a.p.p.p.p.s.s.s.s.s.h.h.h.s.s.s.s.s.h.z.z.z.x.x.z.x.x.x.x.v.M.M.M.M.v.M.A.S.A.A.A.S.A.A.A.S.A.A.S.S.A.A.S.S.S.A.S.S.S.S.A.V.A.A.A.F.S.A.A.A.A.V.M.A.M.M.A.A.A.A.M.M.M.v.v.v.v.c.x.x.z.z.x.x.x.z.z.h.s.z.z.h.jX7.F.A.v.x.k.z.z.h.s.z.z.k.h.s.h.h.h.s.h.h.h.h.h.k.z.k.z.x.x.c.M.V.V.V.V.S.S.S.S.S.D.S.P.K.F.H.P.U.I.P.I.I.P.I.qXqXP.K.P.I.I.I.I.P.P.P.K.H.K.P.P.P.P.K.H.H.K.H.S.V.V.A.V.c.M.c.M.c.x.x.x.k.k.x.x.x.x.c.x.x.M.S.S.M.N.D.K.K.I.tXtXaXsXfXfXsXsXtXgXsXaXI.I.rXk.8 I.tXsXaXaXsXaXaXtXaXsXaXwXK.V.c.h., , 6 a.tXI.P.H.I.J.8 % # # $ # . , h.L.F.F.D.V.A.A.V.M.M.x.M.k.M.e., p.L ! P L P P L P 0     L ( + K.B   0 J     q U     B E O   O ^ , O   ^ 6     3 S ,   + J X J H.3 O ! x.M.E ) ( ( O A.c.  B 3 _ O     J J     8 I O   X L 0     L E     8 L O   , I 8     I 6 +   , I O O X B ",
"      8 6 6 0 +       + 6 + q 6         6 + q 6       o +     6 o     6 w   o q O S O s.J + 6 3 6 , ( k.+ , S s.6 J O O     0 J 0 0 +       + 0 6 q q         J 0 6 0 +   L I   ( J     3 B B 0 B B B B B ! ( O ) _ 7.7.7.e.p.a.a.a.h.k.z.z.A.s.. . l O.O.X.. J x.M.M.M.S.aXS.0 O E x.A.S.K.P.I.I.tXaXtXaXsXsXaXsXtXfXS E S.M.V.J.H.K.K.K.K.K.P.P.wXI.K.H.H.H.K.V.V.V.M.c.c.c.c.M.k.s.k.h.s.a.a.h.s.a.a.p.p.p.a.s.s.s.s.s.h.z.x.k.x.c.c.c.M.V.V.M.V.V.A.V.V.V.V.S.S.S.S.A.V.V.V.S.H.H.D.D.S.S.H.D.S.A.V.V.V.V.V.M.M.M.v.c.c.x.z.x.z.h.h.k.k.h.s.s.s.a.a.a.p.p.p.p.p.p.a.p.p.p.p.z.p.xXe.B h.i.s.a.a.s.s.s.a.s.h.s.s.h.h.h.s.h.h.z.h.h.h.h.z.x.v.x.x.x.x.v.v.M.M.M.M.M.M.M.M.A.A.M.A.A.A.A.A.A.A.A.S.S.A.A.A.A.S.D.S.A.A.A.S.A.M.S.S.S.S.A.A.S.A.M.A.A.v.M.A.M.x.v.v.v.v.M.M.v.x.v.x.x.z.x.x.x.z.z.z.z.h.k.jX7.H.A.x.z.x.z.z.z.h.h.s.h.s.s.h.s.s.h.h.h.h.h.z.z.z.c.x.c.M.V.M.V.S.A.S.S.H.K.D.F.L.K.K.P.I.P.P.P.I.P.wXI.I.wXP.K.tXI.P.I.P.K.P.I.P.qXI.P.H.H.K.P.K.K.H.K.H.P.H.D.V.D.M.M.M.c.c.c.x.k.x.x.c.x.k.c.M.x.c.N.N.M.M.V.V.K.H.H.P.wXtXaXsXaXaXsXsXaXsXgXsXtXtXI.k.9 I.aXaXsXgXsXaXaXaXaXaXaXI.K.V.c.h., + 6 p.tXP.P.P.P.K.0 % :.o.&.a . , z.U.F.Y.S.S.C.M.M.M.c.c.x.z.c.e.+ r.P ! E E E W L I J     J ( , H.0   6 E q q ^ 8   O + J B , U !       0 J + 8 _ 6   +   0 6 0 P., O P V.c.E 7.) ( O C.c.  B 8 ( +   O o L I J 7., O +   6 L 0 E P ,   O O 0 B 8 E L   O O , P O 0 ) B O O   8 ",
"    . 6 + o 6 +       6 6 o 6 8       : 8 w 8 q .     o q q q +         8   + 0 O S O s.J o 3 3 8 , ) z.+ 3 J i.o 8   O     8 8 6 6 8       6 J 0 8 q   + . o q J 8 q +   U I   ^ J     3 B B B B B B B B ! ( O _ 7.e.i.i.p.p.a.g.g.g.h.s.n.v.s.  % :.3.3.4.# g c.A.A.M.S.sXH.8 + E z.M.S.K.U.qXaXqXtXsXsXtXqXaXaXtXfXS E D.V.A.D.H.K.H.P.qXI.K.P.qXqXI.P.K.H.H.D.D.S.A.V.M.c.x.c.k.s.k.h.h.h.s.s.a.a.s.s.a.p.a.s.s.h.h.h.k.z.z.x.c.c.N.M.M.V.V.D.S.A.V.M.M.M.V.A.S.S.S.A.V.A.S.S.J.H.H.H.D.D.D.H.F.D.D.D.S.V.M.A.S.V.M.c.c.c.v.z.z.z.z.z.k.h.h.s.s.s.s.s.s.s.s.s.s.s.s.h.h.s.s.h.p.xXi.B h.i.s.p.p.s.h.s.s.s.s.h.s.s.s.s.s.h.z.h.h.k.z.z.z.z.z.x.x.x.v.v.v.v.v.M.M.M.M.M.A.A.S.A.A.A.A.A.A.A.S.A.S.S.S.S.S.S.S.F.D.S.S.S.S.S.A.A.A.S.A.M.A.A.M.A.M.M.A.M.M.v.M.M.M.M.v.v.x.v.v.x.x.x.x.x.x.z.z.x.z.x.z.x.jX7.H.A.v.z.z.z.z.z.k.z.h.z.h.h.z.h.z.h.h.k.z.z.z.x.x.c.x.x.c.c.c.M.V.S.S.V.S.K.L.K.L.P.K.K.K.K.K.I.wXtXI.qXtXwXI.I.K.qXI.I.I.P.P.P.I.P.P.P.P.I.P.K.H.P.K.J.D.D.D.S.S.V.M.M.N.x.x.c.c.x.x.x.c.x.x.c.N.N.M.M.N.c.M.S.H.H.K.K.P.I.aXaXtXfXsXsXaXqXqXqXI.rXqXI.k.9 I.aXtXaXaXtXaXaXsXtXwXqXL.H.M.x.s., + 8 i.rXqXqXP.L.U.q u _._.`.&.# + v.P.G.Y.S.S.C.C.C.V.M.c.c.x.c.7., p.P E E E W P I I S     L ( , K.J     I 8 L ^   +     0 ` L _ 0   6   O ( I 0 ` O + 3 + 6 L ! P., O P V.c.E 8.8.( > S.c.  S 6 (   O     I J + 0 B   O O 3 7.L J L 8   O   I I J _ B   + +   ( 7.8 L X O + O 0 ",
"  . + 6     @ 6 o     6 +     6       6 o     :       6 8 o 6 6         0 6 6 q   S o s.J o 3 3 8 , ) z.+ 6 J _   8 8     q q     + 0 .   o 0 +   @ 0 6     6 0     o 6   U I   ^ J     , B B B B B B B B ! ( O 7.7.e.i.p.p.p.p.g.g.g.s.n.n.v.p.. $ &.1.!.&.# J x.A.A.M.A.sXH.6 X E x.M.S.H.H.I.I.I.qXaXaXaXaXaXtXqXfXS E S.V.A.S.D.H.H.P.wXI.P.H.P.I.P.I.I.P.P.H.D.S.A.A.V.c.x.v.x.l.l.l.x.z.h.h.s.s.s.s.a.p.a.s.s.h.h.h.h.k.k.c.c.M.M.M.M.V.V.A.A.A.A.C.V.V.V.S.S.S.S.A.A.S.S.A.S.J.H.D.S.S.S.D.D.D.D.D.S.V.M.V.A.A.V.c.c.c.c.x.x.x.k.k.h.h.h.h.h.s.a.a.a.a.a.s.s.s.s.s.s.s.s.h.p.lXi.B h.i.a.p.p.s.s.s.s.s.s.s.s.s.h.h.h.h.h.h.h.z.z.x.x.x.x.x.x.x.v.M.v.v.v.M.M.M.M.M.M.A.A.A.A.A.A.A.A.S.S.S.A.S.S.S.F.S.S.D.D.D.S.S.S.S.S.S.S.D.S.A.S.S.A.A.M.M.V.M.v.v.M.M.M.M.v.x.x.x.v.x.x.x.x.x.z.z.z.x.z.x.k.x.jX7.F.A.x.x.x.x.z.h.h.z.h.z.h.h.z.h.z.h.s.h.z.z.h.h.x.c.c.c.c.c.M.V.A.S.D.A.V.F.K.H.H.P.P.P.P.I.I.wXwXtXI.qXtXqXI.qXP.tXI.I.qXI.P.P.I.P.I.I.I.I.I.I.P.P.P.H.H.S.J.S.S.S.S.V.M.M.N.N.V.c.x.x.x.c.x.c.c.M.M.M.M.V.S.D.S.K.P.I.I.tXsXsXtXaXaXsXsXaXaXtXqXI.I.P.k.B I.dXdXaXsXsXsXaXaXaXaXI.K.D.M.k.s., + 6 p.qXP.P.P.K.F.q r _.!._.@.# + v.L.A.Y.G.S.C.Z.M.N.c.x.x.x.c.7., a.E E P E E P I L B O   L _ + H.B   J 6     0 B     + ^ +     J 6     J S     0 J   O + I + L K., , P C.N.E 8.) ( , S.x.  J , _ 8     L B     , L O O X ^ 8     9 L   O 8 E O X   P 8     B J O   0 L +     I ",
"6 6 q :     X 8 8 6 8 6     . : + o 6 8       o o   o 8       6 o     + J     B   B o s.J O , 6 8 + ( h.O 6 J (   + 0 8 6 0 6     . 6 ] q q q       + 0 6 8 0 +     O 8 + I E   ^ J     3 B B B B B B B 0 E ^   7.7.e.i.p.p.p.p.a.g.h.k.z.z.v.p.  $ @.E.E.&.# Z z.N.M.M.V.sXH.6   E x.v.S.F.F.U.I.qXqXqXqXtXtXqXqXqXfXD E A.M.A.S.S.D.K.K.H.K.I.I.wXI.P.P.P.K.H.K.D.A.V.V.V.M.c.c.x.l.k.h.k.k.a.k.h.s.s.s.a.s.s.s.s.s.h.h.h.z.x.c.c.c.c.c.M.M.V.M.M.V.S.S.S.S.S.S.S.S.S.S.S.S.S.S.D.H.K.S.S.H.H.D.S.S.S.S.S.V.V.V.V.V.V.M.c.c.x.c.c.x.z.k.h.h.k.k.h.h.s.a.a.p.p.s.s.a.p.p.p.a.a.h.p.jXe.0 h.p.p.h.s.p.s.s.s.s.h.s.h.h.h.h.h.h.h.h.h.h.k.z.z.x.x.x.x.x.x.v.v.v.v.M.M.M.M.v.M.M.M.M.A.A.A.A.A.A.S.S.A.A.S.S.S.S.A.S.S.S.A.A.A.A.A.A.V.A.A.M.A.A.M.M.V.V.v.v.M.M.v.M.v.x.c.v.v.x.z.x.x.x.x.x.z.x.x.x.h.k.s.z.jX7.F.A.x.x.x.z.z.k.h.h.h.h.h.h.h.s.h.z.k.k.z.k.h.z.x.k.x.c.c.M.V.A.A.A.D.F.D.F.F.F.H.H.K.P.P.P.P.P.K.I.qXwXI.qXI.P.tXwXP.I.I.P.P.P.I.P.P.P.K.H.K.P.P.P.P.K.K.H.H.D.S.S.A.M.N.V.M.x.c.c.x.x.x.c.c.x.x.M.c.c.M.S.D.S.V.J.H.P.qXaXaXsXgXsXsXfXfXsXaXtXqXrXrXI.x.B I.tXtXqXtXaXaXtXtXaXsXwXP.H.M.z.a.+ O 8 s.tXK.P.I.P.F.7 r _.!._.=.# + x.K.A.Y.F.S.C.C.V.M.c.c.v.c.M.e., p.E E P E E P I L B O   L _ + F.0 ^ ( O + + + L 6 8 E J   + O 0 J 6 L ^   + O 3 0 + 6 L L O J H., O W C.N.E ( ( ^ , S.z.  J + U I 0 J U + 6 o , 6 E 9 I (   O , O L 0 9 E 0 O +   J L 6 B E +   O   E 6 O J ^ ",
"+ 6 8 o     o : 6 + 6 6     . : 6 + q q     . + 6 o 6 8   o   o 6 o + 6 +     8   B o s.J O 3 6 6 O ( h.O 8 J (   O q 6 , 8 +       w 0 8 q q   @   o q 8 ] 0   o     6 + I E   ^ J     6 B 0 0 B B B B 0 E ^   7.7.i.i.i.p.p.a.p.g.h.z.z.z.M.a.  $ =.W.E.*.$ Z x.x.v.M.A.aXH.8 O E z.z.A.S.H.qXqXwXqXtXtXqXqXqXtXwXfXL E V.N.S.D.D.H.K.K.K.P.I.I.qXwXI.I.I.K.K.K.H.S.V.V.M.v.c.x.z.k.h.s.k.k.a.h.s.s.s.s.s.s.h.s.s.s.s.h.k.x.x.x.c.c.c.c.N.M.M.V.V.V.V.V.V.S.S.S.S.V.V.S.S.S.S.D.S.H.H.D.D.K.H.D.D.D.D.S.S.A.A.D.S.V.M.M.M.M.v.c.c.x.z.z.z.k.k.h.h.s.s.a.a.a.a.h.h.s.s.s.s.s.s.h.a.jXi.B h.p.p.s.a.p.p.s.s.s.h.h.h.s.s.s.h.h.z.h.h.h.h.h.h.k.z.x.x.z.x.x.x.v.M.v.v.v.M.M.M.M.M.M.M.M.M.A.A.A.A.A.A.A.A.S.S.A.A.A.A.A.A.A.A.A.M.M.M.M.M.M.M.M.M.M.M.M.v.v.M.v.x.v.x.x.v.v.v.x.z.x.x.x.x.z.z.x.x.x.h.k.h.x.jX7.F.A.c.z.z.h.h.z.z.h.s.h.h.h.z.h.h.k.z.z.k.h.z.x.x.z.c.M.M.V.A.D.D.S.D.K.K.K.K.K.I.P.I.I.P.I.wXqXI.I.tXqXI.I.P.P.tXP.P.I.I.P.P.I.P.K.P.P.P.K.K.K.K.P.K.K.J.J.S.S.S.V.V.c.c.M.c.k.x.c.x.x.x.x.c.c.x.c.c.M.M.M.M.S.D.H.K.I.tXaXtXtXsXfXsXaXaXtXtXtXqXI.I.I.x.B I.tXtXaXtXqXtXsXaXqXI.wXP.H.M.k.a.+ O 6 7.K.H.K.H.H.H.1 e _.!._.=.# o k.K.G.Y.F.J.D.C.C.M.N.c.c.c.M.e.+ p.P I P E E P I J B O   J _ , F.8 J U   O O   ^ U 0 ^ 6 O O   B I 0 J I   6 O   J U 8 ` 0   S H., > P V.N.E ( ( ^ , S.l.  J + L U 0 0 J O + o O S P 8 J I , , O   I E L E ,     O B L E ! E     ,   J I B ) 3 ",
"  . o o   o + +     @ 6 o   @ 6     o 6 @     + +   + 8   +   + : 6 8 +     o 6   B O s.J O 3 3 6 + ( h.+ 6 J _   6 6     8 q     + q     o q o . o q o     6 +     O 3   J I   ! J     6 B B B 0 B B B B ! (   _ 7.e.i.i.i.p.a.a.a.h.h.n.n.M.a.. $ @.W.E.*.$ J x.z.c.V.M.aXF.9 O I z.z.A.S.H.I.K.P.I.I.qXtXaXtXtXwXfXL ! A.M.S.S.H.H.H.K.I.I.P.H.P.I.I.wXwXP.P.F.D.D.A.V.M.c.c.x.x.x.k.k.l.z.k.h.s.s.s.s.a.p.a.p.a.s.h.h.k.z.x.k.x.c.c.M.M.M.N.M.M.V.V.V.V.V.V.A.V.V.V.A.S.S.A.S.A.S.D.J.H.H.S.S.D.D.D.D.S.A.A.S.A.V.M.M.V.M.c.c.c.x.z.k.k.k.h.a.s.s.a.a.a.a.s.s.s.s.s.s.s.h.h.s.p.jXi.B h.i.i.p.p.p.s.s.s.s.s.a.s.s.s.h.h.h.h.h.h.h.k.k.z.z.z.x.x.x.x.v.v.v.v.x.v.v.M.M.M.M.M.M.M.M.M.V.A.A.A.A.A.A.A.S.S.S.A.A.A.A.A.A.A.A.A.S.A.A.A.A.V.V.M.M.v.c.M.V.v.c.v.c.v.v.v.x.x.x.x.z.z.z.z.z.z.z.x.z.h.z.h.x.jX7.F.M.x.z.x.z.z.z.k.h.s.h.h.h.z.h.z.s.h.k.h.z.x.x.z.c.M.M.M.M.A.D.D.D.D.D.H.K.K.L.I.K.K.P.P.P.I.I.P.qXI.qXqXI.I.qXI.P.I.I.I.P.P.I.P.P.I.I.I.P.P.P.P.K.H.K.J.H.S.S.V.M.V.V.V.M.c.c.c.x.x.x.x.c.c.c.c.x.c.M.V.V.V.S.D.K.I.qXtXtXaXsXsXsXaXaXaXaXaXaXaXK.P.P.k.B I.sXdXfXsXaXaXaXaXqXI.L.K.D.c.k.a., + 6 i.I.K.P.P.K.H.q e _.!.!.=.# 6 h.K.G.G.S.S.S.C.M.c.c.x.x.x.c.7.O e.P E P E P P L J B O   J ( , K.B   J 6     0 J     + ^ o     I 8     I 8     q _ o   + J   P H., O L V.c.E ( ( ^ > S.x.  J , ( 3     B B   O 8 L       P 6   X B B   O 8 J O , O J , O   P 3 O   O L 9   6 I ",
".     8 8 6 q + .     6 8 + 8 8       + 6 o 6 6       + 6     8 +     o +     0   S O s.J + 3 6 6 + ( h., 6 J i., 8     O   8 8 8 6 8       6 0 6 6 q   o   + 0 + + 0 8   0 J   ^ J     6 B B 0 0 B B B B ^ (   _ _ 7.i.p.p.p.a.a.a.g.h.n.n.v.a.  $ @.W.W.*.# S x.z.v.A.M.qXF.9   L x.x.S.A.F.J.K.I.I.I.I.tXtXI.tXqXfXS E S.M.S.S.H.K.H.K.wXwXK.K.I.wXI.I.I.K.H.D.D.S.S.V.V.M.v.x.z.k.k.h.h.k.h.h.h.h.h.h.s.a.s.s.s.h.h.k.z.z.z.x.x.c.N.M.M.M.M.c.M.C.S.S.S.A.V.V.V.A.A.A.A.S.S.D.D.D.J.K.K.H.D.S.S.D.D.D.S.S.A.V.V.V.V.V.M.c.x.c.c.x.x.k.k.h.h.h.h.h.s.a.a.a.a.s.s.a.a.s.s.s.s.s.p.hXi.0 h.p.p.p.p.s.h.h.s.s.s.p.s.s.h.h.z.h.s.h.h.k.z.z.z.x.x.z.z.x.c.v.v.c.v.x.v.v.M.M.M.M.M.M.M.M.M.V.A.A.A.A.A.A.A.A.A.A.A.V.A.A.A.A.A.A.A.A.M.M.A.M.M.M.M.M.v.v.M.M.v.c.M.v.v.v.c.x.x.x.c.z.z.z.x.x.x.z.z.z.h.x.k.x.jX7.F.v.z.x.v.x.z.k.h.h.s.h.h.h.z.h.h.h.h.z.x.x.v.v.x.c.c.c.c.c.M.V.A.H.H.D.D.K.L.K.K.P.P.I.qXqXqXwXI.wXP.qXtXwXqXtXI.wXI.qXwXP.P.I.I.P.P.P.P.K.P.P.P.K.K.K.K.H.D.S.V.V.M.V.V.M.c.c.c.x.c.c.c.c.c.N.c.c.c.M.S.D.D.D.S.S.H.P.wXtXsXfXfXsXaXsXfXsXsXaXtXI.qXI.k.B qXaXqXaXtXtXtXtXqXtXaXK.J.D.c.h.a., + , p.qXH.H.K.H.A.q t _.!.!.#.# * z.H.A.G.A.S.S.A.M.M.N.c.c.x.M.r., r.P E P P P P L L B     J ( , S.J O + ^ 6 J ^ 6 O O   I J q I B       8 ^ L 6 U +   , 3 U 0 S H., O L V.c.E ) ( ^ O S.c.  B 6 !   O     ^ L 6 ^ 3   O + 8 L 0 8 L ,   + + J 0 , 8 B + O + 8 ! + 8 L 8   O O 0 ",
"      8 6 o 6 o       o 6 6 q o         8 8 0 6         8   q 8         0 6 + 0   S O s.L + 6 6 6 + ( h., 3 B d.q B     o   8 8 6 6 o   o o o 8 8 8 6   o o   g S 6 0 +   J U   ` L     3 B 0 0 B B B B B ^ (   _ 7.7.p.s.s.s.a.i.a.g.z.x.b.v.d.. $ @.E.E.&.% L v.x.M.A.M.tXH.0 O L z.x.S.S.K.K.wXP.I.tXaXqXqXtXqXtXhXB E S.V.M.S.H.P.P.P.P.I.P.P.wXwXI.I.I.P.P.L.K.D.S.A.V.V.M.M.c.x.x.k.h.k.h.h.s.s.h.h.h.k.z.k.z.z.z.z.x.x.x.c.c.c.c.c.M.V.V.M.V.V.S.S.S.S.S.V.S.D.S.A.V.S.S.S.H.H.D.H.D.D.H.K.K.H.F.D.S.D.D.S.S.A.V.M.M.M.M.k.x.c.c.x.x.x.c.k.k.k.h.h.h.h.h.h.h.h.s.s.s.s.s.z.h.hXe.0 z.s.s.a.s.h.h.h.s.s.s.h.h.h.s.h.z.z.h.h.h.h.h.h.h.k.z.z.z.z.x.x.x.v.v.c.v.v.M.M.M.M.M.A.V.M.M.V.A.A.A.A.S.A.A.A.A.A.A.M.M.A.A.V.V.A.A.A.M.M.V.M.M.M.M.v.M.M.v.v.v.v.v.v.v.x.c.v.v.c.x.z.z.x.x.x.x.x.z.x.z.x.k.z.jX7.H.M.x.z.z.z.k.z.z.h.h.h.h.h.k.s.h.z.h.h.z.x.x.x.x.c.M.V.V.V.S.S.D.H.L.L.K.L.I.P.L.wXI.P.I.I.I.wXqXI.tXqXwXrXwXI.qXqXI.wXqXI.P.P.I.P.I.I.P.P.P.P.K.P.P.H.H.D.H.D.D.D.V.V.V.M.M.M.c.c.N.M.c.c.c.N.c.M.M.V.A.A.S.J.K.qXI.wXaXsXaXaXsXsXaXaXsXsXsXsXaXI.I.I.k.S aXgXtXsXaXaXaXsXtXqXI.K.H.D.c.h.a., + 6 e.I.K.P.H.H.H.Z t _.!.!.#.# 6 x.K.A.F.D.S.S.S.V.M.M.c.x.k.c.e.3 e.P ! E P L P L L 0   O L ( , U.B   6 ^ J B ^ +   + o 0 ^ B E B , O   + J B J J + + O   0 P I H., O L M.M.! ) ) ( O S.N.  B 6 ^       O E J 8 ^ 9 O O   8 _ B P E O O + O 9 7.J L ^   , O + E ! B I , + O X 8 ",
"    + +       6     o w X   o o     O 8 ,   + +       + q   + 8         6 6 o 0 O B , a.L + 6 , 8 , ( h.+ 6 B i.  , +     , 8 o     6   O   8 6 O O , +     6 8     + 6   J L   _ J     3 0 0 0 B B 0 B 0 ^ E O 7.e.i.e.e.p.s.h.s.h.s.x.z.h.v.d.. $ @.E.*.&.# L v.v.x.v.v.I.S.0 X E x.c.M.V.S.H.P.I.I.I.qXtXtXtXaXqXfXS ! V.M.V.D.S.S.H.P.P.I.qXqXI.I.qXI.I.I.P.I.H.D.S.S.S.V.M.c.M.N.c.x.x.x.k.k.k.k.k.h.h.h.h.k.h.k.k.k.k.k.x.c.c.c.N.M.M.c.M.D.S.A.S.S.S.S.D.D.S.S.S.D.D.D.D.D.J.D.H.S.S.S.H.D.K.P.H.S.S.S.D.S.V.V.S.S.V.V.V.A.M.c.x.z.z.z.k.z.z.h.h.s.s.s.s.s.s.s.a.p.p.a.s.h.k.fXi.B s.p.p.h.a.p.s.s.s.a.s.s.s.s.s.s.s.h.h.h.s.s.h.z.z.h.h.z.z.x.x.x.x.x.x.v.v.v.v.v.N.N.v.M.M.M.M.A.A.A.M.M.A.A.A.M.M.V.A.V.A.A.V.M.M.M.M.A.V.M.M.M.M.M.v.v.M.M.M.M.M.M.M.v.x.x.x.x.x.z.z.z.z.x.x.z.z.x.x.x.x.z.z.v.jX_ H.M.x.x.x.z.z.h.x.k.k.h.h.k.k.k.k.h.l.x.x.x.c.M.M.M.M.V.A.A.S.S.D.H.S.D.K.K.K.P.P.I.I.qXI.I.qXqXtXtXtXaXtXqXtXI.I.I.I.I.P.I.wXI.P.I.I.qXI.K.K.I.I.P.P.H.H.H.H.K.H.D.V.V.M.M.M.c.c.N.c.c.c.c.c.c.M.M.V.A.S.S.D.H.H.I.qXtXaXaXaXsXfXfXqXgXjXtXaXfXwXtXqXI.h.B tXaXqXqXaXsXsXtXqXqXqXP.K.D.N.h.g., , , s.qXH.H.S.H.D.0 t _.!._.&.# * c.K.S.F.G.A.S.C.C.V.M.c.c.x.M.p.3 7.E E E P P P P L B X   J ( + U.P   J 8     0 0   O + L , O O P 8 + O L 6     9 8 O + , P   P H.3 X P M.N.! ) ( ^ > C.k.  S , _ +     J J   O O L O O O I 8   X 0 6   , 6 P , O + 0 X O X 8 J + X 8 8 O O   L ",
": + q o     @ 6 6 + 0 6     . 8 6 + 3 6       6 ,   o 8 ,     6 +     + O o O 0   B , a.L + 6 3 6 , _ h.+ 8 J `   + 0 3 + 0 8   o O 8 + + 6 0 o   O 6 0 + + 0 ,     O 8 O J I   7.L     , 0 0 0 B B 0 B 0 ^ ! O 7.e.i.i.e.i.p.a.h.h.s.h.h.h.A.n.. $ =.W.W.&.# L z.M.x.v.A.qXS.B X W x.c.M.S.D.H.K.P.I.I.I.wXqXtXtXqXfXS ! V.M.V.J.H.H.K.P.P.I.wXqXI.I.qXI.I.P.K.K.H.D.D.S.V.M.N.M.c.x.x.x.x.h.a.a.g.h.h.h.g.h.h.h.h.k.x.k.k.k.k.x.c.c.c.M.M.M.V.M.V.S.S.D.S.S.V.S.S.S.S.D.D.D.S.H.H.S.H.H.K.H.K.K.K.H.J.J.H.D.S.D.S.V.A.V.M.N.M.M.v.x.z.z.z.k.h.h.h.s.s.s.s.h.h.s.s.s.s.s.p.p.s.h.k.fXi.J h.p.a.a.p.a.s.s.s.s.h.s.s.s.s.s.s.s.s.h.h.h.h.z.h.h.k.k.h.h.k.x.c.x.x.v.v.v.v.v.v.v.v.M.M.M.M.A.A.A.A.A.A.A.A.V.V.A.A.M.M.M.M.v.v.v.M.A.A.M.M.M.v.v.v.v.v.v.v.v.v.c.x.v.x.x.v.c.x.x.x.x.z.z.z.h.h.h.h.h.h.h.h.x.hX_ F.A.c.x.k.z.z.h.z.k.h.h.h.h.h.h.a.k.h.h.c.c.k.x.N.M.M.M.V.V.A.S.D.H.H.P.I.P.K.P.P.P.P.qXI.I.tXqXtXU.qXaXqXI.I.I.I.qXwXI.P.P.I.I.I.wXP.K.P.P.P.P.K.I.P.H.H.D.A.M.x.M.M.A.M.N.N.c.M.V.M.c.c.c.c.c.N.c.M.V.S.D.J.H.H.I.qXtXaXgXfXfXfXjXjXsXqXsXfXaXaXtXI.I.z.B aXsXaXaXaXaXaXtXqXqXwXI.H.M.l.g.h.O X 8 p.I.P.U.H.F.D.0 t _.!._.@.# * c.U.A.F.F.S.S.V.M.M.M.N.c.x.v.e.6 e.I I E E P P P L B X   L ( , U.E J J o   O + ( 8 J P 8   , X B 8 + B 7.,   , , ! 9 + i.S   L F., X P M.N.~ ) ) ~ > C.l.  S , I q B q I   , O + B J 0 E 8   +   , J 0 3 ^ 8   O O 8 , + 0 ! ,   X + P , + , E ",
"6 o 8 +       8 q o 8 o   o   6 8 , 8 8       6 6 , q 6   o   + 8 o , 0       q   B , a.J + 6 6 6 3 _ h.+ 6 I E O   0 B 8 0 w   O   o I 8 L 8   +   + J q q J   X     8 8 ^ ^   i.J     , B B 0 B B B B 0 ^ ! + e.i.p.p.p.a.s.a.a.a.s.k.h.h.M.d.. $ =.W.W.&.# L h.M.x.v.S.aXS.0 X P k.x.M.S.D.H.H.P.P.I.qXqXqXtXqXqXfXL ! V.M.V.S.J.K.K.K.P.I.I.I.I.I.I.qXI.P.P.P.K.K.H.D.S.V.M.M.M.c.c.x.k.h.k.h.h.k.k.k.h.k.k.h.h.h.k.k.k.k.x.x.c.c.c.M.V.V.S.C.S.A.M.V.S.J.D.S.S.S.D.D.D.D.D.H.J.S.D.J.K.H.H.P.K.D.D.D.D.S.V.J.S.S.S.A.V.M.V.V.M.v.c.x.x.x.z.k.k.h.h.h.h.h.h.s.s.h.h.h.s.a.s.h.h.fXi.J h.p.s.p.a.s.s.a.s.s.h.h.h.h.s.s.s.s.s.h.h.k.k.h.h.h.z.h.z.z.z.z.z.x.x.c.c.c.c.v.c.c.x.c.c.v.v.v.v.v.v.A.M.M.M.A.A.A.M.A.A.A.A.V.M.M.M.V.A.M.M.v.v.c.c.v.v.v.c.c.v.x.x.v.v.x.x.x.x.x.x.v.x.z.z.h.k.z.k.z.k.h.k.v.jX_ F.A.v.x.h.z.x.z.h.x.k.k.k.x.x.x.k.k.k.x.x.x.x.c.c.M.M.M.V.A.S.D.H.H.K.K.P.I.I.P.P.I.wXtXwXI.qXI.I.aXaXsXaXtXaXtXqXqXqXwXI.I.I.I.wXP.P.I.qXP.K.K.P.P.P.H.H.H.D.D.A.M.V.S.M.N.M.c.M.V.N.c.c.c.c.c.c.M.M.A.S.D.H.K.K.I.qXqXtXsXfXfXgXhXhXfXaXsXfXhXsXrXI.I.c.B tXgXsXsXaXtXtXtXqXqXwXI.K.S.c.g.g., , 6 a.aXH.K.K.F.A.0 t _.W._.@.# * c.Y.V.S.S.A.C.N.M.M.M.M.c.c.M.i.8 e.P P P E P P L L B X   U _ , tXL 6 L   o     ^ L B ^ B O   X B E B B ^ O O O X _ L 0 I 8 + L F., X P N.N.! ) 8.( > C.l.  L , _ E J B ^ 6   O   L L 9 I E O O + , ^ P 0 ( B O +   8 s.J L L O   O 6 B L P 7.0 ",
"      + o   o 6     : o X X   8     + + o     + 8   o 8 o     8 6   6 B o     0   B , a.J O 3 6 6 , _ h.+ + I I   + 6 O   6 6     O 0 o   + B +     + 8 O O 8 +     O 8 O L E   _ J     , 0 B 0 0 B B B 0 E E + _ 7.7.i.p.p.p.p.a.s.s.h.h.s.v.n.. $ =.W.W.&.# L h.v.x.x.M.qXD.0   L h.k.c.M.S.D.H.K.K.P.qXtXqXI.wXwXgXL E M.M.V.V.D.H.H.H.P.I.I.I.qXI.P.wXI.P.P.P.H.D.S.V.M.M.M.M.M.N.c.x.h.k.c.k.h.h.h.h.h.g.h.h.h.h.h.h.k.x.c.x.c.c.c.M.V.V.V.V.C.A.V.A.S.D.S.S.S.S.A.A.A.S.S.S.J.J.D.S.S.S.S.H.H.J.D.S.S.S.S.D.S.S.S.S.V.V.A.V.v.x.x.z.z.z.z.x.z.z.k.h.h.s.s.s.s.s.s.s.s.s.s.s.h.fX7.B h.p.p.p.s.s.a.p.s.s.s.s.s.s.s.s.s.s.s.s.h.h.h.h.s.h.k.h.z.x.x.z.k.z.x.x.x.x.x.c.x.x.x.N.M.M.M.M.M.M.M.M.M.M.M.V.A.M.M.M.M.M.M.M.M.M.M.M.M.M.M.v.v.v.v.v.v.v.v.v.v.v.x.v.v.x.x.x.x.z.z.x.z.z.z.k.z.x.x.x.x.z.z.c.jX( F.M.v.x.z.x.x.k.h.k.k.h.h.h.k.x.x.k.x.c.x.c.N.M.c.M.M.V.A.S.D.J.H.H.K.J.D.P.I.P.P.P.P.qXI.I.qXqXqXqXI.wXI.wXtXI.P.I.P.P.P.K.H.K.P.qXP.P.P.I.P.P.H.K.P.H.D.S.V.D.D.S.V.V.c.c.M.N.c.M.c.c.c.c.c.c.c.M.M.M.V.A.D.H.K.qXaXaXaXsXhXfXfXjXaXhXjXtXtXgXqXqXK.P.c.B qXsXaXsXaXtXtXtXqXwXI.H.D.C.c.h.a.O , , a.aXF.S.H.F.S.0 t _.W._.@.# * x.F.V.S.S.A.S.V.V.M.M.c.c.x.M.p.8 7.P P P P P P L P B X   P _ , U.L   L 6   , J B   O 9 ^     8 ( 0   + I B O   , I + O , J   J F., X P N.c.E ) ) ~ > C.k.  S 3 ! 6     0 U   X 6 I ,     ( 9 O X S J O   B E     + L 0 X   P B O   O I B , 9 J ",
"  o   + 6 o 8 @       + 6 + + 6       o 6 O 8 8 O     + 8   o q o   o o ,   + 0   0 , p.J O 3 3 8 , ) h.+ O I ^ O 0 +       6 w o 6 0   +   8 + + + 8 +     + q   + 6 6   L I   ( J     , 0 0 0 0 B B B 8 E E + _ _ 7.7.i.p.p.p.h.h.s.g.g.s.A.b.  $ =.W.E.&.# L h.x.x.v.v.qXH.8   L k.k.c.M.A.D.H.K.H.K.I.I.P.K.I.I.sXL E M.N.V.S.D.H.H.K.P.P.P.P.wXI.P.I.I.K.H.K.D.S.S.V.V.M.c.M.x.k.x.x.x.k.k.h.h.h.h.h.a.g.g.h.h.h.h.h.k.k.x.k.c.c.x.c.M.M.M.V.M.V.A.S.A.A.S.S.S.S.S.A.S.S.S.S.J.H.D.S.S.D.D.S.D.J.J.D.D.D.H.D.S.S.S.A.V.M.M.M.v.v.x.x.z.z.k.h.h.h.h.h.s.s.s.s.a.a.s.s.s.s.s.s.h.sX7.B h.p.p.p.s.s.p.s.s.s.p.p.a.a.s.s.s.s.s.s.h.h.h.h.h.h.h.z.h.h.h.x.x.x.z.z.x.x.x.c.c.x.x.v.v.v.v.N.N.v.v.M.M.M.M.M.M.M.M.v.v.v.v.v.v.v.v.v.v.v.v.v.c.v.v.x.x.v.v.c.x.x.v.x.x.x.x.x.x.z.z.z.h.z.z.h.h.k.h.h.h.h.h.x.hX( S.v.x.x.x.z.z.h.z.k.k.k.h.h.h.k.k.c.k.k.c.c.x.c.V.M.M.M.V.S.S.D.D.D.K.K.H.H.H.K.I.P.I.qXI.I.tXqXtXqXqXtXqXqXtXqXI.qXI.I.P.P.P.I.qXI.P.P.K.K.I.P.J.K.K.D.D.S.V.S.A.V.M.M.x.x.M.N.N.c.N.N.c.c.c.c.c.M.M.V.V.S.D.K.P.P.wXqXqXaXsXsXsXfXsXsXsXtXqXqXqXrXL.L.c.B qXsXqXtXtXtXtXtXqXwXP.K.S.N.x.h.h.> O , e.aXH.D.D.A.F.0 t _.!._.@.# 1 b.F.V.S.S.A.S.C.M.M.c.x.x.x.M.i.3 7.P P P L P P L P B X   P _ , F.L   , I 6 J ( +   O X B J L L 0   + , 6 E 0 S I ,   + O P , L S., X L c.x.W ) ( ~ , C.k.  S 3 E O     6 U E 6 ( B O O   9 L 8 9 E O O   O I 8 , B E     O 6 0 O 8 E B   O O 8 ",
"      6 6 + q + .     + 8 : 6 + o     + 8 o q 8   O     8 6 8 +         q 6 3 0   0 + p.J O , , 8 + ( h., , I _ 6 0   O +   8 J L 0   O   O + J 8 6 8 O   , + q 6 3 6 ,   ^ E   ^ S     , 9 0 0 0 B 0 B 8 E E + 7.7.7.i.p.p.a.s.p.a.s.h.h.s.M.n.  $ =.W.E.&.# J h.h.x.M.x.qXK.8   L k.x.c.M.S.J.D.K.P.P.I.I.I.wXI.wXsXL E V.M.S.S.D.H.H.P.P.P.P.P.I.I.I.qXqXP.K.K.H.H.J.D.S.S.M.c.c.x.c.c.x.k.h.k.h.h.k.k.h.h.k.h.h.h.k.k.k.k.k.k.x.c.c.M.M.M.V.S.V.M.A.A.V.A.S.S.S.S.S.S.D.S.S.S.S.J.D.H.H.H.H.D.D.D.H.H.J.D.D.D.D.S.S.S.A.V.M.M.M.v.v.v.v.x.z.h.h.h.h.s.s.s.s.h.s.s.s.s.s.s.h.s.h.sX7.B h.p.p.p.p.p.p.s.s.s.p.a.a.s.s.s.h.h.h.h.h.h.h.h.k.h.h.z.h.h.k.z.x.z.z.x.x.x.x.c.c.c.x.N.v.v.M.M.M.M.N.M.M.M.M.M.M.M.M.M.M.M.M.M.M.M.v.v.v.v.v.v.c.c.c.x.x.v.v.x.x.x.x.x.x.x.x.x.x.x.z.k.k.z.z.h.s.h.h.h.h.h.h.x.hX( S.v.z.z.z.h.h.s.x.k.k.x.x.z.k.k.z.x.k.k.x.c.c.c.v.N.N.M.V.S.S.S.D.J.H.H.K.P.P.P.P.qXqXtXwXI.qXqXqXqXqXqXwXqXaXqXwXP.P.P.P.P.P.P.P.H.P.I.K.H.P.I.P.H.H.D.H.H.J.S.M.V.M.V.c.x.c.c.M.x.c.N.c.c.c.N.M.M.V.A.S.J.K.P.I.I.qXaXsXfXfXfXfXsXhXsXtXgXfXtXtXtXI.P.c.S qXsXqXwXqXtXtXtXqXI.P.K.D.M.x.h.g., , , i.qXH.H.H.S.A.0 t _.!._.@.# 1 z.F.V.S.A.M.C.V.M.M.N.c.c.x.v.e., 7.P P P L L P L L B X   P _ , F.J   + I J 8 ^ 6 + O   B E B J 9   O   , _ B 8 P O O 6   L E J S., X L c.x.E ) ( ( , S.k.  J 3 ( +     , E 0 + L 6   O O 0 E 9 L P , + +   L ^ L P B   O ,   ! E 0 E ,   X + L ",
"      6 + . + 6     o :     + 6       , +   O + o     6 8 + + 6     O O 8 , + 0   0 + a.L + 3 , 8 , ( h.+ 6 J 7.  6 +     + 0 +   , 0       6 8   o 8 +     + 8   o , 6   J U   ` J     , 0 0 0 0 0 0 B 8 E E O _ _ 7.e.i.i.p.p.e.p.p.k.k.s.b.d.. $ =.W.E.&.# L h.h.z.v.v.qXH.8   L k.x.M.V.S.D.D.K.P.P.I.wXqXtXI.qXsXL E A.M.S.S.S.D.H.P.P.P.P.P.I.I.I.I.qXqXP.H.H.H.J.S.S.S.M.c.M.M.c.x.x.x.k.k.h.g.h.h.h.h.k.h.h.h.k.k.k.l.x.x.c.c.M.V.V.V.S.M.V.S.D.D.S.A.V.V.M.M.V.A.S.A.V.D.S.D.S.H.D.H.H.H.D.D.J.J.D.S.S.D.D.D.S.S.S.S.A.v.c.x.x.x.x.z.k.z.z.h.h.s.s.s.s.h.s.s.s.h.s.s.h.h.h.sX7.B h.p.p.p.p.p.s.s.s.a.s.s.s.s.h.h.h.h.h.h.h.h.h.h.h.h.h.h.z.x.z.k.h.z.x.x.x.x.x.x.c.c.x.x.x.x.x.x.x.x.c.M.v.M.M.M.M.M.v.M.v.v.v.v.v.c.x.v.v.v.v.v.v.c.x.v.x.x.v.x.x.x.x.z.x.x.x.x.x.x.z.z.z.z.z.k.k.z.k.z.z.z.h.x.hX( S.v.z.z.k.k.z.h.z.h.h.h.k.k.k.k.k.k.x.x.z.x.M.M.c.M.M.M.V.S.D.D.D.H.D.D.K.P.I.I.P.I.I.qXI.I.tXtXtXqXwXqXwXqXaXqXwXP.I.I.I.I.I.I.P.P.P.P.P.P.qXqXK.H.H.J.H.H.D.S.M.S.V.V.M.c.c.c.M.x.x.c.c.c.N.M.M.c.M.V.S.D.H.P.I.I.qXaXgXhXfXfXhXjXjXhXfXfXfXaXI.tXrXP.c.L qXgXtXqXtXtXtXqXwXP.P.J.S.M.x.p.i.O , O p.wXJ.H.H.F.M.0 t _.!._.@.# 1 s.D.M.A.A.M.C.M.M.M.M.N.c.x.v.7., 7.P P P P P P L L 0 X   L ) , S.J O J 6 3   J L     + 7.    6 P O   + S 0   X 3 B     9 E 6 0 S., X L c.x.! 8.( ~ > S.x.  J , ^ ,   O 0 ^   +   0 O   O E B O X 8 B     6 I 9   + L +   X 9 E +   8 ^ + O   J ",
"@   8 o   . . + +   + 6 .     o + O + 8   o   6 ,   o 6   o   + o   + , O   O B   0 + s.L + 6 , 8 , ( s.+ 8 B _   o 6 +   8 0     O , + o 6 8 O     6 8 o + 8 8       8 + J I   _ J     , 0 0 0 0 B 0 B 9 ! E O _ _ 7.i.p.p.p.a.a.a.p.g.g.a.b.d.. $ =.W.E.&.# L h.z.z.x.v.I.F.0   L h.x.M.V.S.S.J.H.H.H.P.I.I.I.I.wXaXL E A.N.A.D.S.D.K.P.P.P.I.qXwXI.P.H.P.I.K.H.H.H.D.A.A.S.V.V.M.x.k.x.c.c.h.x.k.h.k.k.h.h.h.h.h.h.h.k.k.x.c.x.x.c.N.V.M.M.A.V.S.V.M.M.S.S.S.D.S.V.V.S.S.S.S.H.S.D.S.D.C.S.D.S.D.J.H.D.S.S.D.D.S.S.A.V.V.M.M.M.M.x.x.z.z.x.x.z.k.h.h.s.s.s.s.p.p.p.p.a.a.a.s.h.h.sX7.B h.p.p.p.p.p.s.s.p.p.s.a.s.s.s.s.s.s.a.s.h.h.s.s.h.h.s.s.s.h.h.k.z.z.z.x.z.z.x.x.x.x.x.x.x.v.v.v.c.v.N.v.v.v.v.M.M.v.v.M.v.c.v.v.v.x.z.v.v.c.v.v.v.c.x.v.x.x.x.x.x.x.x.z.x.z.z.z.x.x.z.z.k.z.z.h.k.k.h.h.h.h.h.x.hX( S.v.z.z.k.x.v.x.k.x.k.h.s.k.k.k.h.k.h.k.c.M.c.c.M.M.M.M.V.S.D.J.H.H.D.H.P.H.H.P.I.I.I.qXI.I.qXwXqXP.I.tXqXI.I.I.qXqXqXI.P.K.P.I.I.K.P.qXI.P.K.P.P.D.K.H.H.H.D.K.K.V.c.M.M.V.M.c.M.c.c.c.x.x.c.N.N.V.V.A.S.D.K.P.wXtXtXaXgXhXfXfXjXhXfXfXfXfXsXaXsXqXtXI.x.L qXgXaXsXaXaXtXqXwXP.K.H.C.c.x.h.g.O O , i.P.H.H.A.S.A.q t !.E.!.@.# 1 h.D.M.A.S.A.S.V.M.N.c.c.c.z.c.7.3 7.L P P W P P P L 0 X   L ( , H.L + I +   + o S 6 8 ! B , , O 0 L 0 L ^ X X + , B 0 9 _ J   L S., O P c.x.! ) ( ^ > C.x.  S O U 8 6 8 U o + O , ^ L 6 S E O   X + 8 B 8 ^ J   O   B J , J E ,     6 E + O L I ",
"8 o 8 o   X   6 6 + q o       o 8 + 8 8   O   O 6 6 6 q   o     8 o 6 0       8   J O h.L O 6 , 8 + _ h.+ , J `     J 0 6 0 X X +   o 0 q J 6       O J B J 0 o X     8 8 0 I   i.U     3 0 0 B B B 0 B 8 E E + 7.7.7.7.i.p.p.p.a.h.g.a.h.s.M.d.. $ &.E.W.&.# L z.z.v.v.x.K.F.0   L h.k.c.M.V.D.D.J.K.P.P.K.P.qXP.wXfXL L V.N.V.V.D.H.H.H.K.I.qXI.P.I.P.qXwXI.K.H.J.D.D.S.V.M.M.V.M.c.c.c.x.k.k.k.h.h.h.k.h.h.h.h.h.h.k.h.h.k.x.x.k.x.c.x.c.M.c.S.S.S.S.S.S.V.S.V.D.D.V.M.V.S.S.D.S.D.D.S.A.S.H.P.H.D.S.D.D.J.J.D.S.D.S.S.V.V.V.M.c.x.x.x.z.h.h.h.h.h.s.s.s.s.s.p.s.s.s.s.a.p.p.h.p.fX7.B s.p.p.p.p.p.p.p.p.p.p.s.a.p.a.s.s.s.s.h.s.s.h.h.s.s.s.z.h.h.z.z.h.k.x.k.k.z.x.x.x.x.x.x.x.x.c.v.c.x.x.v.v.v.v.v.v.v.v.M.M.v.x.x.x.v.v.M.M.v.v.c.x.x.v.x.x.x.x.x.x.z.h.z.z.z.z.z.k.h.h.z.h.h.s.h.h.h.h.h.h.h.h.x.hX( A.M.x.h.k.k.k.k.h.k.k.k.k.k.k.k.k.k.x.x.z.x.c.M.v.M.M.V.S.D.D.D.H.D.K.P.K.H.K.K.K.I.P.I.qXqXwXI.wXaXtXwXI.I.qXwXI.I.P.I.qXP.P.P.K.wXI.P.P.P.P.P.P.P.P.P.D.H.A.S.S.V.M.M.M.N.c.c.c.M.x.x.N.V.M.M.N.V.A.A.V.S.H.I.qXtXaXsXsXfXfXfXhXjXsXjXfXaXaXtXaXaXI.I.k.S aXsXqXwXwXqXtXqXwXP.J.D.S.M.k.h.e., , , e.I.D.D.S.M.F.q t !.E._.&.# 1 b.D.A.A.A.M.M.M.M.c.c.x.x.k.z.7.6 7.P P P P P P L L 0     S _ , H.E 8 , + +   o I B B _ 8 O , + B E 0 I I O O , O L J B E 0   L S.+ O P N.c.W 8.( ^ > C.l.  B O ^ ! S 0 J     O   S ^ L J L X + + + L ( ( ( , + O X 6 ( J ^ S + O   O L L J 7.6 ",
"@   o 6 +   o q       8       8 O     , + O O + +     6 +     8 6 .   3 +     q   J O h.L O 6 , 8 + _ h.+ , J _   , q +   6 6     o B , + o 8 O     , q   o q 6     O 8 O U I   i.U     6 0 0 0 B B 0 B 8 E E + i.e.e.i.i.i.i.i.p.a.s.s.h.p.b.d.. $ &.E.W.&.# L a.s.z.c.v.U.F.8   L h.h.c.M.V.S.J.D.H.H.K.K.P.wXI.wXfXL P A.M.V.S.S.S.J.K.I.I.P.I.I.I.I.wXI.I.P.K.K.H.H.H.D.S.S.V.M.c.c.c.c.x.x.h.h.h.k.k.h.h.h.h.h.h.h.h.a.a.h.k.k.x.c.c.N.V.M.V.A.C.C.S.S.V.S.M.M.M.M.A.S.A.M.S.J.H.A.A.P.K.A.S.D.J.H.J.D.D.J.D.D.D.D.S.V.M.M.A.M.c.v.v.x.x.x.z.z.z.h.h.s.s.h.s.s.s.s.s.s.s.h.h.p.fX7.S h.p.a.p.a.a.a.s.s.s.s.s.s.s.s.s.s.s.s.h.s.s.h.h.s.s.s.s.h.h.h.h.k.h.h.x.z.k.z.z.x.x.v.c.x.x.c.c.c.x.c.v.v.v.v.c.x.x.c.x.v.v.c.x.v.v.x.x.x.c.v.v.x.x.x.x.x.x.x.x.x.x.x.z.x.x.x.x.x.z.z.x.z.h.h.k.z.k.h.z.z.z.h.z.hX( S.M.z.h.z.z.k.h.h.k.k.k.h.h.h.h.a.x.x.z.x.c.c.c.v.M.M.A.S.D.D.D.H.D.H.K.H.H.K.P.K.I.I.qXqXqXqXqXqXqXqXwXI.qXqXqXI.I.P.P.P.K.P.I.K.I.P.I.qXqXP.K.P.H.K.H.J.S.A.M.M.D.V.N.N.M.M.c.x.c.c.c.c.M.V.M.N.c.M.A.S.J.K.P.I.tXtXtXaXgXfXfXfXjXfXfXgXsXfXsXqXrXI.I.c.B tXsXqXfXsXaXqXP.P.P.H.D.S.M.k.h.e.O O , 7.qXF.F.F.A.A.8 e !.E.!.&.# 1 x.D.V.A.A.A.S.C.M.c.c.x.c.x.x.p.6 7.U P P L P P P L B X   S _ , K.L   J ,     0 ^ O   O J O   O E +   O B 8   O B 0     + J O 9 D.+ X P c.c.W ) ) ^ , C.l.  S , I 6   + I J O   O B     , ( , O   I S     O L + O + J 0   O ! + + O , I , X 6 P ",
"      6 6 + 8 +       6 8 6 6 8       , 0 o , 8     O O 8 O + 0 o       8 o O 0   J O h.L O 6 , 8 + ) h.+ , J _   8 o       8 + o , 8 o     6 6 + O 8 +     1 8 + O 8 6   I U   i.U     , B 0 0 0 0 0 B 8 E E + 7.7.7.e.i.p.p.p.a.a.g.h.x.p.v.n.. $ &.E.W.&.. L k.h.z.x.x.U.F.8   P h.h.c.M.V.V.H.H.H.H.H.K.P.I.I.I.fXL P S.M.V.J.H.K.P.I.wXwXI.I.qXI.I.P.P.K.H.P.K.H.H.H.D.S.S.S.V.M.N.c.x.x.k.h.k.k.k.h.h.h.h.h.h.h.k.x.x.x.c.x.x.c.c.c.M.V.V.M.V.V.V.S.S.A.S.V.V.S.D.J.D.D.J.D.S.D.V.S.H.D.A.D.D.H.D.D.S.S.D.S.D.S.H.S.S.V.C.A.M.c.x.x.z.z.x.z.z.z.z.h.s.s.h.s.p.p.p.p.p.p.p.s.p.fX7.B h.p.p.a.s.s.s.s.a.s.a.s.s.s.s.s.s.s.s.h.s.s.s.s.s.s.s.s.h.h.h.h.z.z.h.k.k.z.x.x.x.x.x.c.x.x.x.x.x.x.c.x.v.c.c.x.x.x.x.x.v.v.v.v.v.c.x.x.x.v.v.v.x.z.z.x.x.x.x.x.x.x.z.k.k.k.k.k.k.h.h.h.h.h.h.h.h.h.s.h.h.z.h.z.fX^ S.v.z.z.z.z.k.z.k.k.z.z.l.z.x.z.k.c.x.z.c.c.c.c.M.M.M.S.S.S.D.H.K.H.K.K.K.K.P.P.P.P.qXqXqXI.wXwXI.qXqXqXqXqXqXqXI.wXI.I.wXI.I.I.P.I.I.I.I.P.P.K.H.P.P.H.K.D.H.S.A.S.V.M.M.N.c.c.N.c.M.M.N.N.M.M.N.c.M.S.H.K.P.P.wXaXaXsXsXgXfXfXfXfXfXsXfXgXsXaXP.I.L.qXc.B qXsXtXaXaXtXqXI.P.P.H.D.S.M.k.h.7.O O , 7.qXF.F.H.F.M.8 e !.E.!...# 1 x.D.v.M.A.A.S.C.M.N.c.x.c.x.x.p.8 7.U P P L P P P L B X   D _ , H.B O 8 J 8 q ^ ,   O   E L 8 _ L   3 O 6 I 0 L ) + O   8 3 0 I F., X L N.N.W ) 8.~ , C.k.  S 3 J   O   + E L 8 ^ B     X 8 L 3 0 E + O O + J 9 , B L O +   0 B X + L B +   X E ",
"  X   + 6 + q o       o 6 6 6 +       1 0 o 6 q     O O q , 6 6     O   q 6 , 0   S + s.L O 6 , 8 + ( h.+ , J ` + B O       0 8 q 8 6     O 8 0 8 0 0   + + + B 8 + S +   J I O _ U     , 0 0 0 B B 0 B 8 E E + _ _ 7.7.i.i.p.p.i.p.p.a.h.p.b.d.. $ &.E.W.&.. L x.z.z.x.x.K.F.8   P h.g.x.M.V.V.D.H.H.H.K.P.P.P.I.I.gXL P A.M.V.M.S.D.H.H.H.K.K.K.I.P.I.K.P.K.P.P.K.H.J.D.S.A.A.S.V.M.N.c.x.x.k.k.x.k.h.h.h.h.h.k.h.h.h.h.k.k.k.c.x.c.c.c.M.M.M.V.A.V.V.S.A.V.A.S.S.D.D.S.S.D.H.H.A.S.D.A.V.V.J.H.H.D.S.D.D.D.S.D.S.S.S.A.S.C.S.A.M.M.v.v.x.x.x.x.h.h.z.h.s.a.s.h.h.h.h.h.h.s.p.s.p.fX7.B s.p.p.a.s.a.p.p.p.p.p.p.a.s.s.s.s.s.h.s.s.a.s.s.s.a.s.s.h.h.h.h.z.x.z.h.h.z.x.x.x.z.z.x.z.z.x.x.x.x.x.x.x.x.x.x.x.x.x.v.v.x.x.x.x.c.c.M.v.v.c.x.x.x.x.x.x.x.x.x.x.z.z.x.z.z.z.z.z.z.k.z.z.h.h.h.h.h.h.p.s.h.h.x.fX^ A.v.z.z.z.h.h.z.z.s.s.h.h.k.k.k.k.x.k.k.x.c.c.c.M.c.M.M.M.V.S.J.K.K.K.K.K.P.P.P.P.P.qXtXtXtXtXqXwXqXqXwXI.P.I.I.I.wXqXtXtXI.I.I.I.P.wXI.H.H.P.P.J.P.H.H.H.S.D.D.S.A.V.V.M.N.c.c.M.M.V.V.M.c.M.M.V.S.A.S.D.H.K.I.tXqXtXsXsXsXsXsXfXjXfXaXsXaXwXaXaXqXL.I.c.0 qXsXaXI.I.qXqXwXP.L.J.D.S.M.k.h.7.O , , 7.I.D.S.H.H.A.8 e !.E.!...# 1 x.F.A.S.A.A.S.S.V.N.c.x.x.k.z.e.8 7.P P P P P P P L B X   S _ , H.B + + ^ I B ^ +   O O E ! 9 ! B   +   8 E 0 0 B 6 O O + B 0 E H., O P N.N.W ~ ( ^ , C.k.  S 3 ^   O o O 0 J L E 6 O O   , p.I I I + + O , J ^ I ( E   O   X ( E L ^ ,   O   8 ",
"    @ 6 o   o 6       8   o   6 +   + + +   + , +     , +   o ,       + 6 O O 0   B + p.J O 6 , 8 + ( h.+ , J ( O q +     o q 3 + 6 0       q , + 8 0       o J + X 6 ,   S E o ( L     , 9 9 0 0 0 0 B 8 E E O _ 7.7.7.e.i.i.e.e.p.p.i.g.a.v.d.. $ =.E.W.&.. L s.h.z.x.x.K.F.8   P h.g.x.N.M.A.S.D.H.H.H.K.P.P.K.P.sXL P V.c.V.S.D.D.H.P.I.P.K.P.I.P.I.K.P.K.K.K.K.H.D.S.S.A.V.V.M.N.c.c.c.x.c.k.k.k.h.h.h.h.g.h.h.g.a.h.h.h.h.x.x.x.c.c.N.N.M.M.V.V.M.V.V.M.V.S.S.V.V.S.D.D.S.D.D.H.D.V.S.D.D.S.S.D.D.H.H.D.S.D.S.S.V.A.M.M.M.M.M.M.M.v.x.x.x.x.h.s.h.h.s.s.s.a.a.p.a.a.p.p.i.h.s.fX7.B s.i.p.p.p.p.p.p.p.p.p.p.p.s.s.a.a.s.s.a.p.p.s.s.s.s.s.s.s.s.s.h.h.h.z.k.k.k.h.k.z.x.x.z.z.z.x.x.x.x.x.x.x.x.x.x.x.x.x.x.x.x.x.x.x.x.x.x.x.z.x.x.x.x.x.z.z.x.x.x.x.x.x.x.z.z.z.z.z.z.z.z.z.z.z.z.z.h.h.h.h.h.h.x.fX! V.x.z.k.z.h.h.h.k.k.k.k.k.k.k.k.h.h.k.x.x.x.x.c.c.M.M.V.V.S.D.H.H.K.H.H.K.K.P.P.P.P.P.I.qXtXqXqXqXI.I.I.U.P.I.wXqXI.I.I.P.K.K.P.P.H.P.P.K.K.P.P.H.K.H.H.D.S.A.D.A.S.V.M.M.M.M.c.x.N.c.M.M.M.M.M.S.S.A.A.S.J.K.I.qXI.qXsXgXgXfXfXhXfXhXsXfXgXtXsXgXrXI.qXc.9 I.aXqXqXqXqXqXP.K.H.D.S.V.M.h.g.7.O , , 7.K.S.A.S.F.A.1 e !.W.!...# 1 z.D.V.A.M.M.M.M.N.x.c.x.x.k.x.i.8 7.L U L L L P L L B X   S _ , K.B   J L + + 0 J   O , L , O   L ,   O L 8     , B   O 6 E O J S., O P N.c.W ( ~ ^ , C.k.  S 3 I 8     B J ,   , I +   + J B     L 9   O 6 I ,   + E   O O 0 E X + 9 J   + O S ",
": o 6 : .     6 + o 8 6   o   6 8   8 6       o 6 + , 6     O + 6 o + 6 O   O 8   0 , p.J O 3 , 8 + ( h.+ , S ^   + 6 + + 6 +       8 + , , 8 O     6 +   O 6 6       8 + J I o ( J     , 9 8 0 0 0 9 0 8 E E + _ _ 7.7.i.i.i.i.p.a.p.p.h.h.A.n.. $ =.E.W.&.. L p.s.h.z.z.K.F.0   L h.h.x.c.M.S.A.D.H.H.H.K.P.P.H.K.sXL L M.c.V.V.S.J.H.H.K.K.P.I.I.P.P.K.P.H.H.H.H.H.D.D.S.S.V.V.M.N.N.c.x.x.x.k.k.k.k.k.k.h.g.a.g.h.h.k.x.x.x.k.x.x.x.c.M.N.M.M.V.M.M.V.V.V.V.M.V.V.V.A.D.D.D.V.V.D.S.S.H.J.S.V.S.D.S.S.S.D.D.S.V.S.V.S.M.V.M.x.v.v.v.v.x.x.z.x.k.s.h.h.h.s.s.h.s.s.s.s.s.s.s.s.p.fX_ B s.i.i.p.p.p.p.p.p.p.p.p.p.p.p.p.p.p.p.p.p.p.s.s.a.a.s.s.s.a.h.h.s.s.h.h.h.h.h.k.z.z.z.z.z.z.x.x.x.x.x.x.x.x.x.x.x.x.x.x.x.x.x.c.x.x.x.z.z.z.x.x.x.x.x.z.z.z.z.z.z.z.x.h.h.h.h.h.k.h.h.h.h.h.h.h.h.s.s.z.h.s.s.z.fX^ S.x.z.z.x.z.h.h.h.h.h.h.h.h.h.h.h.h.x.c.x.x.c.M.M.V.V.S.S.D.H.D.S.J.D.H.H.K.K.K.P.I.P.P.I.I.I.I.wXI.wXqXwXI.wXI.I.P.P.H.H.P.P.K.K.I.K.K.I.I.K.H.P.K.H.K.J.J.V.S.V.V.M.N.M.M.M.c.c.c.c.c.M.M.N.M.V.V.V.S.D.H.K.I.I.aXaXaXgXhXjXhXfXaXfXgXgXfXfXaXqXI.I.qXc.B I.qXqXqXqXqXqXI.P.H.J.S.V.c.a.a.7.O > , ) H.S.S.A.S.A.1 e !.W.W.&.# 1 z.A.v.v.M.M.N.l.c.x.c.x.x.k.x.i.6 7.L L L L L L L L 0     S _ , H.0 8 I O   O   L 6 J ^ 9       8 J B L ! O   + 6 L J , ^ 9   B V.+ O P c.x.W ) ~ ^ , S.x.  S , I q 6 q ^ ,     O E 6 O J B O + O 3 0 , 8 L 0 O O   8 B 6 8 I ,     O J + O 0 ^ ",
"8 6 8 +   o o o : o 8 o       o 6 + 6 6 O     + 6 6 6 6     O + 8 + 6 6 O O O 8   0 , i.J O 6 , 8 + ) h.+ , S ^     q 0 8 0 +       + B q 0 8 +     + B 8 0 B         8 3 J J O _ J     3 9 8 0 0 0 9 0 8 E E + ) _ _ 7.i.p.p.p.e.p.p.p.g.p.v.d.. $ =.E.W.&.. L h.h.h.k.k.H.F.0   L a.h.x.c.N.A.V.S.D.J.H.H.H.H.H.K.sXL P V.c.V.M.S.H.H.D.D.K.P.H.H.K.K.P.P.P.P.J.H.H.D.D.D.S.V.V.M.M.N.c.x.k.k.x.k.k.k.k.h.h.h.g.h.h.h.h.h.h.g.k.x.k.x.N.M.c.M.M.V.M.V.A.A.V.S.c.M.V.V.M.M.V.S.M.c.M.A.S.S.S.S.S.D.D.V.V.A.S.S.S.A.A.S.S.A.V.V.v.v.M.M.M.v.v.x.z.k.h.h.h.h.h.s.p.p.p.p.p.p.p.a.s.p.sX_ B s.i.i.p.p.p.p.p.p.p.p.p.p.p.p.p.p.p.p.p.p.p.p.a.a.p.a.s.s.s.h.h.h.h.h.s.h.k.z.z.z.k.h.z.k.z.x.x.x.x.x.x.z.z.z.x.x.z.z.x.z.x.v.v.x.x.x.z.z.x.x.x.x.z.k.z.z.z.z.z.h.h.h.z.z.k.z.z.z.k.h.h.h.h.h.h.h.h.h.h.s.s.s.k.fX^ S.v.z.z.x.z.k.k.h.k.h.k.x.x.x.x.x.k.x.c.c.c.N.M.M.c.M.V.A.S.S.S.A.D.D.H.P.P.K.K.P.I.I.wXqXqXqXqXqXI.I.wXwXI.I.P.K.P.P.P.P.wXI.P.P.I.P.K.P.P.H.H.K.J.H.J.D.D.A.M.M.M.M.M.M.c.c.c.M.c.c.c.M.M.M.N.N.M.V.S.J.K.P.I.I.aXaXaXsXgXfXsXaXfXfXaXqXtXsXtXaXrXI.I.k.S qXqXqXI.P.I.qXwXP.K.J.S.M.c.a.a.7.O O , 7.H.S.H.S.A.M.2 e !.!.!.&.# 1 c.D.V.A.A.A.V.N.c.c.c.x.x.k.z.7.6 7.L L P P L L L L 0     S _ , F.0 U B   O +   L B J ( 9 , O   6 8 0 0 P 3 + O + E I 3 B 8   0 M.+ O L x.c.W ) ( ! , S.x.  S , L J B 0 J , O O   0 I L ^ B   O O O ! ! S ( + , O X , ) I ! E O ,   O L I B L E ",
"o   o +       6       8     . q   o   6 + O o 8 + O   , 8     6 +     6 6     q   0 3 i.J O 6 , 8 + ( h.+ , B ^   O 8 O   0 8   o O 6 6 , 6 8       O 0 S J 0         + 6 J J O e.J     6 0 8 0 0 0 9 0 8 E E O _ _ 7.7.i.i.i.i.i.p.p.s.h.p.b.n.. $ =.%.W.&.. L s.s.h.z.x.K.S.8 X L p.h.x.x.c.V.M.M.A.D.H.J.D.S.K.K.aXL P V.c.V.S.D.D.J.H.K.K.K.P.P.I.K.P.K.K.H.J.H.H.J.D.D.S.M.M.M.N.c.c.x.x.x.x.k.h.h.g.a.a.h.a.a.g.g.h.k.x.x.x.c.x.x.M.N.c.N.M.M.M.M.V.V.V.V.D.V.M.V.A.M.M.A.A.M.A.A.V.S.S.S.V.S.S.S.S.D.S.V.S.S.M.A.M.V.M.M.v.v.v.v.v.c.x.z.h.h.h.h.s.s.s.s.p.a.s.s.s.p.p.p.h.p.fX7.B s.p.p.p.p.p.p.p.p.i.i.p.p.p.p.p.p.p.p.p.p.p.p.a.p.p.p.s.h.s.a.s.h.z.k.h.h.h.g.h.h.z.z.k.h.h.k.z.z.z.x.z.z.z.z.x.x.z.z.z.h.z.z.x.z.z.z.z.z.z.x.x.x.z.z.h.z.x.c.x.z.z.z.x.z.z.z.z.z.h.s.h.h.h.h.h.h.h.h.s.s.h.h.z.sXE A.v.z.h.h.h.h.h.h.h.h.h.h.k.h.h.h.k.h.k.c.c.c.N.M.M.V.S.S.D.H.H.H.H.H.K.I.I.P.P.I.H.P.I.wXqXqXtXqXI.qXqXqXqXqXqXI.P.qXI.P.P.K.K.I.D.K.P.P.P.P.K.D.H.H.S.D.S.D.M.V.S.M.c.c.c.c.c.x.N.M.c.c.N.V.V.M.V.S.S.S.H.P.I.I.qXaXsXsXsXsXgXfXsXaXsXsXfXsXwXaXkXtXK.h.L tXI.P.wXP.P.P.L.H.J.S.D.V.c.a.h.e.> O , e.J.S.H.F.S.M.7 r !.W.!.&.# 1 z.S.M.M.v.v.M.M.c.x.c.x.x.k.z.7.6 7.L P P P P P L L B X   S 7., H.J   J , O   , L   O 6 J , O , ^ O O O B 8 O X 9 8   X , B + L A.+ O L c.N.E ) ~ E > C.l.  S + E 0     L 0     , L 0     E ,     0 ( O   J L   O X J 0   , L O   O   E 8 O , _ ",
"      6 +   + o   X   o 8   : 8       + q , q q       + 8   o q       o 6 + O 0 O 0 6 p.L 9 6 , 8 + 7.s.+ , B (   8 6   o o 8 O   6 8     o 6 + O   8 6     6 + O   o q O J I   e.L     , 0 0 0 0 9 0 0 8 I L , 7._ 7.i.e.i.p.p.p.i.i.p.p.p.b.n.. $ @.%.*.&.# J s.h.z.z.z.H.F.8 X U p.p.k.x.c.S.S.J.D.S.H.K.H.K.P.P.sXP L N.c.M.S.M.S.J.K.S.S.H.K.P.P.P.P.I.P.H.P.D.H.H.D.S.A.S.S.V.M.x.x.x.x.k.x.k.k.h.a.h.k.h.h.g.g.h.h.a.h.k.k.x.c.c.c.c.c.M.V.M.M.A.S.S.A.S.S.S.V.A.D.A.M.S.D.S.S.D.A.C.S.S.S.S.D.S.S.V.D.H.S.S.S.S.S.V.M.N.A.M.c.x.x.x.x.x.h.h.h.h.h.s.s.s.a.s.s.s.a.a.s.s.x.i.hXe.0 s.p.p.p.a.s.p.p.p.p.p.p.a.s.a.p.p.a.s.a.s.s.a.a.a.s.s.a.p.p.s.s.s.s.s.h.h.h.z.k.k.k.k.z.z.h.h.z.z.z.z.x.x.z.z.z.x.z.z.x.z.z.z.x.x.z.z.z.z.z.k.k.k.z.z.z.x.x.z.k.k.h.h.z.h.h.h.z.z.z.h.h.h.h.s.s.s.s.h.k.h.s.s.h.aXI S.v.h.z.h.h.h.h.h.h.h.h.h.k.k.k.h.x.x.z.x.v.M.M.v.M.V.V.V.V.S.D.D.J.H.P.P.P.I.P.K.P.P.P.P.I.I.I.I.I.qXqXqXwXwXwXI.wXwXI.I.I.I.I.I.I.P.P.I.P.P.I.I.H.D.S.D.S.V.M.M.M.V.M.c.M.N.x.c.M.c.c.M.M.M.M.M.S.S.D.H.K.K.I.tXwXaXfXaXaXfXsXsXhXfXfXsXtXaXaXI.c.H.) z.S qXqXqXI.wXI.K.H.J.D.S.S.V.v.h.p.7.O O , 7.H.S.F.A.M.A.7 e *.E.!.&.# , c.F.c.A.c.x.x.c.N.c.x.c.c.k.x.7.3 8.L L L L P L L P B X   L ( 6 L.8   J U   O ^ , O   O L 8 6 L L   + + O L 8 L E O O + , 8 S L D.O O P c.c.W 7.W 8.8 N.c.  S 3 I O     + J 6 + ^ L   O X 9 L , 8 E O O   O 0 3   L I X O O 0 B + + E L X O   L ",
"      : q q 8   @     + J q 8 6     O + , + 6 6         , 6 8 6     O O + , + 6   0 8 a.B O O , 8 , _ a.+ , S ( 6 q   o o   8 0 q 8 +       , J + 8 0       O J q 8 8 O   L J O i.L     , 0 0 0 0 0 0 0 8 I L + _ _ 7.7.7.i.i.i.i.i.p.a.a.s.b.n.. $ @.%.*.&.# J a.h.h.k.z.H.F.6 O L p.p.x.c.N.M.S.D.S.S.D.H.H.K.K.P.sXP P M.M.V.M.S.H.D.K.K.P.K.H.P.P.K.H.K.P.K.K.D.H.H.D.D.S.S.V.M.M.c.c.c.x.x.x.x.x.k.h.k.x.h.h.h.h.k.h.h.h.x.x.x.x.c.c.c.c.M.V.M.M.V.V.V.M.V.M.V.M.M.M.c.M.D.V.V.S.D.S.S.S.S.S.S.V.D.S.D.S.J.A.S.S.S.S.V.M.M.v.v.x.c.c.x.z.k.z.z.k.h.h.h.h.h.h.h.h.h.s.a.p.p.z.i.fX7.0 s.i.i.p.p.i.7.7.i.p.s.p.p.p.p.p.p.i.i.p.p.a.s.s.s.a.a.s.s.s.h.h.s.s.s.h.h.h.h.h.h.h.h.z.z.z.z.k.z.z.z.z.z.z.z.z.z.z.z.x.z.z.z.x.x.z.z.z.z.z.x.x.z.z.z.h.z.z.z.k.k.k.h.h.h.h.h.h.h.h.h.h.k.h.h.h.h.h.h.h.h.h.h.z.sXE S.v.z.x.z.z.z.z.k.z.z.h.h.h.z.x.x.x.x.x.v.v.v.M.A.M.M.V.A.S.D.J.H.H.H.K.H.H.K.K.P.I.qXwXP.P.I.I.P.qXP.P.I.I.H.K.wXP.P.P.I.I.P.P.P.I.P.P.I.P.H.J.S.K.H.H.J.D.S.V.V.M.M.M.c.N.N.c.c.c.c.c.N.M.M.M.M.V.V.A.D.L.wXqXtXtXaXsXsXgXsXaXgXsXfXtXqXsXaXqXsXM.s.x.z.S qXqXI.P.P.I.P.P.K.H.J.V.M.x.g.p.7.O O , i.P.M.S.F.S.M.7 e *.W.!.#.. , z.F.v.A.v.v.N.x.c.x.x.x.x.k.x.7.3 7.L L L L P L L P B X   L ( 6 K.0   O B 8 0 ( + O     0 _ S L P , O   0 I B S L 8   O   B 8 J S.O O L c.M.! e.D N X N.x.  B 6 I + O   O B L L ( 3   +   X ! P U U X       0 ! ( ) 9   X O O ^ J 0 ( O   O + , ",
"      + o   o 6     o 6 o     : +   O 8 +     8 6     , + O   + o     , +     8   0 8 s.B   O 8 8 + ) p.+ , J ( + 0 O       q 0 + q q       , J 6 8 q   O + O J 6 6 0     U J O i.L     , 0 0 0 0 0 0 0 8 E L + 7._ 7.7.7.i.p.i.i.i.p.a.a.s.v.f.. & @.%.*.&.# J h.h.h.k.z.H.S.3 O L p.p.h.c.N.c.S.S.D.D.D.J.H.H.H.K.aXL P M.M.S.M.H.H.S.H.H.H.H.K.P.I.P.K.K.P.I.H.D.K.H.J.J.S.S.M.M.M.M.c.c.x.x.x.x.x.k.h.k.k.h.k.h.h.k.k.h.h.x.k.k.x.x.c.c.N.M.M.M.V.V.V.V.V.V.S.S.M.M.M.M.V.S.V.A.S.S.D.D.S.S.D.S.V.D.S.D.A.A.S.S.D.S.S.A.A.S.v.v.v.M.v.x.z.z.z.h.h.s.a.s.s.s.a.p.p.a.s.s.s.p.h.e.fX7.0 a.i.i.i.p.p.p.i.p.p.p.s.p.p.p.p.p.p.i.p.p.p.s.s.a.p.p.s.a.s.s.s.s.a.s.h.h.h.h.h.h.h.h.h.h.h.h.h.h.k.z.k.z.z.z.k.z.z.z.x.z.z.z.z.z.z.h.z.z.z.z.z.z.z.z.h.z.z.k.z.k.z.z.h.h.h.h.s.s.h.k.h.h.h.h.h.s.h.h.h.h.h.h.z.sXE A.v.h.x.h.z.k.k.h.k.z.k.z.z.z.z.z.z.k.z.z.x.x.v.v.M.V.A.S.D.D.H.H.J.H.P.H.H.K.H.K.P.I.I.P.P.wXqXI.wXqXqXwXI.I.qXtXI.I.I.I.I.I.P.P.I.K.K.P.P.P.I.P.K.K.H.D.S.S.S.V.V.M.M.M.N.M.M.c.M.M.M.M.M.M.V.A.S.S.D.D.K.wXI.P.I.tXtXaXsXaXsXsXfXtXaXsXaXaXsXtXdXH.tXk.8 qXaXP.P.K.P.P.P.K.H.J.V.M.x.s.i.7.+ O + i.K.N.M.S.A.x.2 e _.W.!.#.. , k.F.v.A.M.V.N.x.c.x.x.x.x.k.c.e.3 8.L L L L L L L L B X   L ( 6 L.B   , I 0 0 E J   X , J ,     P ,   , I O     O B 3 O L B   S D.O O L x.c.W 8.D 4 O N.k.  S , E O     B L 0   8 B +   X L L , + U ,   O O U q X + P 8 O   8 ) 8 + B 8       S ",
"o o + o     . +     + +       + + + 8 6     O + + + , 6     O o 6 + 8 6       6 O 0 , p.J + , 8 8 + ( p.+ , J ^   6 0     + q o   6 B +   O 6 +     0 ,     , 6 O   q 6   L U   i.L     , 0 0 0 9 0 0 9 8 E I + 7._ 7.7.7.i.p.i.i.i.p.p.p.p.b.f.. & @.%.*.&.# Z s.h.h.h.k.F.S.3 X L g.a.a.k.N.c.V.V.D.H.D.D.H.D.J.H.aXL P M.M.V.V.D.S.D.K.D.S.I.K.K.P.P.K.H.H.K.H.J.K.H.D.H.D.S.V.V.M.N.c.x.x.x.x.k.k.h.a.h.k.h.k.h.h.h.h.h.h.k.k.k.k.x.c.c.c.c.M.V.S.V.V.V.V.V.V.V.M.M.S.D.D.S.S.D.S.A.S.S.V.A.D.S.S.V.D.A.S.V.S.A.V.V.V.M.V.A.V.M.M.M.v.v.x.v.x.z.h.s.s.s.s.s.h.s.p.p.p.p.p.p.s.e.sX7.B s.i.i.i.p.s.s.s.p.p.i.p.p.p.p.p.p.p.p.p.p.p.p.p.p.p.a.p.p.p.p.a.p.a.s.h.h.h.h.h.h.h.h.h.h.h.h.h.h.h.z.h.k.z.z.k.k.z.x.z.z.z.z.z.z.h.h.z.k.h.h.h.h.k.z.k.z.z.z.k.k.z.z.h.h.z.h.s.h.h.k.h.h.s.s.h.s.s.s.h.h.h.s.h.sXE A.c.h.k.s.s.s.h.h.h.h.k.z.z.z.h.h.x.v.x.z.x.M.M.v.M.M.V.S.S.S.D.D.J.H.P.K.K.P.K.P.P.K.P.I.wXI.wXtXP.I.wXI.I.qXqXI.qXI.P.P.K.K.P.K.I.P.H.H.H.P.I.P.H.H.H.D.S.S.A.V.V.M.M.M.c.c.M.c.M.M.M.M.M.M.V.V.A.D.K.P.P.I.wXwXqXsXaXaXsXsXfXgXhXfXfXfXfXgXaXI.tXdXtXk.B tXtXP.qXP.K.K.L.J.D.S.A.V.c.a.i.7.+ O + 7.P.S.S.A.M.M.1 e _.W.!.#.. , k.F.v.A.v.M.N.x.c.x.x.x.x.h.x.e.3 ) L L L L L L L L 9 X   L ( 6 H.B   B L O + 1 B 6 O J 8 O + , 6 L L J E     + O B B B ^ S   S S.O O L x.x.P ( ~ P 8 N.h.X L O I L 6 + ! 8   O + I ,   8 E + X   6 U O O I U + O   P 8   + L 8     , L 6 , 8 I ",
"o 6 8 o   o @   8 o + 6     o + + + 8 6       o + + , 8     O + 6 + 8 6 o     3 O B , i.S , , + 6 + ^ i.+ , J E   o J + 6 8 6   O   6 6 , 6 8       6 0 , + 0 O O   O 0   L U O i.L     , 9 9 9 9 9 0 9 8 E P + _ ( _ 7.7.7.i.i.i.i.p.p.p.p.b.f.. $ @.%.*.&.# B i.p.a.h.h.D.S.8 X L a.p.p.k.c.c.M.M.S.D.S.S.J.D.D.H.tXL L M.c.N.A.S.V.H.K.M.c.H.P.K.H.K.P.K.H.H.K.J.H.D.S.H.S.V.V.V.M.c.c.x.k.x.k.k.h.h.a.h.h.h.h.h.g.h.h.h.h.h.x.k.k.x.x.x.x.c.M.A.S.V.M.V.V.M.N.V.A.V.M.M.V.M.S.S.V.M.A.V.M.V.S.V.S.V.S.A.D.S.S.V.V.A.A.V.M.M.A.M.v.x.x.x.x.x.z.k.h.h.h.h.s.s.s.s.a.p.p.p.p.s.s.i.sX7.B s.i.i.i.i.i.i.i.p.p.p.i.i.p.p.i.p.p.p.p.p.p.p.p.p.p.s.s.p.p.p.p.a.s.s.s.s.s.s.h.h.h.h.h.h.h.h.k.z.z.k.h.h.z.z.h.h.z.z.z.z.z.z.z.k.h.h.z.k.h.h.h.h.z.z.h.h.h.z.z.h.h.h.h.h.h.s.s.h.h.s.h.s.s.s.h.h.h.s.s.s.s.s.s.sX^ A.v.h.z.s.h.s.h.h.h.h.h.h.h.z.x.x.z.v.M.c.x.x.M.A.V.V.S.S.D.D.H.H.H.H.H.D.H.P.P.I.P.K.P.I.I.P.I.qXqXI.I.tXtXI.P.I.qXwXP.P.I.I.I.I.P.K.K.K.K.K.K.J.H.H.H.D.S.S.V.V.M.c.N.c.x.x.N.c.c.c.c.c.N.M.M.M.V.S.H.K.K.K.P.qXqXsXaXsXsXsXfXgXaXK.I.aXaXaXsXqXK.qXD.k.S I.I.qXqXI.K.K.L.H.J.J.A.M.x.p.e.7.O O , _ H.S.F.A.M.M.* e _.W.W.@.. , s.D.b.v.x.c.N.x.x.x.l.l.k.h.x.7.3 ) L L L L L L D L 9     J ^ 6 S.J , 0 + O O O L L B I 8 O O   8 B +   L 8   O 6 J O + , 9   S M.X O L x.c.P ( ~ 8.8 l.g.  L O J 8 U E L + + X   Z E Z E J O     + U I J I L   O   8 L B I L   + + O J L J I S ",
"    + +       6 6 X + q o     6 +     q 6 O   8 6     6 ,     6 o     , 6 O   8   B , i.S + 6 + 3 + ! p., + J E   O 0 6 + 0 ,   O   , 8 6 8 0   O     6 q 8 J         8 , I S O i.L     , 8 8 8 0 9 0 0 8 I L + ) ( _ 7.7.e.i.i.7.e.p.a.p.a.b.n.. $ @.%.%.&.# B i.p.s.h.h.S.S.8 X L p.e.a.k.c.c.N.N.V.S.S.D.H.H.D.J.tXL L N.x.c.A.S.A.D.D.N.h.c.P.K.H.H.K.K.K.H.K.D.D.S.A.D.S.V.M.N.N.N.c.x.x.k.h.h.h.k.h.h.h.a.g.a.a.g.h.h.h.h.k.h.h.k.x.c.N.M.N.M.M.M.M.M.M.M.V.V.V.M.c.M.M.c.M.V.M.M.A.S.A.S.V.S.V.S.M.S.S.S.S.A.S.D.D.V.M.c.M.v.x.x.x.z.z.z.h.h.s.s.s.s.a.p.i.i.p.p.p.a.s.s.s.i.aX_ B p.i.e.i.i.i.7.7.e.i.i.i.i.p.p.i.i.i.p.i.i.p.p.p.p.p.s.s.p.p.p.p.p.s.s.p.a.s.s.s.h.h.h.h.h.h.h.k.z.h.h.h.h.h.h.h.h.h.z.k.z.z.z.z.k.k.h.h.h.h.k.k.k.h.h.h.s.h.h.h.h.h.h.h.h.s.s.s.h.s.p.h.s.a.s.s.h.s.s.p.p.s.s.h.sX^ M.x.h.z.h.k.h.h.h.h.h.h.h.h.h.k.z.z.h.k.x.x.k.x.A.c.c.M.M.V.V.S.D.H.D.H.D.J.K.H.K.K.P.I.P.P.I.I.P.I.K.K.K.P.K.H.H.P.K.K.K.P.P.K.H.H.H.K.P.P.P.P.H.H.H.H.D.S.A.V.M.c.c.c.c.x.c.c.c.c.c.c.N.M.V.V.V.S.S.S.J.H.H.P.I.wXqXqXaXsXtXsXhXI.x.H.fXtXtXhXtXtXP.P.h.9 I.I.P.K.K.H.K.L.H.H.J.A.M.z.p.i.7.+ O O ( S.v.A.S.M.x.* e W.W.W.=.. , p.A.b.A.v.c.N.x.x.k.k.x.k.h.x.7.3 ) L L L L L L D D 9 X   J ^ 3 F.0 0 8   +   1 J   , 6 L + X , L   O + , 9 6 8 B 0     O L 9 U M.X O D x.c.P ( W ( , l.k.  J , I 6 O O B 6 X O O P B X 8 J , O , O U 8   J q     O B S , 6 J + +     L B 3 9 J ",
"o     6 6   + 8 .     + 6 o 6 6       + 8 6 8 6         , 6 8 6       O 6 q 6 q   0 , p.J + 6 3 6 + ! p., + L !   + 6 O   6 8     o q , O + 8 +   O + + o   6 +       8 + I B O i.L     , 8 8 8 0 8 0 B 8 L L , ) ( _ 7.7.e.i.i.7.e.p.a.p.p.b.n.  $ @.%.%.&.# B p.a.s.h.h.D.S.8 X S e.e.h.k.x.c.M.M.V.S.D.D.D.H.H.H.aXL P M.c.N.M.S.A.D.D.H.S.D.H.H.D.S.D.H.H.D.J.S.D.S.V.S.A.A.M.c.c.c.c.x.x.k.h.h.h.h.h.h.h.a.h.g.a.g.h.h.h.h.h.h.h.k.x.c.N.M.c.c.c.M.M.M.M.M.V.c.c.M.M.S.D.V.M.M.V.V.V.S.S.S.V.S.A.S.M.S.V.V.M.M.M.V.V.M.c.c.v.v.x.x.x.x.z.z.z.k.h.h.h.h.s.s.a.p.p.p.p.p.i.i.s.p.aX) B p.i.i.i.p.p.p.i.i.e.7.i.i.p.p.p.i.i.i.i.i.p.p.p.p.p.p.p.p.p.p.p.p.p.p.p.a.a.s.s.s.h.h.s.s.s.h.h.h.h.h.h.h.h.h.h.h.h.h.h.h.z.z.k.h.h.h.s.h.h.h.h.h.h.h.h.s.h.h.k.h.h.h.h.h.h.s.h.h.h.p.s.s.s.s.s.s.s.h.a.p.h.s.s.sX^ v.z.s.z.h.z.h.h.h.s.h.z.z.k.h.h.h.z.h.k.x.v.v.v.M.V.V.A.S.S.D.H.H.S.D.H.H.H.K.J.D.H.P.P.K.P.I.I.K.P.I.I.K.K.I.I.P.P.P.P.P.P.P.K.H.K.H.K.H.H.H.H.D.H.D.S.S.A.V.M.M.M.M.c.x.c.N.c.c.x.c.M.M.V.A.S.S.A.S.D.H.P.qXtXaXqXqXaXsXsXaXsXjXaXqXtXfXhXaXqXtXI.K.qXz.B qXI.S.H.H.H.H.H.H.J.S.A.c.h.p.i.7.O , + 7.H.M.A.D.V.x.2 e *.E.!.=.# 1 a.A.b.A.v.v.c.x.x.k.k.x.x.h.x.7.3 ) S L L L L L L D 9 X   J ^ 6 F.6 + 6 3     B 0       0 L 8 I L   O O , E I 6 B   O ,   J E 0 V.O + S l.x.P ( ! ! 3 c.x.  B , J O     8 J ,   0 B     , J , + o B 6 o   + B + O O B +     B 9   O 8 B   X O B ",
"      6 8 6 8 .       + 6 + 0 6       O 8 + 6 ,       O 8 6 6 8 @     O , o O 0   0 O p.L O 3 , 6 , ! p., + L ^ + 3 +       0 + o 8 8       6 8 o O q 6     8 6 +   8 8   J L o i.L     , 9 8 9 9 8 9 B 8 L L 6 ( ( _ 7.7.7.e.7.i.i.p.p.i.p.b.n.  $ @.%.%.&.# B p.p.p.h.h.F.D.8   L p.p.h.g.h.N.N.V.V.S.H.D.A.S.H.H.aXL P M.M.M.V.S.V.S.D.P.P.K.H.P.P.H.H.H.H.J.D.S.J.D.S.S.S.S.A.M.c.c.c.x.k.k.k.h.h.h.g.h.h.h.h.h.g.g.h.h.h.h.h.k.x.c.c.x.x.x.V.M.M.M.V.M.N.M.V.M.V.V.M.M.V.M.V.M.A.V.M.V.S.V.V.V.S.V.S.V.S.V.V.M.M.V.V.M.M.A.M.v.x.x.c.x.x.z.z.h.s.s.s.s.a.p.s.a.p.p.s.s.s.p.s.p.aX) B p.i.p.i.i.p.p.i.i.i.i.i.e.i.i.p.p.i.i.p.p.p.i.i.p.p.p.i.i.p.s.s.p.p.p.s.s.s.a.a.a.s.s.a.s.h.h.h.h.h.h.h.h.h.h.z.z.z.h.h.h.h.h.h.h.h.h.h.h.h.h.h.h.h.h.h.h.h.z.z.h.h.h.s.h.h.s.h.h.h.p.s.h.h.h.s.s.h.z.h.s.h.s.p.sX^ v.x.h.z.h.h.h.h.h.h.h.h.h.h.z.x.x.s.x.M.c.x.v.M.v.M.V.V.V.A.S.S.D.D.J.K.H.D.H.H.K.H.K.K.P.I.I.I.P.I.P.P.I.P.H.K.P.H.K.P.P.K.K.K.P.H.H.K.K.H.K.K.H.D.S.V.A.V.V.M.V.V.M.c.x.N.M.x.x.k.c.M.M.M.M.V.V.M.S.H.K.K.P.I.P.qXtXgXaXtXaXtXfXaXsXfXsXaXaXaXqXI.P.H.k.B I.I.P.P.P.P.H.H.J.S.C.M.x.g.p.i._ X O O 7.K.A.A.M.c.x.7 e *.E.!.=.# , k.A.b.v.v.v.c.N.x.k.k.k.l.h.k.) 3 ) D L L L L L L L 9 X   J ^ 6 F.0   6 I   0 E 6 O , O E 6 , 6 L + X   B 0   8 8 J     , B   P V.+ + S k.c.W ) ~ W 8 c.k.  S , J   o     L P B E , O +   8 ^ 0 ^ E   o o   J _ L E B   + , O ^ L 8 ( , O   O 8 ",
".     8 +   o 6     o 6 .   o + o   + 8 +   + 6 ,   + o +     + o     + ,     0   0 + p.J + 6 , 8 O ( p.+ , S ( 8 0   o O   8 6 8 J o       o 0 B q 8   O     8 J 8 0 O   S U o p.P     , 8 8 0 B 8 8 0 8 L J , _ _ _ 7.7.7.7.i.i.7.e.g.h.p.b.b.. $ @.%.%.&.# B i.p.s.p.a.V.S.8 X S r.i.g.h.x.c.M.M.M.V.V.A.S.S.S.H.tXP P x.l.c.M.V.S.D.D.D.H.K.D.H.H.H.S.A.D.P.S.S.S.S.S.A.V.V.M.M.M.M.M.c.x.x.k.h.h.h.h.h.h.h.h.a.a.h.h.g.a.a.k.k.k.x.k.x.x.c.N.M.V.V.M.M.M.M.c.V.S.M.c.M.V.S.V.V.S.A.V.V.S.D.A.V.V.S.D.S.V.M.M.M.V.S.S.M.M.V.v.M.M.v.x.z.z.x.z.h.h.s.a.p.p.p.p.p.p.p.p.p.p.p.h.p.aX7.0 p.e.i.p.i.i.p.i.e.e.i.7.7.e.i.p.p.p.i.p.p.i.i.p.p.p.p.p.p.p.p.p.s.s.p.p.p.a.s.s.s.s.s.h.h.s.s.s.h.h.h.h.h.h.h.k.h.h.h.h.s.s.h.h.h.h.h.h.h.s.h.h.h.h.s.h.h.h.s.s.s.s.s.h.h.h.h.h.s.a.p.s.s.s.s.s.s.s.s.p.p.h.s.s.aX^ M.x.h.s.s.s.s.s.h.h.h.h.h.h.h.h.h.z.z.z.z.z.x.c.v.A.V.S.A.A.S.A.D.J.D.D.H.H.J.H.P.K.I.wXP.P.qXqXI.P.I.I.P.P.I.P.P.I.P.P.P.P.P.P.H.K.H.H.H.H.H.H.J.J.D.S.S.S.S.V.M.M.M.M.N.x.k.x.c.x.c.M.M.M.M.M.S.D.D.H.K.P.P.P.qXqXaXtXtXsXaXqXaXaXaXsXsXtXI.wXqXI.K.H.k.S I.P.I.K.H.J.H.J.S.A.S.A.c.k.a.7._ O O O _ A.v.N.v.A.c.7 t *.E.!.@.# , h.V.v.v.v.c.N.M.x.x.k.k.a.h.k.7.8 ) D L L L L L L L 8 X   L ( , K.B O O 0 + 6 B , , , B J O     B J , 8 L + O + 6 Z B 3 J 3   E S.X 3 S k.x.W ( ~ ~ 3 x.h.  B , J +   O + J 8 O 8 0       0 I 6 6 0 + O +   J B + O J O ,   , I J   B 6 O O   B ",
"  @ o +     o + +   3 6       + 8 , 8 +       + 6 + 6 6     O   6 6 6 6 O   O 6   B + p.J + 6 , 6 + ( i.+ , J ^   6 +     + 8 o o 6 0   o O q 6   o 6 o     , B 3 + 6 ,   S U + i.L     , 9 9 0 0 9 0 0 8 P L + 7.7.7.7.7.7.7.i.i.i.e.p.a.p.b.b.. & @.%.%.&.# B p.p.h.s.h.S.S.8 X S e.7.p.h.x.c.c.N.M.V.V.S.D.H.D.H.tXL L x.l.N.c.V.S.S.S.D.J.J.H.D.D.H.H.H.H.H.H.H.H.D.A.V.M.V.S.V.c.x.x.x.x.x.x.k.h.h.h.a.a.g.k.h.g.h.k.k.k.h.k.k.k.k.k.x.c.c.N.M.V.V.M.M.M.V.M.V.V.M.V.A.V.M.N.M.V.V.V.S.S.D.A.M.M.S.S.C.V.A.D.S.A.S.V.M.c.N.v.v.x.x.v.v.x.k.z.k.h.h.s.s.s.s.s.a.p.i.i.p.p.a.s.p.aX_ 0 p.7.i.p.i.i.i.i.p.i.i.i.i.i.i.i.i.i.i.p.i.i.i.i.p.p.p.p.a.p.p.p.a.p.p.p.p.a.s.s.s.s.s.s.s.s.s.h.h.h.h.h.s.s.a.s.h.h.k.z.k.h.h.h.h.h.s.h.h.s.s.h.h.h.s.s.s.s.h.h.h.h.h.k.h.h.s.a.s.s.s.a.p.p.p.p.p.p.p.h.p.p.i.s.aX^ M.z.k.h.h.h.h.h.h.z.z.z.z.z.z.z.z.z.x.x.x.x.x.x.x.M.M.V.V.S.S.A.S.H.D.J.H.K.K.H.K.H.P.P.P.K.P.P.P.I.K.H.K.K.H.K.I.I.P.P.P.P.P.P.K.P.P.K.H.H.K.K.H.K.H.D.S.V.V.M.M.M.N.c.c.c.c.N.M.M.c.x.c.N.M.M.M.J.J.H.H.K.P.I.wXtXtXsXsXaXfXhXaXjXfXaXaXfXjXaXK.qXP.K.k.S I.K.K.P.H.J.H.H.J.C.C.M.c.z.p.7.7.+ + O 7.S.M.A.M.A.x.7 e *.E.!.@.# , k.S.v.v.v.c.x.N.c.c.x.x.h.k.c.e.8 8.D L L L L L L L 8 X   J ( 6 H.6   O 0 8   0 ( 6 8 0 L   O X J E B 8 E +   O O L I 8 I 6   E S.  > S k.x.P ( ~ ~ 3 x.h.  B , I 8   , J 6   O + 0 6 O 8 J ,     6 J + O 8 B X O O B 3   + L 9     + L     O L ",
"+ 6 q 6       o 8 @ 6 6       6 8 + 8 , O     , 6 + + q       O 8 + + 8 O     8   B , p.J O 3 , 6 + ( i.O , J ^   + 8 , + 8 ,       6 6 o 6 6       6 6 + o 8 +     O 6   S L O i.L     , 9 9 9 9 9 0 0 8 I L O 7.7.7.7.7.7.7.i.i.d.i.e.e.p.b.n.. $ @.%.%.&.# B i.p.h.s.h.A.S.8 X S e.7.a.h.x.c.x.c.V.S.S.V.M.M.S.S.tXL E M.k.c.N.A.D.S.S.J.J.D.K.H.J.H.K.K.H.S.H.H.D.S.V.V.V.V.V.M.N.c.x.x.x.k.c.x.h.h.h.a.a.g.h.a.p.a.a.g.h.h.k.k.k.k.k.x.x.c.c.N.M.M.M.N.M.M.V.M.M.M.V.V.M.M.S.S.S.S.V.V.V.V.S.M.M.S.S.V.V.S.V.V.M.M.M.V.M.M.M.M.v.c.x.x.x.z.k.h.h.h.s.s.s.s.s.s.s.a.p.p.p.p.s.p.aX_ 0 a.i.i.i.i.i.7.i.p.i.7.i.p.p.i.e.e.i.p.p.p.i.i.i.i.p.p.p.p.p.p.p.p.p.p.a.a.a.a.a.s.s.s.s.s.s.s.s.s.s.s.s.s.s.s.h.h.h.h.z.k.h.h.h.h.h.h.h.h.s.s.s.h.h.h.s.s.h.h.h.h.s.s.h.h.h.h.s.s.a.a.s.s.a.a.a.p.p.p.a.p.a.a.h.aX! x.h.h.h.h.h.h.s.s.h.h.k.k.k.z.z.z.k.z.x.x.v.v.M.V.V.V.M.S.S.S.D.S.D.S.S.D.H.H.D.D.H.P.I.wXI.I.I.wXwXI.I.wXI.P.K.P.P.K.P.P.K.K.P.K.K.P.P.H.H.K.K.H.K.H.D.S.V.M.M.M.M.c.x.c.c.c.c.c.c.x.x.c.M.V.S.S.D.D.J.J.K.wXqXqXI.aXsXaXaXsXsXfXsXsXgXaXtXtXqXP.I.P.K.h.B I.K.K.K.H.H.H.H.J.S.C.N.c.z.p.7.7.+ O + 7.S.V.S.V.A.b.7 e _.E.W.@.# 1 h.A.v.v.x.c.N.N.x.x.k.k.h.h.x.7.8 ) D L L L L L L L 8 X   S ( 8 K.0 O 8 ( 6 J L 0     O 8 , , , B +     J B + O B J     , I O S D.X O S l.x.P ( ~ ~ , x.h.  B , J L J B ^ +   O   B J 0 I I   + 1   B 0 L ) 9   O   3 7.8 E ^     , O S L S E J ",
"    o 6     o : + . + 6 +   + 6 +   O 6 6 o   8 + O   8 +   o , o     + 6   O 0   0 + p.J O , , 6 + ( i.O , J (   , 0 8 6 8 +   +   8 B 6 0 q       + 8 q q J + O     8 + L I o 7.L     + 8 8 8 9 9 0 9 8 I L O _ _ _ 7.7.7.7.i.7.i.e.7.e.p.b.f.. $ @.%.%.&.# B q.i.s.p.s.A.S.6 X S e.e.a.h.k.x.N.M.M.M.V.V.S.D.S.S.aXP E V.k.c.M.S.S.A.S.D.J.D.H.H.H.D.J.H.H.D.D.D.S.S.S.S.V.V.M.c.c.c.c.x.x.k.k.h.h.g.g.a.a.g.h.h.h.h.g.a.h.k.h.h.k.k.l.x.x.x.x.c.c.c.c.c.M.M.M.M.M.M.N.c.M.V.M.M.M.M.M.M.M.N.A.V.V.V.V.M.V.V.V.V.M.M.M.M.M.c.M.M.M.x.z.z.z.x.h.h.h.h.s.s.s.a.p.p.a.s.s.p.p.p.s.i.tX_ B s.i.i.e.i.i.e.i.p.i.7.i.i.i.i.i.i.i.i.p.p.p.p.i.i.i.i.i.i.i.i.p.p.p.p.p.a.a.a.p.a.a.s.s.s.s.s.s.s.s.s.s.s.h.h.h.h.h.s.h.s.s.s.s.h.h.h.h.h.s.s.s.h.h.h.h.h.h.h.h.s.s.s.s.s.h.h.h.s.a.p.h.s.s.s.s.s.a.p.p.p.h.s.h.aXE x.h.k.h.h.s.s.s.s.s.s.s.h.h.h.h.h.z.z.x.z.z.x.v.M.M.V.c.V.V.V.D.S.J.J.D.D.J.H.H.H.K.I.wXqXI.P.P.P.P.I.I.I.P.P.K.H.K.H.K.K.H.H.K.H.H.K.K.H.H.H.H.D.D.D.S.S.V.V.M.M.V.M.N.N.M.N.c.c.M.M.M.M.c.c.M.S.A.S.D.H.P.I.I.I.qXaXqXtXsXtXqXfXfXaXaXaXtXwXqXqXP.L.K.s.B I.P.H.D.H.H.H.J.S.S.A.v.c.z.p._ _ + O , _ A.N.V.M.V.b.7 e *.E.W.@.# 1 a.V.c.b.x.c.x.x.x.x.k.k.h.h.x.7.3 ) S L L L L L L L 8 X   S ( 8 F.J   S 8   6 8   O O O L L 0 ( 0   X O + J 0 J _ 6   O O 8 3 S V.X > S l.l.P ( ~ ~ 3 x.h.  B , E B 6 O 0 , O O   I B + 3 ` o     8 ( 0 + B 8 + X O 0 L 6 + J O   O   P B 6 0 L ",
"      6 + @ 6 6       : 6   8 +       o , + 6 6   O     8 , 6 6         q + + 8   0 + p.S O 3 , 6 O ( p.+ + S _   6 6 o   + 6     O 8   O O q       6 8 + O 8   O     8 + J I O _ L     + 8 8 9 0 0 0 8 6 I L O ( ( ) 7.7.7.7.e._ 7.e.e.i.i.b.f.. $ @.%.%.&.# B q.i.p.p.a.A.S.6   S 7.7.a.h.k.k.M.M.N.N.M.V.S.D.J.S.tXL P M.h.c.M.M.M.V.A.S.S.D.D.H.J.D.D.H.H.H.H.D.D.D.D.S.V.N.M.c.x.x.x.x.x.x.h.g.a.g.g.a.a.g.a.a.a.g.a.a.a.h.h.h.k.k.x.x.x.x.x.c.c.N.M.M.M.V.M.M.M.M.N.c.M.V.V.M.M.M.V.S.S.S.M.S.S.V.M.V.V.M.M.V.V.V.M.V.M.c.c.x.x.z.x.x.x.z.h.h.h.h.s.s.a.a.p.p.i.i.i.p.p.p.p.7.qX( 0 a.i.e.i.i.i.p.p.i.i.i.i.i.i.i.i.i.i.i.i.i.i.i.i.i.i.i.i.i.i.i.i.i.i.p.p.p.p.a.a.p.p.s.s.a.a.p.p.a.s.s.h.s.a.p.a.s.s.s.s.s.a.p.s.a.a.a.s.s.s.s.s.s.s.s.s.s.s.s.s.h.h.h.h.s.s.a.p.a.s.s.a.a.s.s.s.s.a.p.s.p.s.p.p.qXE c.z.z.k.h.s.h.h.h.s.s.h.h.h.h.h.h.z.x.x.x.x.x.v.M.V.S.C.S.D.S.H.J.D.D.J.J.H.H.K.K.H.P.I.P.P.P.I.P.P.P.K.H.H.P.P.P.K.K.K.K.H.H.K.H.K.H.K.K.K.H.H.H.S.S.S.S.A.M.M.M.M.N.N.M.M.N.c.c.x.c.M.N.x.x.c.V.A.S.D.K.K.K.K.K.aXI.wXaXsXsXsXtXhXaXtXaXaXaXtXqXK.K.K.s.B P.K.H.H.H.H.D.S.A.V.M.c.x.h.i._ _ + O , ) M.c.M.v.M.x.1 t *.E.W.... 1 a.V.x.b.x.x.l.l.l.k.k.k.k.h.x.8.3 ( B L L L L L L L 8     S ( 6 K.0 0 J   o   1 B + + X I ,   , J O O + , L 8 8 J 6 + O   6 S P x.X , S k.l.P ~ ^ ^ 3 x.h.  B 6 U     O 6 S ,   q J O     I 8   O L 9     6 B , O 8 B   O   0 J O O 8 0 O     0 ",
"  o   6 6 + 6 +       : 6 o 8 o       , 6 O 6 +         8 + , 6         q + o 8   0 O i.S O 3 , 8 O ( p.+ + B _   6         8 ,   6 ,   O   8 6     + o     6 6     O 6   0 L + _ J     , 8 8 8 8 8 9 9 6 P L O ( ( _ 7.7.7.7.7.7.7.7.i.p.i.b.f.  $ ..%.%.&.. B q.i.p.p.p.V.S.6 X S 7.7.p.h.k.x.x.x.c.M.V.V.M.c.S.V.wXL P c.h.x.M.M.M.A.S.S.S.S.D.D.D.D.H.H.D.S.H.D.S.S.S.S.M.N.M.M.c.c.c.x.k.k.k.h.h.h.h.h.h.h.k.h.g.h.x.x.k.h.g.h.h.k.x.x.x.x.x.c.c.M.M.M.M.V.c.N.N.M.M.M.M.c.M.M.c.c.M.M.M.M.M.V.V.M.M.V.V.N.c.M.M.M.M.V.M.M.x.x.v.v.x.x.x.z.z.h.h.h.s.s.s.a.a.p.p.p.p.p.p.i.i.7.qX( 0 a.i.e.e.7.i.p.i.7.7.i.p.i.7.7.e.i.i.i.e.e.i.i.i.i.e.e.i.i.i.p.p.p.p.p.i.p.p.p.p.p.p.p.p.p.p.p.p.s.s.s.s.a.p.p.a.s.s.s.p.p.p.p.s.s.s.s.p.a.s.s.s.s.s.s.s.s.s.s.a.a.a.a.s.s.s.a.s.s.s.s.p.p.p.s.s.s.s.a.s.p.p.i.s.aXE x.h.h.s.s.s.s.s.a.h.h.h.h.h.h.h.h.h.z.x.v.v.M.M.A.x.N.M.V.V.V.S.A.M.V.S.D.J.D.D.J.H.K.K.K.K.I.qXqXI.P.K.P.P.K.P.I.K.H.K.K.H.H.H.H.K.J.J.K.L.J.D.J.S.S.S.A.V.V.M.M.c.c.c.c.c.c.x.x.x.x.x.c.N.M.M.V.A.A.D.K.K.K.P.I.I.qXtXtXaXsXsXaXtXtXaXtXwXqXqXP.H.H.H.s.B P.K.H.H.D.S.S.S.S.V.N.x.z.h.i._ 7., O , ) M.c.M.v.M.b.1 t *.E.W.... , a.V.b.b.x.x.l.l.h.h.h.g.h.a.l.) 3 ^ B L L S S S S L 8     J ( , F.6 8 0   O O + B O 6 0 J + O   9 +     P S X   O 0     3 E S B h.X > B k.l.P ~ ~ ! , x.h.  S 6 U         ^ P 0 L ,   +   6 J J 0 J     + O J L 0 E 0 O O 3 O J 8 8 E + O + + , ",
"      + o o + + o     6 o o o +       8 6   o + +     , ,     6 o     + +     8   0 O i.J + 6 , 8 O ( p.+ + B ( + 6   o     8 8 + 6 o + O o , 0 8 6 8 + O   + 8 3 o 6 3   B U 6 _ J     , 8 3 + , , 8 0 8 L J + ( ( _ 7.7.7.7.7.7.7.e.r.p.i.b.f.  $ @.%.%.&.# B q.i.p.p.p.V.A.3 X S 7.7.p.h.k.x.c.x.x.c.M.V.S.D.M.V.I.L E c.k.x.N.M.M.V.S.S.S.A.D.D.D.H.H.H.D.S.D.S.S.A.A.V.V.M.M.N.M.M.c.c.k.h.k.h.h.h.h.h.h.h.a.p.p.a.h.h.g.a.h.h.h.k.x.x.x.x.x.c.c.N.M.M.M.M.c.c.c.c.c.M.N.x.M.N.N.M.V.A.A.V.M.M.M.V.V.M.M.N.V.M.M.M.M.N.c.x.x.v.v.v.x.z.z.k.h.h.h.s.s.s.s.s.p.p.p.a.s.a.p.i.p.7.qX_ 0 s.i.i.7.7.e.i.e.7.7.e.i.i.e.7.7.i.i.i.7.e.e.i.i.i.i.e.e.e.i.p.p.p.p.s.i.p.p.p.p.p.p.p.p.p.p.a.a.s.a.a.p.p.s.s.s.s.s.p.p.p.p.a.s.s.s.s.a.s.s.s.s.s.s.s.s.s.s.a.p.p.p.p.p.p.s.s.s.s.a.p.p.p.p.a.s.s.s.a.p.i.p.p.h.aXE k.h.a.p.a.s.s.p.p.s.s.h.h.h.h.h.h.z.z.x.x.x.x.z.z.c.c.V.V.A.S.A.S.V.V.S.J.H.J.D.J.P.K.K.K.K.K.K.K.P.K.K.I.I.H.H.H.H.H.K.K.H.H.K.H.H.J.D.H.H.J.S.S.S.S.A.V.V.V.M.M.M.N.N.N.N.c.c.c.V.M.c.N.M.M.M.M.V.A.D.H.P.I.wXqXH.aXaXwXaXaXtXsXtXqXtXqXwXwXI.K.H.D.F.h.B P.H.H.J.S.S.D.J.S.C.C.v.z.s.i.7.7.+ O , ) V.v.M.c.N.z.1 t *.E.!.@.. , a.M.x.c.v.c.x.x.k.h.x.h.k.h.x.) 4 ^ B L S 8 3 8 N D 9     L ` , F.J   S +     , B 8 P ( 8   O   6 L L 9 I     , + 8 8 0 ` 8   8 k.O + B k.k.P ( ~ ! > x.h.  B , J O     3 _ J + + 3 O     8 L 0 , 8 O   X + P 9   O 8   O X B E 6 , 0 J   O   0 ",
"      6       + +   + +       8 + O + ,     + + 1   6 8   O o o 6 + + 8     o 6   0 O i.J + 6 , 8 O ^ i.+ , B !   6 , O   + 8 +   + 0       + 8 o + 8 O O     0 0 + 6 O   0 L + 7.L     , 8 +       , 0 8 L J + ( ( ) _ _ 7.7.e.7.i.e.e.e.i.b.f.. $ @.%.%.&.# B i.i.p.p.s.A.A.,   B 7.7.p.h.h.h.x.c.c.N.M.M.M.M.A.S.I.L P x.k.x.c.M.M.M.V.S.S.V.S.S.D.H.H.J.H.K.S.S.S.S.S.A.V.V.c.c.x.x.x.x.x.k.h.h.a.a.a.p.a.a.p.a.h.h.a.p.a.h.h.h.h.k.x.x.x.x.x.c.c.c.N.N.c.c.c.N.N.x.c.M.M.c.M.M.M.V.V.A.V.M.V.M.N.V.V.M.c.N.V.N.c.c.M.M.M.M.v.x.h.h.x.c.z.s.h.s.s.s.p.p.a.a.p.i.i.i.p.p.p.p.p.e.qX_ 0 p.7.7.7.i.i.i.i.p.p.e.7.7.i.i.i.i.7.i.e.i.i.i.i.i.i.i.i.i.i.p.i.i.i.p.i.p.p.p.p.p.p.p.p.p.s.s.s.a.p.p.s.s.p.p.p.p.p.a.s.s.s.s.s.a.a.p.s.s.s.s.s.s.a.a.p.a.s.s.h.s.s.s.a.a.p.p.p.a.s.s.s.a.p.p.p.p.p.p.p.p.a.p.a.qXE x.x.s.p.s.h.h.h.h.p.s.s.s.h.h.k.k.z.z.z.x.x.c.c.c.V.M.V.M.V.S.A.S.S.V.V.D.J.D.D.D.J.D.H.I.wXP.P.P.P.P.P.K.K.P.K.H.K.K.P.P.K.K.P.K.K.K.H.H.K.K.H.S.D.S.S.S.A.V.M.c.M.c.c.c.c.c.c.c.c.c.c.c.c.c.N.M.V.S.D.H.K.I.I.P.tXqXqXaXaXsXsXaXaXqXtXaXI.K.P.I.H.F.H.h.B K.D.H.D.D.H.H.J.C.V.A.M.z.s.i.7._ O O , ) M.v.M.x.v.z.2 t *.E.!.&.. , h.V.x.v.N.x.l.l.x.k.x.h.k.a.x.) 8 ( B L B ,   X 8 S 9     L _ , K.8   6 J   O J E O O 8 L   +   L L , 8 L + O O   J B L 0 +   B x., O B x.k.P ( ) ! > x.h.  B , J 8 O O 6 8   + + 9 O   O J 3     3 L +   3 L   O O J 8   3 I 3     , J , O 6 B ",
"8 + 6 o     . o 8 + 6 +         + + 8 +       o 6 6 6 8   .   . 8 6 6 q     O 8   0 O i.J O , + 6 + ^ p.+ , B E O O q 6 6 q 6     O 8 8 + 6 8       + 6 + + 8 6 O   + ,   S S 3 i.J     + 8 8 0 ,   8 8 6 L J , ( ) _ 7.7.7.7.7.7.e.7.e.e._ z.f.. $ @.%.=.&.# B p.i.i.p.p.A.M.6 X B ) e.p.a.h.x.k.x.x.c.c.c.M.V.V.M.I.B P z.h.x.M.N.c.M.S.D.S.V.J.D.S.S.J.S.V.D.S.D.D.S.V.V.V.V.x.c.c.c.x.x.k.k.h.a.a.a.a.p.p.p.g.a.p.p.a.a.a.a.h.h.g.h.h.k.x.x.x.x.x.c.c.x.c.N.M.M.M.M.M.M.M.M.M.M.M.M.M.N.M.S.M.M.A.A.M.M.A.A.M.M.M.M.N.v.c.v.x.z.k.k.k.k.h.s.z.h.s.s.p.p.p.p.p.p.p.p.i.i.p.p.i.7.aX_ 8 p._ e.i.i.e.e.i.i.e.7.i.i.e.7.7.7.i.i.i.e.e.i.i.i.i.i.e.i.i.i.i.i.p.p.p.p.p.p.p.p.p.p.p.p.p.p.p.p.p.p.s.a.p.p.p.p.p.p.p.p.p.p.p.p.p.s.a.p.p.p.s.s.p.p.p.p.p.p.a.s.a.a.p.p.a.s.s.s.s.s.p.p.p.i.i.p.p.p.p.s.p.i.s.qXE x.x.h.h.h.h.h.p.s.h.h.h.a.a.h.h.a.x.x.x.x.x.c.c.c.x.c.M.V.A.V.V.V.D.S.S.H.H.H.H.P.H.P.P.K.H.K.P.P.I.I.P.K.K.P.P.P.H.H.H.H.H.K.H.D.H.S.V.D.H.J.D.D.D.S.V.V.M.c.N.M.c.c.c.x.x.x.x.x.c.x.c.c.M.x.M.S.S.D.D.H.H.P.qXaXrXqXtXqXrXsXsXsXaXsXaXqXwXqXqXqXK.H.H.a.B H.H.D.D.J.H.D.S.A.M.N.c.k.r.7.7.( O O + ) S.S.M.c.x.v.7 t *.E.1.o.# * s.A.x.x.x.l.k.x.c.x.h.h.l.g.h.7.9 ^ S L L 9 O L L L 8     S _ 6 K.0   + B q J I 3     o L 3 + 8 !     O 6 0     J B O   , 6 O B c.O O D h.h.P ( ~ ! > l.g.  B O J B J L B     O 6 S I 0 J 8   O +   J P J I 6     + 0 I B I B   X +   B S 9 ^ 8 ",
"+ @ + +       + +   + +       + +   o 6 o     : +     +       + +   . + o   O 8   0 O i.J O , + 6 + ^ p.+ , S !     6   O , 6       + 6 6 0 q       o 0 8 6 0         8 + B J + e.J     + 9 9 0 3 O 8 8 6 L J , ( ) _ 7.7.7.7.7.7.e.7.e.i.7.n.d.. $ @.%.=.&.# B p.7.i.p.p.V.M.6 X B ) 7.e.p.a.k.x.x.c.c.c.c.M.V.M.M.I.S I x.h.k.x.c.M.M.M.M.M.M.S.S.S.D.J.D.S.S.H.H.J.D.D.S.V.M.x.c.c.x.x.k.h.h.k.h.h.h.g.a.a.a.h.a.a.a.a.g.g.g.h.h.h.k.k.x.x.x.c.c.c.c.c.c.c.M.c.N.N.N.c.c.c.c.c.N.M.V.V.M.M.V.A.A.M.M.M.M.A.A.M.M.M.M.M.N.v.v.x.z.z.z.z.x.z.z.h.h.s.p.p.p.p.p.p.p.p.p.p.p.p.p.p.7.aX) 8 a.7.e.7.7.7.i.i.p.i.i.p.i.i.e.7.7.e.i.i.e.7.i.i.i.i.i.i.i.i.p.i.p.p.p.p.i.i.i.i.i.i.i.p.p.p.p.p.a.a.p.a.a.p.p.p.p.p.p.p.p.p.p.p.p.p.p.p.p.a.a.s.s.s.s.p.p.p.p.p.p.a.a.p.p.p.p.a.a.a.a.p.p.p.p.p.i.p.p.a.a.p.p.h.tXE k.z.s.s.s.s.s.p.s.h.a.a.h.h.g.g.h.k.k.k.x.x.x.x.x.M.c.c.c.c.c.M.A.S.V.V.S.S.A.S.D.D.H.K.H.H.K.H.J.P.K.K.H.H.H.H.H.I.K.K.P.K.J.D.H.K.H.D.H.H.D.S.D.D.S.S.A.M.c.c.M.M.c.x.c.M.c.x.c.N.M.M.c.c.M.V.M.S.S.D.J.K.K.K.K.L.I.sXgXaXrXI.qXI.I.qXtXqXwXP.H.L.D.J.p.B K.H.D.D.D.S.V.V.V.V.V.c.k.p.7.7.( O O , ) v.h.z.N.M.x.7 t *.E.1.o.# - n.A.k.k.c.c.x.z.x.k.h.h.k.h.k.) 9 ( S D L 9 O L D D 8     S _ 8 I.8   0 J 3 6 J 3     O 8 U S ^ 0   O + , B 6 J I     ,   J , J c.X O S g.h.P ( ~ ^ , l.g.  B , ^ B O + L 0     O B 0 + 8 B 3 ,   8 L + 6 8 B   ,   6 8 , O E + O O O I , + 8 L ",
"      : + o o +       + + @ + 6       + +   + 6         + + + + @     o 6   + 8   0 O i.J o 3 + 6 + ! p.+ , S ! , 6 6     O 6 o   o 8 + O O 6 o     , 0 +   q +       0 , 0 J + i.J     + 8 8 0 6 O 8 8 6 L J + ) _ _ _ 7.7.7.7.7.i.7.e.p.e.n.d.. $ @.%.=.&.# B p.e.i.p.p.M.M.6 O S ) 7.i.a.a.k.x.x.c.c.N.M.M.A.S.V.I.S P x.k.x.c.M.A.S.V.V.V.A.S.S.S.S.S.D.D.S.D.S.S.S.A.M.c.x.M.N.c.c.x.k.k.k.k.k.h.h.a.a.g.h.g.g.a.a.a.g.h.h.a.g.h.h.h.h.k.k.x.x.x.c.x.x.x.c.x.c.c.c.c.c.c.N.c.c.c.c.c.N.c.c.M.M.M.M.M.M.N.N.M.v.c.v.v.v.c.x.x.x.x.x.z.z.z.z.h.h.s.a.p.p.p.p.p.p.i.i.p.p.p.p.p.7.aX( 0 s.7.7.i.i.i.i.i.i.i.e.i.i.i.e.e.7.7.7.e.7.7.e.i.i.7.i.i.i.p.p.i.i.i.p.p.p.p.p.i.i.i.p.p.p.p.p.p.p.p.p.p.p.p.p.p.p.p.p.p.p.p.p.p.p.p.p.p.a.s.a.p.p.s.s.p.p.a.a.p.p.a.s.s.s.s.p.p.p.p.p.p.p.p.p.p.p.p.p.a.i.p.a.s.aX! h.h.s.s.a.s.h.s.s.h.a.a.h.h.h.h.k.k.k.x.x.x.x.x.x.c.c.c.N.M.M.M.V.A.V.A.S.S.D.J.H.H.H.D.D.H.K.H.H.P.P.K.K.H.H.H.H.K.K.K.H.H.J.J.D.D.D.J.J.D.S.D.J.S.S.S.V.M.c.c.c.M.c.c.c.M.c.c.c.M.N.c.M.N.N.N.V.A.S.H.P.wXwXI.L.I.L.qXqXI.I.qXaXtXI.qXtXwXP.P.L.P.D.D.p.B K.H.D.H.J.S.V.M.M.M.M.x.k.p.e.7.( O O , ( M.v.v.c.c.x.7 t *.%.*.o.# # s.A.z.x.N.N.x.k.k.h.h.h.h.h.x.) 8 ( S S L 9 O D S S 8     B ) 8 P.B + J +     , 0     O J B + o 3 +     6 ^ S 8 L ,     , B L P c.O O S h.h.P ^ ^ ^ , x.h.  B , J ,     8 S O X 0 0   O O I B   , E 8     , B ,   0 L O X   S 0 O + S 0   O + J ",
"      + 6 + 6 + o .   6 8 6 8 6       @ + 6 q +     o o 8 8 8 6         8 6 6 6   0 O i.J O 3 + 6 + ! p.+ , S E 6 8 +       8 0 q 8 q       6 6 6 + + o     6 6 o O O 8 O 0 J + e.J     + 8 8 8 6 O 8 8 6 J S + ( ( _ _ _ _ 7.7.7.e.7.e.e.7.n.d.. $ @.%.=.&.. B p.i.p.p.p.M.v.3 O S ) 7.i.g.g.l.x.x.x.c.c.c.N.M.S.A.I.S L x.h.x.x.c.N.M.V.A.A.V.S.A.S.V.V.S.J.S.S.S.S.V.M.N.N.M.c.c.x.k.h.h.h.k.h.g.a.a.a.p.a.h.a.a.a.a.a.a.h.h.a.h.h.k.k.k.l.x.k.x.x.x.x.x.x.x.x.x.x.c.c.N.M.M.M.V.M.x.x.c.N.N.v.N.M.M.M.N.v.c.v.c.c.v.v.v.x.x.x.x.x.z.k.h.h.h.h.h.s.a.p.p.p.i.p.p.i.i.i.i.p.i.p.e.tX) 9 p.7.7.i.i.i.7.7.7.7.7.7.7.7.7.7.7.7.7.7.7.7.e.e.7.7.7.i.i.i.i.i.i.i.i.p.p.p.p.p.p.p.p.p.p.p.p.p.p.p.p.p.p.p.p.p.p.p.p.a.p.p.p.p.p.p.p.p.p.p.p.p.p.p.p.p.a.s.s.p.p.a.s.s.s.p.p.p.p.p.p.p.p.p.a.p.p.p.p.a.e.i.p.p.qX^ h.h.h.h.a.s.h.h.s.g.h.h.a.g.h.h.h.k.k.k.k.k.k.x.N.x.c.M.V.A.V.V.A.M.V.V.A.S.D.H.H.H.H.D.D.H.K.K.K.P.K.H.J.D.D.D.D.J.H.H.D.D.H.J.S.V.S.D.D.S.S.D.D.S.S.A.M.N.c.c.c.c.M.N.x.x.M.N.x.c.c.c.V.c.c.c.S.S.S.S.S.S.D.K.P.I.L.I.qXrXaXaXsXfXtXqXqXP.P.wXP.P.J.J.p.B H.D.S.H.H.J.S.V.M.N.c.l.k.p.e.8.( O + , ( A.S.A.v.x.x.1 t *.%.*.o.# # d.A.c.x.c.x.k.x.k.h.k.h.g.h.x.( 3 ^ S B D N > D S S 9     B ( 6 S.S 6 J   O + , 0 , + 0 L   o   J 6   + U 8     6 J X O 6 0 B J c.O , L g.h.L ! ! ^ , x.h.  B , B o O O + U S 6 7.6 O     O E B L E   O X   0 E E ( E         ^ J B E , X +   O ",
"      + + o 6 + @ .   w 6 o + +       + +   + +       o 6 @ o 6     o   6 o + 6   q O i.J O , , 6 + ^ p.+ , B I   , +       6 8 , , 8       6 6 + + 6 o     O 8 + + 3 ,   J J + e.J     + 8 8 8 3 O 8 6 6 J S + ^ ( ) _ _ _ 7.7._ e.7.e.e._ n.d.  % @.%.%.&.. 0 i.e.p.p.p.V.v., X B ( ) e.a.a.h.k.k.x.x.c.x.x.x.x.v.P.J L l.p.k.k.k.x.N.V.S.S.S.S.S.S.V.M.S.D.V.S.S.S.V.M.M.M.V.x.x.x.k.k.k.k.h.g.a.a.a.a.a.a.g.a.a.a.a.a.a.g.h.g.h.h.k.k.k.x.x.x.x.x.x.c.c.c.c.c.c.x.x.x.c.c.c.M.M.M.c.x.c.M.M.M.M.N.v.v.N.M.M.v.v.N.M.M.v.c.c.z.z.z.z.k.h.h.h.h.s.s.p.p.p.i.i.i.i.p.i.i.i.i.p.i.7.qX_ 0 i.7.7.7.7.7.7.7.7.7.7.7.7.7.7.7.7.7.7.7.7.7.7.7.7.7.7.7.e.i.i.i.i.i.i.i.i.i.i.i.i.p.p.i.i.i.p.p.p.p.p.p.p.p.p.p.p.p.p.p.p.p.p.p.p.p.p.a.p.p.p.p.p.p.p.p.p.s.p.p.p.p.a.p.p.p.p.p.p.p.p.p.p.p.p.p.p.p.p.s.i.p.p.i.I.^ s.h.h.h.s.s.h.s.a.a.h.h.a.a.h.h.g.h.h.h.h.h.h.x.c.c.c.c.M.M.M.V.S.M.M.V.V.S.D.D.S.D.D.H.H.H.H.H.H.K.H.H.J.J.J.D.D.P.H.H.K.P.H.D.D.S.D.J.D.S.S.S.S.S.S.V.M.N.M.M.N.c.M.M.x.x.c.c.x.x.M.c.N.x.M.M.V.V.S.D.J.H.H.K.P.I.qXdXaXtXaXtXtXaXqXtXqXI.wXwXH.H.D.J.a.B H.S.S.S.S.S.V.M.M.c.x.k.k.a.e.) ^ O + + ( M.x.v.V.N.k.* t *.%.*.o.# - p.V.z.k.k.k.k.c.k.h.h.h.a.a.x.( , ! S B D B , D S S 9     0 ( 6 F.0 o B o     o J U 0 U 8     O S 0 8 J ^     o , 8 B 0 J 8   0 k.X , L a.g.L ! E ! , x.h.  B + L O     + U 9 , 8 6 + O   8 L , + 0 8 O O O 0 6 +   B O O X 8 I O , 8 B     O L ",
"  o + +     + +     o +     . o + o o 8 o     + o   @ o X       +   o + +     6   8 O i.S O , , 6 + ! p.+ , B I   , 8 o o , 6       6 + + o 6 +   + q ,     o 0   O 6 +   J J o 7.B     + 9 8 8 3 O 8 6 3 J S + ! ^ ( _ 7.7.7.7._ e.7.e.e._ n.d.  # @.%.%.&.. B 7.7.i.p.i.M.M.6 X B ( 7.e.a.a.h.h.h.k.x.c.c.c.c.z.c.P.J L x.a.l.x.c.M.M.M.V.V.A.S.S.S.S.A.S.S.M.A.V.M.M.V.V.M.c.x.c.c.c.c.x.l.k.h.h.h.h.h.g.g.g.p.p.p.a.a.a.a.g.a.g.g.h.h.h.k.k.k.k.x.x.x.c.c.x.c.x.x.x.x.c.c.c.k.x.c.c.c.c.N.M.M.N.N.N.N.M.M.N.v.v.M.M.M.v.c.c.z.z.z.z.z.z.z.z.h.s.s.p.p.p.i.i.i.i.p.p.i.i.i.p.7.7.qX_ 0 i.7.7.7.7.7.7.7.7.e.e.7.7.7.7.7.7.7.7.7.7.7.7.7.7.7.7.7.7.e.i.i.i.i.i.e.e.i.i.i.i.i.p.i.i.i.p.p.p.p.p.i.i.i.i.i.i.i.p.p.p.p.p.p.p.p.p.p.p.i.p.p.p.p.p.p.p.p.p.p.i.p.p.p.p.p.p.p.p.p.p.i.i.i.i.p.p.p.p.i.7.p.a.i.I.^ h.s.s.s.p.a.h.p.p.g.a.a.h.h.g.h.k.h.h.k.x.x.x.x.c.c.c.c.c.N.N.M.V.V.V.V.S.D.J.J.D.S.S.D.J.D.S.D.H.H.H.H.H.K.K.H.H.H.D.D.H.K.K.H.J.S.D.J.D.D.S.S.A.S.S.V.V.M.M.M.M.M.N.N.N.c.x.x.N.c.c.x.c.N.V.V.V.V.S.H.I.tXtXqXI.I.I.rXI.I.aXtXtXqXqXqXqXwXwXI.H.H.S.J.a.B H.D.D.V.M.N.c.c.c.c.c.l.l.a.7.) ! O O , ( v.x.x.c.c.z.1 t *.%.*.o.# - q.v.k.k.x.c.k.k.h.g.g.g.a.a.k.( , E B B L B , D S S 9     0 ( 6 H.8   6 ,   o q q   O 6 S 6     6 0 8 6 U   + O O 0 S , E 6   0 h.  > D a.h.P ( E E , x.h.  B O J ,   + 0 6       B O   6 B ,   X , 9 O O J B       8 B   , L ,   X , L ,   8 ! ",
"o o 6 +       : + + 8 6       + 6 + 6 6 X   . o 6 6 8 6         8 + + q o     8   8 O i.J O 3 , 6 + E p.O , B E   O 8 + 6 B q   o   , 8 8 0 8       O 6 , 6 8 +     + 6   J J o 7.S     + 9 8 8 3 O 8 6 6 L J + ^ ( ) 7.7.7.7.7._ e.7.e.e.e.n.>.  % ..%.%.&.# B 7.7.i.i.7.M.M.6 X S ) 7.e.a.a.h.h.h.k.x.c.M.N.c.v.M.K.S L c.h.x.x.c.N.M.N.N.M.M.V.S.A.V.S.S.V.V.V.V.V.V.S.S.M.c.x.x.x.x.x.k.h.h.h.h.a.g.h.g.a.p.p.p.p.p.a.a.a.a.h.h.h.h.h.k.x.x.h.k.k.k.x.x.x.x.x.x.x.x.c.c.c.c.x.c.c.M.M.N.M.M.c.v.N.M.M.M.v.x.v.c.v.N.N.v.c.c.x.x.z.z.z.z.h.h.h.s.s.p.p.p.p.p.i.i.p.p.i.i.i.p.e.7.I._ 0 i.7.7.7.7.7.7.7.7.7.7.7.7.7.7.7.7.7.7.7.7.7.7.7.7.7.7.7.7.7.e.i.i.i.i.i.i.i.i.i.i.i.i.i.i.i.p.p.i.i.p.i.i.i.i.i.i.i.i.p.p.p.p.p.p.p.p.p.p.p.p.p.p.p.p.p.p.p.p.p.p.p.p.p.p.p.p.p.p.p.p.i.i.p.p.p.p.p.p.i.7.i.p.p.qX^ h.h.a.s.p.a.s.p.p.a.a.a.h.h.g.h.k.k.k.k.x.x.x.x.c.c.c.N.M.M.M.M.M.V.M.M.V.S.D.D.D.J.S.S.D.D.D.J.H.J.D.D.D.J.J.D.D.V.D.D.S.D.H.H.D.S.D.D.D.D.S.S.S.S.V.V.V.V.M.M.M.N.c.c.c.c.k.x.N.c.k.x.c.V.c.M.S.D.S.S.S.H.K.P.P.P.K.I.I.tXaXtXqXqXqXwXI.P.P.P.L.H.S.D.a.B H.D.D.V.V.M.N.N.M.N.c.k.k.p.7.( ! O O + ^ N.N.v.z.k.z.7 t *.%.*.o.# * _ c.k.x.N.N.k.h.h.h.g.h.h.a.h.( , E B S L B , L S S 8 X   B ( 6 S.8   O S 8 J ^ 0       B , O 8 B o     B ,     + J     3 0   0 k.X O S a.h.P ( ! ! , x.h.  B O J B 0 S U ,   O O 8 J 8 _ ,   + O O 9 ^ I ( +   O   O ( L E I O O     B L B E L ",
"6 o 6 : X     + 6 + 6 o         6 . @ X         +   o 8       @ 6 + 6 q .   o 8   q O i.J O 3 , 6 + E p.O , S ^     8 + O O o       , 8 o + 6       O J 8 , J         8 + 0 S + i.J     + 9 8 8 3 O 8 6 6 L J + ^ ( _ _ 7.7.7.7.7.i.7.e.p.i.n.>.. $ ..%.=.&.# B i.i.i.i.7.M.M.6   B ) 7.7.p.p.h.k.h.h.x.x.c.x.x.c.v.H.S J x.p.h.h.k.x.c.M.V.V.V.V.A.M.M.A.V.M.V.M.M.V.V.V.M.M.c.M.c.x.x.k.k.k.k.g.p.p.p.a.a.p.p.p.p.p.p.a.a.p.p.a.a.a.a.h.k.k.k.k.x.x.x.c.c.c.x.c.x.x.x.x.x.x.x.M.c.x.x.x.x.c.N.N.N.N.M.M.M.v.v.v.c.c.v.M.N.v.v.x.z.z.z.z.k.h.s.s.s.p.p.p.p.p.p.i.i.i.i.p.p.i.i.p.e.I.) 0 i.7._ _ _ 7.7.7.7.7.7.7.7.7.7.7.7.7.7.7.7.7.7.7.7.e.7.7.7.7.7.7.7.i.i.i.i.e.e.i.i.i.e.i.7.e.i.i.i.i.i.i.i.i.i.i.i.i.i.i.i.i.p.p.p.i.i.i.i.p.p.i.i.i.p.p.p.p.p.p.p.p.p.i.i.p.p.p.i.i.e.e.i.i.p.p.p.p.i.s.p.p.i.i.qXE s.h.s.s.a.s.h.s.s.p.a.a.p.p.a.g.a.h.h.h.h.k.k.k.x.N.c.c.c.N.M.V.S.D.A.V.A.S.S.S.D.D.S.S.H.P.K.H.H.K.H.J.D.D.D.D.J.D.D.D.J.D.S.S.H.J.J.H.J.S.A.S.D.V.M.M.V.V.c.c.c.x.x.x.x.k.x.x.x.x.c.V.c.c.x.M.M.c.M.A.D.J.H.P.I.I.I.rXrXqXqXqXaXqXqXI.I.P.L.H.P.H.V.S.p.B J.S.S.S.S.S.S.S.V.c.x.k.k.p.7.( ^ O O O ^ v.x.M.V.c.s.7 t *.E.*...# - i.M.x.x.x.x.x.c.h.h.h.h.k.a.a.^ 3 ! B S L B O L S S 8 X   B ( 6 H.8   O ^ q 8 0   o   O 0 J J E 8   O   q ! 8 0 ( + X + X B + 8 c.O O B p.h.P ! ^ ! > x.h.  B O J 8 3 6 0 , O     L J 6 , E ,     8 L O X S 6 O O O B 8   8 L + X O O L 6 , 8 8 ",
"      o       +   o @ o   . + o o     + o   . o o     + +     6 6     @ 6   O 8   8 O i.S o , + 6 + E 7.+ + 0 !   8 ,   O O + + o + ,       + ,     q ,     , 8 O   + 8   B B + a.J     + 8 8 8 6 o 8 8 , L B O ^ ( ( _ _ 7.7.7.7.7.7.e.i.7.b.>.  $ @.%.=.&.. B 7.7.7.i.i.v.M.8 X B ) ) 7.e.g.a.h.k.x.k.k.x.c.c.c.k.K.S S h.e.l.x.k.x.c.c.M.S.S.S.V.M.A.S.C.V.V.S.M.M.V.V.c.c.N.x.c.x.x.k.k.k.k.h.a.a.a.a.p.p.a.g.g.g.a.p.p.a.g.g.a.h.h.k.h.k.x.x.h.k.x.x.k.x.k.x.x.x.c.x.h.x.c.c.c.c.c.c.c.N.c.A.v.M.A.N.v.M.v.v.v.v.v.v.c.c.v.x.x.x.z.h.h.h.h.s.s.s.p.p.p.p.s.p.p.i.i.p.p.i.i.p.7.qX_ 0 p.7.i.i.e.7.7.7.7.7.e.7.7.7.7.7.7.7.7.7.7.7.7.7.7.7._ 7.7.7.7.7.7.i.i.e.i.i.i.e.e.i.i.p.i.i.i.i.i.i.p.i.i.e.i.i.p.i.i.i.i.i.i.i.i.i.i.p.p.i.i.i.p.p.p.i.i.i.i.p.p.p.p.p.p.p.p.p.p.p.i.p.p.p.p.p.p.p.p.p.i.i.i.i.I.E s.h.s.s.a.a.s.p.p.h.g.h.h.h.h.h.h.h.h.x.x.x.x.l.x.M.x.N.c.c.N.c.V.V.V.V.V.A.S.S.S.D.H.H.D.D.D.D.D.J.D.H.H.D.S.S.D.H.H.H.H.D.D.H.H.S.D.D.D.S.D.D.S.S.V.V.V.V.V.M.c.c.c.c.c.N.M.N.c.M.c.x.c.M.M.M.V.S.S.H.J.H.H.I.wXK.qXI.I.aXaXqXqXqXI.qXqXP.I.wXK.H.S.V.p.B J.H.D.S.M.c.N.M.M.N.c.x.h.a.7.( ^ O O + ^ v.x.x.x.x.z.q t *.E.1.... - i.M.k.z.x.z.x.x.x.h.a.a.a.p.h.( 4 E B S S 9 , L S S 8     S _ , H.0 O 0 ,     8 6     o J 8 + 0 q   +   + E B 0 P O   +   8 S L c.O O S a.h.E ! ! E , l.g.  0 O L 6     8 S X   B B O     B 0   , J ,   O X B , O J E     O 8 8 O + 0 B X     B ",
"      6 8 + + o       + : + 8 :     . 6 6 6 6 8         + + + 6     . o 8     6   8 O i.B o , + 6 , ! 7.+ + 0 ! 3 6     +   + 6 6 8 6   O O 6 0 8 , 8       + q 6 + 8 +   0 J + a.J     + 8 6 8 6 o 6 8 3 U B + ^ ( _ _ 7.7.7._ q.e.e.e.i._ n.>.. $ ..%.=.&.. B i.i.e.p.i.v.M.6 X B ) ) 7.e.g.a.h.k.k.k.k.x.c.c.c.x.K.S S x.a.x.c.x.c.c.x.c.M.M.V.V.V.S.V.M.M.A.H.S.V.M.c.c.c.N.M.M.N.c.x.h.g.a.h.g.a.a.a.p.a.a.p.p.p.p.p.p.p.p.h.h.h.h.h.a.g.h.x.k.x.c.x.x.x.k.h.k.h.x.x.k.c.M.c.c.c.c.c.c.c.c.v.v.M.M.x.x.v.x.x.x.x.x.x.x.x.c.x.x.z.z.k.h.h.h.k.h.h.s.p.p.p.p.p.p.p.i.i.i.i.i.p.7.qX_ 0 p.7.e.e.i.i.e.7.7._ _ 7.7.7.7.7.7.7.7.7.7.7.7.7.7.7.7.7.7.7.7.7.7.7.7.7.7.7.7.7.e.i.i.p.i.i.i.i.i.i.p.p.i.i.i.i.i.i.i.p.p.p.i.i.i.i.i.i.i.i.i.i.i.i.i.i.i.i.i.i.i.i.i.p.p.p.i.i.i.i.i.i.p.p.p.p.p.p.p.p.e.i.i.i.I.E s.z.s.s.p.p.s.p.s.p.p.a.g.h.g.a.g.h.k.k.k.k.x.x.c.N.x.c.x.c.M.c.M.S.S.S.S.S.S.D.D.H.H.H.H.J.H.J.D.K.H.S.S.D.J.D.D.K.J.D.D.S.D.D.S.S.S.D.D.S.S.D.D.S.V.M.c.c.N.c.c.M.M.c.c.c.c.x.x.N.c.x.c.c.c.N.M.V.V.D.H.P.P.I.K.K.I.I.I.tXtXqXqXqXI.I.wXP.P.wXI.D.S.S.p.9 D.J.S.A.V.M.M.M.c.c.x.x.h.p.8.( ( O O O ^ M.c.x.x.x.h.7 e *.E.1...# - i.M.k.x.c.x.x.k.x.k.h.h.h.a.h.( 8 ! B S S 9 , L S S 8     S _ , H.B S 0       , J , + q q     o q       B +     , B     , J , 6 c.O O S a.h.P ! ^ ! , l.a.  0 O J         S S B P 6   O + + J B 7.E O ,     3 B 0 J 8 O O +   E L 0 L , X + O 6 ",
"      : 8 + 6 o o     6 8 + 6 6       + 6 6 6 6         6 6 6 6         + + , 6   8 O i.B O , , 6 , ^ 7.+ + 0 ! O 6 +       8 + + 8 8       + 0 + , 8 o       0 , o 0 O   0 J O p.J     + 8 6 8 6 o 8 8 3 U B + ^ ( _ _ _ _ 7._ 7.7.7.e.p.7.b.>.. $ ..%.%.&.. B 7.7.7.i.7.M.M.6 X B ( ) 7.e.g.a.h.h.k.k.k.x.x.c.c.c.K.S S c.h.h.x.x.x.x.c.c.c.M.V.V.A.V.V.M.M.V.c.M.V.V.V.M.c.c.M.M.c.x.x.h.h.a.a.g.g.a.p.p.a.a.p.p.p.p.p.a.p.p.a.a.g.h.h.k.x.x.x.k.x.c.x.x.x.k.x.c.x.c.x.k.x.k.x.c.x.x.N.c.c.c.v.M.V.M.x.v.M.v.x.x.x.x.x.x.x.c.z.z.z.z.h.h.h.h.z.h.s.s.p.p.p.i.i.i.p.p.i.i.i.i.p.7.qX_ 0 p.7.7.7.7.e.i.e.7.7.7.7.7.7.7.7.7.7.7.7.7.7.7.7.7.7.7.7.7.7.7.7.7.7.7.7.e.e.e.7.7.7.e.i.i.7.e.e.7.e.i.i.i.e.e.7.7.e.e.i.i.i.i.i.e.e.e.i.i.i.i.i.i.i.e.e.i.i.i.e.7.i.i.i.i.i.i.i.i.i.i.i.i.p.p.p.p.p.p.p.i.p.i.i.I.E h.h.s.s.a.s.s.p.a.p.p.p.a.a.a.a.g.h.h.h.h.k.l.x.c.c.c.M.c.M.V.V.A.M.M.V.A.S.S.D.H.J.J.J.J.H.H.H.D.D.S.S.S.D.J.S.A.H.S.S.D.J.H.K.H.D.D.J.J.S.S.D.D.A.V.V.M.M.N.c.c.M.N.c.x.x.x.x.x.M.M.N.N.N.M.M.V.V.V.V.D.J.K.K.K.P.I.wXI.qXtXtXtXwXP.wXqXP.K.K.H.S.S.D.p.9 D.D.V.V.V.V.V.M.c.x.x.x.h.p.8.( ( O O O ! v.x.x.x.k.h.7 e *.E.*...# - i.v.k.x.c.x.z.k.k.k.k.h.h.g.h.! 8 E B S S 9 > S S S 9     S ) , H.0 8 8   + o   L B B L 6   o   8 B 6 J U       , 0 6 + L 3 O 9 x.O O S p.a.P ! ^ ! , l.a.  B , 0 O     + J 9 S B 9       0 P 8 , 8 6 O   O S L 6 , J O     , ^ 9 6 B 8   O X B ",
"    . o @   + 6       + +   o 6 X           @ @       @ 6 o + 6   o     + + , 8   8 O i.0 O , , 3 , ! 7.+ + 0 E   , 8     + 8 o   o 6 +     + ,   O , 8   O + 6     , +   0 J O i.S     + 8 6 8 6 o 8 8 , L B O ^ ( ( ( ( _ 7.7.7.7.7.7.p.7.b.>.. % ..%.%.&.. 0 _ 7.7.7.7.v.M.3 X B ( ) 7.e.a.a.h.h.h.k.k.k.x.x.x.M.H.B S z.s.p.h.x.x.x.c.c.c.V.V.M.M.M.V.A.V.M.M.M.M.N.c.c.c.c.x.x.x.k.k.h.h.k.p.g.g.p.p.p.p.p.a.p.p.p.a.a.a.p.a.a.a.a.a.g.h.h.x.h.h.k.k.k.x.x.x.x.k.k.x.k.x.k.x.x.x.x.N.N.c.c.c.v.v.x.x.x.v.v.x.x.x.x.x.x.x.x.z.z.z.h.h.h.h.s.h.s.p.p.p.p.p.i.i.i.i.i.i.i.i.i.p.7.qX_ 0 p.7.7.7.7.7.7.7.7.7.7.7.7.7.7.7.7.7.7.7.7.7.7.7.7.7.7.7.7.7.7.7.7.7.7.e.e.e.e.7.7.7.7.7.7.7.7.7.7.7.e.e.e.7.7.7.7.7.e.i.i.i.i.e.e.7.7.e.i.i.i.i.i.e.e.i.i.p.p.i.i.p.p.i.i.i.i.i.i.i.i.i.i.i.p.p.p.i.i.p.i.p.p.i.I.E h.s.p.s.a.a.s.p.p.h.a.a.a.a.a.g.h.g.h.h.k.l.x.x.x.k.x.c.c.x.c.N.M.V.V.A.V.V.V.V.V.S.S.S.D.J.H.J.D.S.H.K.H.D.D.D.D.H.J.H.H.D.D.H.J.H.D.D.H.S.A.S.S.V.V.V.V.M.M.c.c.N.c.c.x.x.c.c.c.x.c.c.x.x.c.N.M.S.S.S.D.S.H.P.I.P.P.I.I.P.I.qXqXqXI.I.qXP.H.D.S.S.V.S.p.9 S.S.M.V.V.V.M.c.c.c.c.c.k.a.7.( ( O O , ( N.x.x.c.c.x.* e *.%.*...# - i.M.k.k.x.k.k.k.h.h.h.g.g.a.h.E 3 E B B S 9 > S B B 9     B ( , U.0   I 6     8 I O   0 S       q I 8 U J O O O   0 L 0 ^ , O , k.O O S p.a.P ! ^ ! , l.a.  B + J 3     B B X   , B , , O L 9   O 6 0   O 8 B O O   L 6   , L 9     , J + + , P ",
"O o : o       6 o   + +       + + o o +       @ o @ @ w o     + o     + 6     8   8 O 7.0 O , + 3 + E 7.O + 0 I     8 + , q 6   O   , 6 6 8 8         0 + + q         6 + q B + _ B     + 8 6 8 6 o 6 8 , J B O ^ ( ( ( ( _ 7.7.7.7.7.7.i._ f.>.. # ..=.%.&.# 0 7.7.7.7.7.v.v., X 9 ( ) 7.e.a.p.h.h.h.k.k.k.k.l.k.c.D.S S k.h.h.h.k.k.k.c.c.c.M.M.N.c.N.V.V.M.c.M.M.M.c.c.c.c.c.x.x.x.x.h.g.g.h.p.g.g.p.p.p.p.p.p.p.p.p.p.p.p.p.p.p.a.a.a.g.h.h.k.h.h.k.l.l.x.x.k.k.a.g.h.k.c.x.c.x.x.x.c.c.c.c.v.c.x.x.v.x.x.v.x.x.x.x.x.x.x.z.x.z.k.h.h.h.h.s.s.a.p.p.p.p.p.i.i.i.i.i.i.i.i.i.i._ I.) 0 p._ 7.e.7.7._ 7.7.7.7.7.7.7.7.7.7._ _ _ _ _ _ 7.7.7.7.7.7.7.7.7.7.7.7._ _ 7.7.7.7.e.e.e.e.e.e.e.i.i.i.e.e.e.e.e.e.i.i.i.i.i.i.i.i.i.i.e.e.i.i.i.i.i.i.i.i.i.i.i.i.i.i.i.i.i.i.i.i.i.i.p.i.i.i.p.p.i.e.i.e.p.p.i.I.I s.z.a.p.i.i.p.p.s.g.a.a.a.a.a.g.h.h.h.k.k.x.x.x.x.c.M.M.N.c.N.M.M.V.V.V.V.V.V.V.V.A.V.V.S.D.D.D.S.S.D.D.S.M.V.S.D.S.S.S.S.A.S.S.S.D.S.S.D.S.V.V.M.A.V.M.N.c.c.c.N.c.c.c.x.x.x.x.x.x.c.c.c.c.N.M.V.V.V.S.H.S.H.K.K.P.P.I.P.K.P.wXqXtXI.P.P.K.H.H.H.S.M.V.p.9 S.S.V.V.M.M.N.c.c.c.c.k.h.p.7.( ^ O O + ^ c.z.z.x.x.z.* e *.%.%...# - q.M.k.l.x.k.x.k.a.h.h.a.a.a.h.E 3 E 9 B S 9 O S B B 8 X   B ( , F.8   6 B , q J +   +   8 6 6 + S + O O 8 O o   8 L     , 6   0 h.O O S p.a.P ! ! E , l.a.  0 O L 0 8 8 J o X   O 8 J 0 L B X     + 8 L L ^ 8   O O 6 B 0 L J   O O O 8 B 8 J B ",
"+ @ 8 +   X   o q 6 8 w         + + 6 6 o   . o 6 6 6 6         o + 6 6       ,   8 O 7.0 O , + 3 + E _ O + 0 U     8 o + 8 6       , 6 + 6 q         q + + 0         8 , 0 0 + ( 0     + 8 6 8 , O 6 8 , J B O ! ( ) _ _ _ _ _ 7.7.7.7.e._ f.` . # ..=.%.&.. 0 _ 7.7.7.7.v.v., X 9 ^ ( 7.7.p.p.g.g.h.h.k.k.x.k.k.z.D.S S k.a.h.a.h.k.k.x.x.c.N.x.c.c.M.M.M.M.M.c.c.N.M.M.M.c.c.x.x.x.c.x.h.a.a.a.g.a.a.p.p.p.p.i.p.p.p.p.p.p.p.i.p.a.a.h.k.x.x.h.k.k.k.x.x.k.k.k.k.h.k.x.k.x.k.x.x.x.x.x.x.c.x.v.c.c.N.M.v.x.x.c.x.x.x.x.x.x.z.x.z.h.h.h.h.s.s.h.s.a.p.p.p.p.i.p.i.i.i.i.i.i.7.i._ I.( 0 i._ 7.7.7.7.7.7.7._ _ _ _ _ _ _ _ _ _ _ _ _ _ 7.7.7.7.7.7._ 7.7.7.7.7._ _ 7.7.7.e.7.7.7.7.7.7.7.e.i.7.7.7.7.e.e.i.i.i.i.i.i.i.i.i.i.i.e.e.e.i.i.i.i.i.i.e.e.e.i.i.e.7.i.i.i.e.i.i.i.i.p.i.e.i.i.p.i.e.i.e.p.p.p.I.I s.h.a.p.p.p.p.p.a.p.p.p.a.g.a.a.a.h.h.h.h.k.k.x.x.k.x.h.x.c.N.M.c.c.c.M.V.S.S.D.D.S.A.S.S.D.D.S.S.D.D.D.S.S.D.D.D.V.M.M.A.S.D.J.S.D.A.A.S.S.S.A.M.V.M.M.M.M.N.c.c.c.x.x.x.x.x.x.x.x.x.x.x.x.c.N.M.V.M.V.S.D.K.K.H.P.I.I.P.P.P.I.qXI.P.K.K.P.P.K.H.D.M.V.p.9 A.V.V.M.M.M.M.M.N.c.x.g.p.e.) ! ! X O O E x.z.z.z.h.s.* t *.%.%...# - ` c.k.x.x.k.x.k.g.g.g.a.a.a.h.! , P 9 B S 9 O S B B 8 X   B ( , F.8 O   I E E J O   3   S 6 q I q       3 J 0 6 B 6   O + 0 , B h.O O S p.a.P ! E E , l.a.  9 O J J 0 0 J     , O 0 B 3 0 J O X   9 J 8 , B 8 O   X 8 B 8 9 L   O O X B 0 , 0 B ",
"o   + o X o   o +   o o     . @ + o + 6 @     o 6 + + 6       . + 6 6 +     o +   8 O 7.0 O , + 6 + E _ O , 0 L   , 6     O 6     O 6 o     6 o     + 6 +   6 6     + 6 + 0 8 + _ B     + 8 6 8 3 O 6 8 , J B O ^ ( ) _ _ 7._ ) 7._ _ 7.i._ n.>.. # ..=.%.&.# 0 _ _ _ 7.7.c.v., X 9 ^ ) 7.e.p.p.a.h.h.h.k.x.x.k.x.z.H.B B k.i.a.a.g.k.x.x.c.N.N.c.c.c.M.M.M.M.M.S.M.c.c.c.c.x.x.x.k.x.c.x.k.h.g.g.a.p.a.a.p.p.p.p.p.p.p.p.p.p.p.p.a.a.a.a.a.a.a.g.k.h.h.x.x.h.k.h.h.h.c.N.c.c.x.x.h.x.c.k.x.c.x.z.x.x.x.v.x.h.z.x.x.x.x.z.x.x.x.z.z.h.h.h.h.s.s.s.s.s.p.p.p.p.i.i.i.i.i.i.i.i.7.i._ I.( 9 i._ _ _ _ _ 7.7.7.7._ _ _ _ _ 7.7.7._ _ _ _ _ 7.7.7.7.7.7.7._ 7.7.7.7.7.7.7.7.i.i.7.7._ 7.7.7.7.7.7.7.7.7.7.7.e.i.7.7.7.7.7.7.7.7.7.7.7.e.i.i.i.i.e.7.e.i.i.e.e.7.7.7.e.e.e.e.e.e.e.i.i.i.i.i.i.i.i.i.i.7.i.p.p.I.E s.s.p.a.a.s.s.i.p.p.p.p.a.a.a.a.a.h.h.h.h.h.k.x.x.x.x.k.c.M.M.V.V.M.M.V.V.S.S.A.V.S.S.S.D.D.D.D.D.S.A.A.S.D.S.A.V.J.S.S.S.S.S.S.V.D.S.S.S.S.S.S.V.V.V.V.V.V.M.c.x.x.x.x.x.x.x.x.x.c.c.c.M.M.M.M.A.S.A.S.S.H.K.P.P.H.P.P.K.P.K.K.I.K.P.P.K.P.P.H.J.D.V.S.a.9 A.V.V.M.M.M.N.c.c.x.k.h.a.e.) ! ! X O + ^ v.x.x.x.k.h.* t *.%.*...# - _ v.k.k.x.k.k.h.h.g.g.h.h.a.h.! , E B B S 9 O S B B 8     0 ( 3 S., O , 0   O 8 3 O O   U 0 8 8 6 O +   6 ^ B B B O ,     J L B h.X O S p.a.P ! E E , l.p.  0 + J ,     0 0     , J O     J 8     8 0   O 6 B O X + S ,     B 6   O , L +   O S ",
"o o @       + :     + +       + o   o +       + 6   . + +       7     6     O +   8 O 7.0 O , + 6 + E _ + , 0 J 6 6   O o   8 6 , 8 8       + 6 + + 6   O O + 0 6 O q     0 8 6 _ B     O 8 6 8 6 o 6 8 , J B O ^ ( ( ( _ 7.7._ 7.7.7.7.i._ n.` . # ..=.%.&.# B 7.7.7.i.e.c.c., X 9 ^ ) 7.e.a.p.a.h.h.h.k.x.x.k.x.z.K.B B c.p.a.h.h.x.x.x.c.M.c.M.c.c.V.S.V.M.M.c.x.c.M.V.N.x.x.c.k.h.k.x.x.h.h.a.p.p.p.a.p.i.p.a.p.e.e.p.p.p.e.p.a.h.h.h.k.k.h.h.k.h.h.x.x.k.x.x.k.h.x.x.k.x.x.x.g.c.M.k.x.M.x.k.v.x.z.x.c.x.c.h.x.x.h.h.h.z.x.z.z.h.k.z.h.s.a.p.p.p.p.p.p.p.p.i.i.p.i.e.7.7.i.i._ I.( 8 i._ _ 7.7.7.7.7.7._ _ _ _ _ 7.7.7.7.7.7.7._ _ _ 7.7.7.7.7.7.7.7.7.7.7.7.7.7.7.7.i.7.7._ 7.7.7.7.7.7.7.7.7.7.e.i.i.e.7.e.i.e.7.7.7.7.7.7.7.i.i.i.e.7.7.e.i.i.i.i.e.i.p.7.7.7.7.e.e.7.7.7.e.i.i.e.e.i.p.e.7.e.i.i.I.I s.s.p.p.p.p.p.i.p.a.a.p.a.a.a.a.h.h.h.h.k.x.x.x.x.c.M.c.M.c.x.M.M.V.V.V.A.S.S.S.V.S.S.S.J.J.D.D.J.H.D.S.S.S.A.S.S.S.S.S.S.A.A.S.S.D.S.S.S.V.S.S.V.S.A.V.M.V.M.M.c.c.c.c.c.x.x.x.x.x.x.x.c.c.c.c.M.V.V.D.S.D.S.H.K.H.I.I.I.qXI.P.qXI.qXI.K.K.K.H.J.S.S.D.a.9 A.A.M.M.M.N.c.c.c.x.x.c.h.p.) ! ^ X O O E x.z.z.z.k.h.1 $ *.%.*.O.# - i.M.k.k.z.h.x.h.h.a.g.h.h.a.g.! , E B S S 9 O S B B 8     0 ( 3 V.S + L 6   + + 0 O   B !     + B   O   0 8   O B O   , O S + S h.X O B p.g.P E E E , k.p.  0 + S   O O   J 8 9 L 0   O + O B 6 B 0 O O O + 6 J B J 6   O O   J 0 6 B , X O O , ",
"      o +   + +       + + o + 6       + o   o : O     o , o   , o     + +   O 6   8 O _ 9 + , , 6 + E _ O + q U + 6   o     8 6 , 8 +       + 0 8   6 o     O 0 q 6 6 O   0 0 3 i.J     + 6 6 8 , O 8 3 3 L 0 O ^ ( ) ) _ _ 7.7.7.7.7.7.7.e.n.` . $ ..=.=.o.# 0 _ 7.7.7.e.z.v.6 X B ( ( r.p.p.a.g.k.k.k.x.k.h.x.x.x.D.S B k.e.s.h.h.k.x.c.c.x.c.M.M.M.M.c.c.c.M.M.N.M.M.M.c.x.x.x.k.k.h.k.k.h.h.a.g.a.p.p.a.p.e.p.r.p.p.p.p.p.p.a.a.a.a.s.g.h.h.z.z.z.x.x.x.z.z.h.h.h.h.h.k.h.h.c.x.k.z.x.c.c.c.c.x.x.x.x.x.x.z.x.z.x.x.x.z.z.c.x.z.h.k.h.s.s.h.p.s.s.p.i.i.i.e.i.i.7.7.7.i.e.7.i._ qX^ 0 i.7.7.7.7.7.7._ _ _ _ 7._ ) _ _ _ _ _ _ _ _ _ _ _ 7.7._ 7.7.7.7._ _ 7.7.7.7.7.7.7.7._ 7.7.7.7.7.7.7.7.7.7.7.7.e.7.e.i.7.7.7.7.7.7.e.e.7.7.e.i.i.i.i.i.e.i.i.e.7.7.7.7.i.e.i.i.i.i.i.i.i.i.i.i.i.i.i.i.p._ p.i.i.U.I h.p.p.p.i.i.p.p.p.p.p.p.p.p.p.h.z.h.g.g.h.h.h.h.k.k.x.c.c.c.c.M.M.M.M.c.V.V.M.V.M.M.S.D.S.V.V.S.D.A.D.D.V.M.V.S.S.S.S.S.D.S.A.S.V.M.S.S.V.S.S.M.M.M.M.M.c.x.c.c.x.V.x.k.c.M.c.c.c.c.c.c.c.x.x.c.M.V.c.V.H.H.H.K.H.K.I.P.I.I.P.qXI.I.P.K.K.P.K.H.S.V.M.A.p.B M.A.M.M.N.c.c.c.c.x.k.k.s.i._ ( E O O + E x.z.z.h.h.z.1 t *.%.*.O.# % i.b.h.x.z.h.h.h.h.h.h.h.a.a.k.! 8 P B B S 3 , B B B 8     0 ( , A.0 0 6         J B q J o   o   6 B , J J   o   8 6 + + q 8   0 h.O X B r.p.W ^ ! W , k.i.  0 , J   +   O L 6 B 8 3     O + S 6 8 0   O +   0 B 6 8 6   O O O U J + 0 + O   O + ",
"      + 6 + 8 +       o + 6 6     .     6 8 8 +         + 6 6 6       O + o O 6   q + _ 0 + , , 6 + E 7.O + q U   , +     + 8       ,       , 6 O o 0 ,     + 8     , 6 o 0 8 , p.J     + 8 3 8 8 , + 8 6 B 8 O ! ( ) ) ) _ ) ( _ 7.e.e.e.R.f.` . $ ..=.=.o.# 0 7.7.7.7.7.k.x., X 0 ( ( e.r.p.a.h.h.h.k.k.h.h.h.x.x.D.S B k.e.a.k.k.k.x.x.c.c.c.c.M.N.c.c.M.M.M.M.c.c.c.c.x.x.x.c.c.x.x.k.h.a.p.h.a.a.g.a.p.i.p.a.p.p.p.p.p.p.a.s.s.s.s.g.g.g.g.x.x.z.h.s.s.h.k.x.x.x.x.x.z.z.k.v.x.x.x.c.x.x.z.x.z.z.z.x.x.x.x.v.v.c.c.x.z.z.k.v.z.k.h.h.s.s.h.a.s.s.p.p.p.p.i.p.p.p.i.i.i.e.7.i._ qX^ 8 e._ 7._ _ _ 7.7.7.7.7.7._ _ _ _ _ _ _ _ _ _ _ _ _ _ 7.7.7.7.7.7._ 7.7.7.7.7.7.7.7.7.7.7.7.7.7.7.7.7.7.7.7.7.7.7.7.7.7.7.7.7.e.i.i.7.7.7.7.i.i.i.e.e.7.i.i.i.e.7.7.7.7.7.7.7.i.i.7.7.7.7.7.7.e.i.i.i.i.p._ p.7.i.I.I h.a.h.h.p.p.s.s.i.p.p.p.p.p.a.s.s.h.h.h.h.k.h.z.z.k.x.c.M.M.N.c.N.M.M.V.V.S.S.V.A.S.V.V.S.S.S.S.D.H.S.V.S.D.A.V.V.V.V.A.S.V.A.S.S.V.D.D.V.V.V.V.S.M.M.V.M.c.N.M.c.c.x.x.x.x.x.x.c.N.c.x.x.c.N.c.x.V.V.S.S.V.D.K.J.P.K.P.P.P.P.P.I.qXP.P.I.K.S.S.K.S.M.V.p.9 N.S.M.M.M.c.c.c.c.c.x.h.a.i.) ( E O O o ! x.z.x.x.z.h.2 t *.%.*.O.# - q.x.h.l.z.z.x.x.h.a.a.a.p.p.h.! 9 P 9 L 9 9 4 B B S 8     0 ( , K.0 6 J       6 L , O J 0     O 0 J 8 0 B o     O L I 8 U 6   B h.O O B p.p.P ^ ! W , k.i.  0 , L o     8 S O   6 B O O o L 6     0 B     6 J   O O 0       0 3   + 6 0     3 J ",
"    . 6 o   + o       + +   + +       o 6 + 6 6       + 6 , 6 8       o 6 + + 8   8 + 7.0 + , , 3 + E 7.+ + q U   O 8 + + 8 +   O   + q   6 8       , , + + 6   O   O 1 , J 8 + i.S     + 8 3 6 J x.I , , L B + E ^ ( ( ) _ _ _ ` _ 7.7._ _ d.Q . $ ..=.=.o.. 0 7.7.7.7.7.z.x.6 O 9 ( ` _ e.p.p.h.p.h.k.g.h.x.k.x.z.D.S S k.e.a.h.k.k.k.x.x.c.c.x.c.M.c.N.V.M.c.M.c.c.x.c.c.c.c.c.x.x.k.h.h.h.h.h.a.a.a.p.e.e.p.p.p.p.p.p.p.p.a.a.a.a.s.s.g.h.h.h.h.x.x.z.h.h.h.h.h.z.z.z.z.h.h.x.z.z.x.x.x.z.z.x.z.z.z.x.x.x.x.x.x.x.z.z.z.z.h.z.z.k.h.h.h.s.p.a.a.p.p.p.p.p.i.i.i.p.i.e.7.7.7.i._ qX^ 8 7._ _ _ 7.7.7._ _ _ _ _ _ _ _ _ _ _ _ _ _ _ _ _ _ _ _ 7.7.7.7.7._ 7.7.7.7.7._ _ _ _ 7.7.7.7.7.7.7.7.7._ _ _ 7.7.7.7.7.7.7.e.e.i.7.7.7.e.e.i.i.e.7.7.7.i.i.i.e.7.7.7.7.7.7.7.e.e.7.7.7.7.7.7.e.i.i.i.i.i.7.p.7.i.I.I s.s.h.s.p.p.p.p.i.a.p.p.a.s.s.s.a.h.h.h.h.k.h.h.k.h.k.x.x.x.x.x.x.V.c.V.M.V.S.M.A.H.A.M.A.S.V.V.A.S.D.H.D.A.V.V.S.V.V.V.V.M.M.S.S.V.S.S.M.N.M.V.S.V.M.M.N.c.x.x.k.k.c.c.x.k.x.x.c.c.c.M.M.M.N.c.c.V.V.S.J.D.H.I.qXI.K.I.P.P.I.K.I.P.K.K.K.H.D.S.A.V.c.M.p.8 M.S.M.M.N.c.c.c.c.x.x.h.a.i.) ( E O O O E z.h.h.z.h.a.2 t *.%.*.O.# * ^ h.h.k.h.h.h.h.g.a.g.a.p.p.h.E , ) B 8 9 S.x.9 B B 6     0 ( , K.+   8 8   + 0 q O   o 8 +     U +   o 8 6     8 B   o + 8   0 g.> O B p.p.P ! E E , k.7.  0 + 0 q 8 + L ,       8 0 , q J     o   8 8 0 J 8       6 0 + q U         S 8 3 J ! ",
"  .   w       +       +     . 6     X + o   . 6 o     + o     +       o + O O 6   8 O _ 0 + , , 3 + E 7.O + q U   O 8 6 , 8 o   o   + 0 o 0 q   O   O 6 8 6 8 O +     + + J 8 + 7.B     + 8 3 6 , i.J , 8 B 9 + ! ^ ( ( ( _ 7.7.7.7.7.7._ _ s.` . $ ..=.=.o.. 0 _ _ 7.7.7.z.v.6 O 8 ( ( ( 7.p.p.a.p.g.h.h.h.k.k.k.k.D.S S k.e.a.a.h.h.k.x.x.x.x.c.N.M.c.c.M.N.x.x.x.x.k.x.c.x.x.k.k.k.h.h.h.h.h.a.g.a.i.e.p.p.e.e.e.i.p.p.p.r.r.p.p.p.p.p.s.h.h.z.z.z.h.h.h.x.x.g.g.h.h.z.z.k.z.h.h.k.z.z.x.x.c.x.x.x.x.x.x.x.x.x.x.k.h.h.z.k.z.h.h.h.s.h.h.s.p.s.a.p.i.i.i.i.e.7.7.i.e.7.7.7.7.7.( I.^ 8 7.) _ 7.7.7.7._ _ ) ) ) _ _ ) ) _ _ ) _ _ _ _ _ _ _ _ 7.7.7._ _ _ 7.7._ 7.7._ _ _ _ _ _ 7.7.7.7._ _ _ 7._ 7.7.7.7.7.7.i.7.7.7.7.7.7.i.7.7.i.e.7.7.7.7.7.7.7.7.7.7.7.7.7.7.7.7.7.e.i.i.i.i.7.7.7.7.e.e.i.7.i.7.i.I.E p.h.p.i.p.p.7.e.p.p.p.p.p.p.s.g.g.h.h.h.h.h.h.h.h.x.x.x.x.x.c.N.c.M.c.N.c.N.V.M.S.S.D.D.S.A.S.J.H.V.S.S.V.A.D.S.M.D.S.D.D.A.S.D.D.S.S.S.A.V.V.V.A.S.M.M.M.c.x.x.h.h.x.c.c.x.x.x.x.x.c.M.M.M.c.M.M.S.V.S.H.H.D.J.K.K.H.P.K.K.P.K.P.P.P.K.H.K.P.D.M.V.c.V.p.9 M.S.N.N.c.c.c.c.c.k.h.h.a.i.) ^ I     + ^ x.k.z.x.x.h.1 t *.%.*.O.# - ` x.k.k.h.h.h.g.h.g.h.h.a.a.h.E 3 E 8 B 4 ( P 8 0 B 6     9 ^ , S.S 6   E 0 J J   O o   8 0 J U B     o + 0 0 8 J +   O   6 6 S a.O O B r.r.L E E E , h.7.  q o 0 J J 8 B O   O   8 U 8 S B O o   , U B 0 L 0   +   8 I 0 J I O +     B L 6 B S ",
"6 o + +       + 6 o 6           + 6 6 o   .     o o + +         + o o + o     6   8 O _ 0 + , , , O E _ O + 8 L   + ,     + 6       6   O   6 o     , 6 + O 8 ,     + + O B q + ( 0     O 6 6 8 + X + 8 , 0 B   ^ ( ( ( ( ) _ _ _ 7.7.7._ R.f.` . $ ..=.=.o.. 0 _ _ 7.7.e.z.x., O 8 ( ( ( 7.p.p.p.h.h.g.h.h.a.h.a.s.D.S S s.7.p.p.a.h.k.x.x.x.x.M.c.c.x.x.x.c.N.x.x.x.x.x.x.x.x.h.k.x.x.k.h.g.a.a.g.a.r.e.p.p.i.e.i.p.p.p.p.p.p.p.p.p.p.p.s.s.s.z.h.h.h.h.h.h.h.z.z.z.z.z.x.x.x.z.x.x.z.z.x.x.x.x.x.z.z.z.z.z.z.c.z.z.z.z.h.h.k.h.h.s.p.p.h.h.s.s.p.p.p.p.p.i.e.i.e.7.e.i.i.e.7.7.( I.^ 8 7.) _ _ _ _ _ _ _ _ _ ( _ _ ) ) _ _ _ ) ) _ _ _ _ _ _ _ _ _ _ _ _ _ _ ) _ _ 7._ _ _ _ _ 7.7.7.7.7.7.7.7.7._ 7.7.7.7.e.7.7.7._ 7.7.7.e.7.7.7.7.7.7.7.7.7.7.7.7.7.7.7.7.7.7.7.7.7.7.e.i.7.7.7.7.7.7.7.7.7.7.i._ e.I.E p.s.i.e.p.p.i.i.a.i.p.p.p.p.p.s.g.h.g.s.h.h.h.h.z.x.x.x.x.c.M.M.M.N.M.c.M.V.V.S.S.N.V.V.M.N.M.V.V.S.M.M.S.S.V.V.A.M.M.V.V.M.M.V.V.S.S.S.S.S.V.V.V.V.N.c.N.c.x.x.k.k.k.k.x.x.x.x.x.c.x.x.c.N.M.M.c.M.S.S.A.S.H.J.S.K.I.K.K.K.P.I.K.I.P.K.P.H.A.A.D.S.M.A.p.9 c.M.x.c.c.c.c.c.x.k.h.h.p.i.) ^ I     O I z.h.k.h.h.s.1 $ *.%.*.O.# % i.v.k.k.h.k.k.k.h.a.a.a.a.a.h.E 3 ( B D 3 3 , 8 0 B 6     8 ^ + v.B   + 0 6 + q 8 o   O B q 6 8 q O o   + L 0 6 B o O O   0 J J p.X X B r.r.D E E E , h.7.  q o J 6 , O + 8 O   , 8 + o   0 +     0 0     , 8     + q + o   8 O     , 8 + O + 0 ",
"6 o + o       o +   6 +       o 6 o + o       o 6 + , 6 +     o 6 6 , 6 +     6   8 O 7.0 + , , , O I _ O + 8 L + 6         8 + + 6 6       + 6   + 8       + 6   O 6 +   B 0 + ( 0     O 6 6 8 9 + 8 6 + B L   E ^ ( ( ( ( ( ( ^ ( _ ) _ _ s./ . $ ..=.=.o.. 0 ( ( 7.7.e.z.x., X 8 ! ! ) 7.i.r.i.h.a.a.k.h.a.h.s.s.D.S J h.e.p.a.a.h.h.k.x.x.c.x.x.x.c.c.x.x.c.c.c.c.c.x.x.x.x.k.k.h.h.h.a.a.a.g.p.e.p.p.e.e.p.p.p.p.r.i.p.p.p.p.p.a.s.g.g.s.s.g.g.h.h.z.h.g.p.x.x.z.z.z.z.z.z.h.z.x.x.x.x.x.x.z.z.z.z.z.z.z.z.z.h.h.x.x.h.h.k.h.h.h.h.h.h.s.p.p.p.i.i.p.i.i.i.p.i.7.7.i.e.7.7.7.( I.^ 9 7.( _ ) ) ) _ _ 7.7._ ( _ _ _ _ _ _ _ ( ( ) _ _ _ _ _ _ _ _ _ _ _ _ _ ( ( _ 7.7._ _ _ _ _ _ 7.7.7.7.7.7._ _ _ _ 7.7.e._ 7.7.7.7.7.7.7.7.7.7.7.7.7.7.7._ 7.7.7.7.7.7.7.7.7.7.7.7.7.7.7._ 7.7.e.i.e.7.7.7.7.7._ e.U.E p.i.p.p.p.p.a.p.p.i.p.p.s.s.s.s.s.s.p.p.s.g.h.h.z.h.h.k.k.x.c.c.x.c.M.c.V.V.M.V.M.A.M.V.D.D.V.M.V.V.S.S.S.V.M.V.S.A.V.S.S.S.S.D.S.V.M.V.S.M.N.M.V.M.c.c.c.x.x.x.k.c.k.h.k.x.x.x.x.x.x.x.x.c.N.M.M.M.V.V.V.D.H.H.K.P.qXP.K.K.K.I.H.D.H.K.K.D.V.V.S.A.M.V.i.9 c.M.x.c.c.x.x.x.x.x.k.g.p.e.) ^ E O O + E x.x.x.z.h.h.1 $ *.%.*.O.# % ` z.g.k.h.h.h.a.h.p.p.i.p.p.h.E O E 4 N S B 9 L 0 0 6     8 ! + S.6   J o     6 6     6 0 +     q 6     J 0     8 +     + J , 8 p.X O B r.r.D E P P + h.7.  0 + J         U 8 3 U 8       q J 6 B q     O   8 J 6 0 8   O   3 L o 3 J +   O O 8 ",
"      o @   + 6     X 6 +     6       + o     w +     + ,     + o     + +     3   8 O 7.B + , , 3 O I _ O + 9 L + ,   o     6 8 6 0 + O   + o q + 6 8     O o 6 6 , ,     J 0 + ( 0     O 6 6 6 , , 6 8 8 0 6 O I ! ( ( ( _ _ _ ` _ 7.7.R.R.f.` . $ ..=.=.o.# 0 ^ ( _ 7.e.z.x.6 X 9 ! ! ) e.e.e.e.p.a.a.h.h.h.k.k.h.D.B L k.e.p.a.g.h.k.k.x.c.c.k.k.x.N.M.c.x.x.x.k.k.x.x.k.h.k.x.k.h.a.a.g.g.g.a.i.e.p.p.p.e.e.e.i.i.e.r.p.p.p.i.p.p.s.g.h.h.h.h.h.s.s.h.h.k.z.z.k.h.h.h.h.h.h.h.h.k.k.z.x.x.z.k.z.x.x.x.z.x.x.h.h.h.z.z.h.h.k.s.s.h.k.h.h.a.p.p.i.i.i.i.i.e.e.i.7.7.7.7.7.7.7.i.( U.! 8 7.( _ _ _ _ _ _ _ _ ) ( ( _ _ _ ) _ _ ) ) ) ) _ _ _ _ _ _ _ _ _ _ _ ) ) ) _ _ 7.7._ _ ) _ _ _ 7.7.7.7.7._ _ _ 7.7.7.7._ 7.7.7.7.7.7.7.7.7.7.7.7.7.7.7._ 7.7.7.7.7.7.7.7.7.7.7.7.7.7.7.7.7.7.i.i.i.i.i.7.7.7.7.e.K.E p.e.p.p.i.p.a.p.i.p.p.p.s.s.s.s.s.p.p.p.g.h.h.h.z.h.l.x.x.x.c.c.x.c.c.c.M.M.N.c.c.M.c.N.S.D.S.S.S.S.S.A.V.S.J.S.c.S.V.A.S.V.A.S.V.S.V.S.S.V.M.V.V.V.V.M.c.x.c.c.x.c.c.x.x.x.x.c.c.k.x.c.c.x.c.M.V.S.A.M.A.D.S.S.H.H.K.H.K.H.H.H.H.D.K.K.H.H.K.H.V.N.N.M.7.9 c.c.c.c.c.c.x.x.x.x.k.s.p.7.( ^ E O O O I z.h.k.h.h.a.2 t *.%.*.O.# - ` k.h.x.z.h.h.a.a.p.p.p.i.i.g.E X ( N N B B 9 B 0 B 6     8 ! + M.8 0 8     +   q 0 J I 6       8 0 + 0 J     + O 8 q 6 ! 0   9 p.O O B e.e.D ! P P O k.i.  0 + 0   O o O L 0 B J +     O , J 8 6 6 + O     B U 6 6 + +   O , I 0 8 U + + O   + ",
"      o 8   q o       + + o q +     o o o + o +       O , + + 6       o 6 + + 6   6 O 7.0 + , , 6 + I _ O , 0 U   + + O   o 6 o   + +       o 0 + + 6   O     q + + 6 O   0 8 + ) B     O 6 3 6 8 9 + 6 , J B O ^ ( ( ( ( _ _ _ _ 7.7.7._ _ s./ . $ ..=.=.o.# B _ _ 7.7.7.z.x., O 0 ! ! 7.e.7.e.p.p.a.h.p.h.k.h.k.a.S.9 L k.e.r.p.a.h.x.x.x.x.c.c.c.c.x.c.N.c.x.x.k.k.N.M.x.x.x.x.k.x.x.x.k.g.p.p.a.p.p.a.g.p.7.e.e.p.i.p.p.p.i.p.p.p.p.p.s.s.g.g.h.z.z.z.z.h.h.h.h.h.k.z.x.x.x.x.x.z.h.h.z.x.z.k.z.x.x.x.z.z.z.z.x.x.z.h.h.k.k.h.s.s.s.s.a.s.s.a.p.p.p.p.i.e.e.7.7.7.i.e.7.7.i.p.( U.E 8 7.( _ _ _ _ _ _ _ _ _ ( ( ) _ _ ) ) 7._ _ _ _ _ _ _ _ _ _ _ _ 7.7._ ) _ _ _ _ _ _ _ ) _ 7.7.7.7.7.7.7._ _ _ 7.7.7.7.7.7.7.7.7.7.7.7.7.7.7.7.7.7.7.7.7.7.7.7.7.7.7.7.7.7.7._ _ _ 7.7.e.i.e.7.7.7.7.7.e.i.i.e.7.7.H.I p.p.i.i.i.p.i.p.p.p.p.i.i.p.s.s.s.g.g.h.k.z.z.z.z.k.x.x.x.x.c.M.c.M.x.M.c.M.V.N.V.S.S.S.V.M.V.V.M.V.V.A.D.D.S.V.S.S.V.V.V.V.A.A.V.D.M.M.S.V.M.M.c.c.N.N.x.k.c.N.c.x.N.M.x.x.c.c.x.x.k.k.x.c.c.N.N.M.D.S.V.D.H.H.H.H.D.P.I.P.P.H.I.wXP.H.J.J.D.D.D.x.N.M.7.B c.x.x.c.c.c.c.c.x.k.h.g.p.7.( ^ E O O + E z.s.g.z.z.s.2 t *.%.*.O.# % _ z.h.k.s.p.a.h.a.a.h.g.p.r.a.E O ! 8 B B B B B 0 B 6 X   8 ! + S.6 6 0 ,       J 6 O J 6   +   8 J 0 J 6   ,     J B 6 B 8   9 a.O O B e.e.L ! E P O k.i.  8 + J O     o 0 O   3 6 O O   0 6 O   , 6     6 J       0 O     6 0     3 8       B ",
"      6 +   o o       6 6 o + +       + 6   + X         6 O o 8         + 8 O 6   8 + _ B O , , 6 + I _ O + 6 I   O 8 + o 8 +       + 6   o 6 + O   6 8     6 6       ,   6 0 + 7.B     + 6 6 6 8 8 6 6 , P 8 O E ^ ( ( ( ( ) _ _ _ _ ) _ _ d.>.. $ ..=.=.o.# 0 7._ 7.e._ x.x., X B ! ! ) ) e.e.p.a.a.a.a.h.h.h.k.k.H.0 L s.) s.a.h.k.h.h.k.x.k.c.c.c.x.c.N.c.x.c.c.x.x.x.c.c.c.x.x.k.k.k.h.h.h.s.a.a.a.p.p.p.g.p.p.i.i.i.p.p.p.p.p.p.p.p.s.g.g.h.h.g.s.h.k.h.s.x.h.h.z.h.h.h.h.x.z.h.k.z.x.x.z.z.x.v.c.x.z.z.z.z.z.z.x.z.h.h.h.z.h.s.s.h.h.a.p.p.p.i.i.i.p.p.p.7.e.e.e.7.7._ _ e.( I.E 8 7.( ) ( ) _ _ _ _ _ _ ) ) _ _ _ _ _ _ _ _ ( ( ) _ _ _ _ _ _ _ _ _ _ _ ( _ _ _ _ _ ) ) _ _ _ _ _ _ 7.7._ _ _ _ _ _ 7.7._ 7.7.7._ _ 7.7.7.7.7.7.7.7.7.7.7.7.7.7.7._ _ 7.7.7._ 7.7.7.e.e.7.7.7.7.7.7.7.7.e.7.7._ 7.H.I p.p.p.p.p.p.i.i.p.p.p.p.p.p.a.p.p.s.s.s.h.h.h.h.z.a.h.k.x.c.M.c.x.c.N.M.M.c.c.M.S.V.A.S.S.S.S.A.V.M.V.S.S.V.V.S.S.S.S.S.C.M.M.V.A.V.M.V.C.M.N.M.M.M.M.c.c.M.c.x.M.k.x.x.c.c.x.x.x.x.x.x.c.c.c.c.M.M.M.V.D.H.J.H.K.qXK.I.wXP.I.I.J.H.K.H.D.D.H.D.V.S.c.M.7.9 c.M.M.V.c.x.x.c.x.k.k.h.p.i.( E I O O + I z.z.x.h.h.h.2 t *.%.*.O.# # i.v.k.k.h.s.h.k.g.g.g.a.a.i.a.E , E 9 9 9 N 9 B B 0 8     0 E , A.8   8 ,     0 0     o 0 O O + J 6   O 0 ,     6 J     , 8   8 g.X > B e.r.L E E P O s.e.  8 o B q 6 + J O   O + 8 8 , 6 J     O , J 6 8 U +       6 8 O 6 0 +   O O S +   6 I ",
"o   + +       o o   o o     o 6       o       + + O o , +     + +   + ,   o   ,   8 + _ 0 O , , 3 + I _ O , 8 I     6 8 , , o   O O + 8 6 8 6       O q 8 6 q     O   + 8 J 8 , 7.B     + 6 6 6 6 + , 9 + J B O E ^ ( ( ) ) ) ( ` _ _ 7.e._ d.` . $ ..=.=.o.# 0 _ ^ ( _ 7.v.x., X B ! ! ) ) e.e.p.a.g.g.g.g.g.a.k.k.D.0 L h.e.s.a.h.h.h.x.c.c.c.k.x.c.x.x.x.c.c.c.c.x.x.x.x.x.k.a.h.k.k.g.a.h.k.a.p.p.p.p.i.p.p.i.i.i.i.p.p.p.a.p.p.a.s.h.h.h.h.h.h.h.h.h.z.z.z.x.h.z.x.z.h.h.h.z.z.x.x.h.h.h.h.z.z.z.z.x.x.z.h.z.k.k.z.k.h.h.h.h.h.h.s.s.s.s.s.s.a.p.p.p.i.i.7.i.i.i.e.7.7.7.7.7.( I.E 8 7.( 7._ _ _ _ _ _ _ _ _ _ _ _ _ _ _ _ _ ) ( ( ) _ _ _ _ _ _ _ _ _ _ _ _ _ _ _ _ _ _ _ _ _ _ _ _ _ _ 7.7.7.7._ _ _ _ _ _ _ 7._ _ _ _ 7._ _ _ _ _ _ _ _ 7.7.7.7.7.7.7.7.7.7.7.7.7.7.7.7.7.7.7.7.7.7.7.7.e.7.7.7.7.H.I p.s.p.i.i.e.e.i.p.p.p.p.p.p.p.p.p.h.h.h.h.h.g.h.h.l.x.x.k.x.c.c.c.c.c.N.M.M.N.N.M.c.c.c.N.M.V.S.D.V.S.S.A.V.V.V.V.S.S.V.M.M.M.V.S.A.V.V.A.V.M.V.V.M.M.M.c.c.c.c.M.N.c.c.c.c.x.k.k.k.k.k.c.M.M.N.c.M.M.S.D.S.A.D.K.P.K.I.I.P.P.I.P.K.H.H.K.H.S.S.S.S.M.V.e.8 c.c.c.M.M.N.M.c.k.k.k.h.p.i.) ! E o O + I z.z.z.h.s.d.1 t *.%.*.O.# % _ x.h.k.h.s.a.h.p.p.a.g.g.p.a.E , P 9 S B 9 B B B B 8     0 E , v.6   O I J J J + O     6 B 8 0 8 O     6 B 6 8 E +   o   6 + 8 a.X X N e.r.L E W P O s.e.  8 + J L L 0 0 O   +   S U 6 J 0   O O   0 0 8 S 6   ,   6 U J J J   O     B J J B B ",
"6 o 6 +       : w X 6 +       o 6 o 6 6       + , + + 8       O 8   6 0       8   8 + ( 0 O , , , O I _ O , 8 I     + +   + 6     o + , o 6 ,         8 8 + 8         , 6 J 0 o _ B     , 3 6 3 6 , + 6 , J J , E ^ ( ( ( _ _ ( ` _ _ 7.R._ d.` . $ ..=.=.o.# 0 ( ( _ 7._ z.z., X 0 ! ! ) ) e.p.p.p.a.g.a.a.g.h.h.a.S.9 S s.e.a.p.g.h.h.h.x.x.x.x.x.x.c.c.c.c.N.x.x.x.x.x.x.x.l.x.x.k.h.h.a.p.p.a.p.p.p.p.i.i.p.p.p.p.p.p.p.p.p.p.p.s.s.s.s.s.s.s.h.h.h.h.h.z.z.z.h.z.z.h.h.h.h.h.z.x.z.h.h.h.z.x.z.z.z.x.x.x.z.x.x.z.z.z.k.k.z.h.h.h.s.s.s.s.h.p.p.i.i.p.p.i.7.i.i.i.7.7.7.7.7.7.( I.! 9 7.) 7._ _ _ _ _ _ _ _ _ _ _ _ _ _ _ _ ) ) ) ) ) ) _ _ _ _ _ ) ) _ _ ( _ _ _ _ _ _ _ _ _ _ _ _ _ _ _ _ _ _ _ _ _ _ _ _ _ 7.7.7._ _ _ 7._ _ 7.7.7.7.7.7.7.7.7.7.7.7._ 7.7.7.7.7.7.7.7._ 7.7.7.7.7.7.7.7.7.7.7.7.7.K.I p.p.p.p.p.p.i.i.i.i.i.i.i.i.i.i.p.s.s.g.h.h.h.h.z.k.k.x.x.c.c.c.c.N.c.N.M.V.M.N.c.S.V.A.S.S.V.V.D.D.A.V.S.A.M.M.A.V.V.V.V.V.V.V.S.S.V.A.S.V.V.S.S.M.V.V.N.c.N.M.N.M.c.x.x.x.x.x.k.M.N.c.c.c.c.M.V.S.A.S.D.H.H.K.P.K.P.I.P.K.P.P.K.P.H.J.K.K.D.A.S.M.c.M.7.8 c.c.c.c.c.c.c.x.k.k.k.s.p.i.( E I o O + E z.h.z.h.s.p.1 t *.%.*.O.# % i.x.h.k.k.h.a.a.p.a.a.a.a.p.a.E 3 W 8 S 8 8 S 8 0 B 8     0 E , M.8   + J 8 6 q ,       B B 8 0 8   +   + J 8 q U   + +   6 0 J h.X O B e.p.L E W P O s.7.  8 + U ,     6 8 O O + B , , O q O o   6 8 o   + 8     O B 6     0 3     6 0 6 O + 0 ",
"o . + o       + o o 6 +   .   O + o + 6         o o + 6       o +   o , O     8   8 + ( 9 O , + 3 + I _ O , 6 U   + O       6 + O + ,       , 6 o , + +     + 6 o   + ,   0 B + ) 0     + 3 , , I ) 0 , 6 J B + ^ ^ ^ ^ ( ) _ _ ` _ _ ) _ _ d.` . $ ..=.=.o.# 0 ( _ 7.7._ h.h.3 X 0 ! ! ) _ e.i.p.p.p.a.a.a.h.k.p.r.V.9 S s.e.e.p.h.k.k.h.k.x.x.c.x.x.c.N.c.c.c.x.x.x.x.x.x.x.x.k.k.h.h.h.h.g.p.a.p.p.p.p.i.i.i.p.p.i.i.i.p.p.i.p.p.s.p.p.p.p.s.s.s.h.s.s.s.h.z.h.h.h.h.s.h.k.h.z.z.h.h.h.k.z.z.z.z.z.h.s.s.h.z.z.k.h.h.h.s.s.h.s.s.h.s.a.a.s.s.p.i.i.i.p.p.i.7.i.i.7.7.7.7.7.7.7._ I.^ 9 _ ( ) _ _ ) ) ) ) _ _ _ _ _ _ _ _ _ _ ) _ _ ) ( ( _ _ ) _ _ ) ) _ ) ( ( ( ( ( ( ( ) ) _ _ _ _ _ _ _ _ ) ) _ _ _ 7.7.7.7.7.7.7._ _ _ _ _ _ 7.7.7.7.7.7.7.7.7.7.7._ _ _ _ _ 7.7.7.7.7.7.7.7.7.7.7.7.7.7.7._ 7.7.7.K.P p.i.i.p.p.p.p.p.i.i.p.p.p.p.p.p.s.p.p.s.h.h.h.z.z.h.h.k.c.c.c.x.c.M.c.c.M.M.M.M.N.M.V.A.S.S.V.A.S.S.S.S.S.V.V.V.V.M.V.V.A.V.V.V.V.V.M.M.M.c.c.M.M.M.M.M.c.x.x.c.x.c.c.x.k.x.x.x.x.k.x.x.x.k.x.M.S.S.M.M.S.J.H.H.H.H.I.P.D.H.I.P.D.H.K.K.H.J.S.S.V.c.x.M.7.8 N.M.M.M.c.x.k.x.x.k.g.a.p.i.^ E I O   + E z.h.h.h.g.s.1 t *.%.*.O.# . q.x.h.h.h.h.g.g.h.g.a.p.p.i.a.E , E 9 B 3 S ^ B 0 0 8     8 I , c.6   6 +     , 8   o + B O o O B O   O 8 8     8 o     + 0 6 0 h.X O B e.p.L E P P O s.7.  q + 0 O     , B + X J ,       6 S 6 J J     O   , 0   0 S       + 3 + o q ,     o q ",
"      + o   + +     o + .   + + .     o +   o o     O O , o o , o       + o O 6   8 O ( 8 O , + , + I _ O , 6 J + 6         + q , 6 8       6 , 6 , 6 o     O 8 o 6 8 O   0 q 6 ( 0     + , , , L ^ 8 + 6 B 0 O ! ^ ^ ^ ^ ( _ _ ^ _ _ ) ` ( d.` . $ ..=.=.o.# 0 ( ( ( _ 7.z.h., X 9 E ! ) ) e.e.p.p.p.a.a.p.a.h.a.p.V.9 S s.e.e.i.a.h.h.h.k.x.x.c.k.h.k.x.x.x.x.x.x.x.k.k.k.k.k.g.h.k.h.a.a.a.a.p.p.i.p.i.i.i.i.e.7.7.e.i.i.i.i.p.p.p.a.p.p.s.h.h.h.h.h.s.h.h.k.h.h.z.h.h.h.z.k.x.z.k.k.z.z.h.h.h.k.z.h.h.s.h.h.h.h.h.h.h.s.s.s.s.s.s.s.s.a.p.p.a.p.i.i.i.i.7.7.7.7.7.7.7.7.7.7.7._ U.^ 9 _ ( ( ) ) ) ) ) ) ) ) ( ( ( ( _ _ _ _ ) _ _ _ ( ( ( _ ( ( ) ( ) _ _ ( ( ( ( ( ( ) _ _ _ _ _ _ _ _ ) ) _ _ _ _ _ _ _ _ _ _ _ _ _ _ _ _ ( ) _ _ _ _ _ _ 7.7.7.7.7._ _ _ 7.7._ _ 7.7.7.7._ _ _ _ 7.7.7._ 7._ 7.7.7.H.P p.i.i.7.7.7.i.p.p.i.i.p.p.p.p.p.s.s.s.g.h.h.h.h.h.x.k.k.x.x.x.x.c.c.c.c.c.c.c.N.M.c.M.M.N.N.M.A.S.M.S.D.M.M.A.A.M.M.M.M.V.M.M.M.M.S.M.M.V.M.M.M.M.V.M.M.M.c.x.c.x.c.c.c.x.k.k.k.k.h.k.x.c.x.x.c.M.M.M.V.A.S.S.S.D.S.K.H.D.K.I.K.H.D.K.P.H.S.V.A.S.M.c.M.e.9 N.N.c.M.M.c.x.x.x.h.a.p.i.e.( E I O   O I z.h.h.g.g.s.1 t *.%.*.O.# . ` h.a.a.g.s.g.h.a.a.p.r.p.p.a.E , E 9 N , B W 9 0 0 8     8 I , c.6 0 6     O   q 0 8 J 6   O   6 0 , 0 J       + 0 , o J 8   6 p.X O B 7.e.D W P P O s.7.  q + 6 + O     J J J B + O O   8 J 3 q J o       8 L 0 0 6   O   6 S 0 0 J +     O   ",
"      + 6 + 8 w       + : + 6 +       o 6 o q 8         8 + o 6         6 + + 6   6 O ( 9 O , + , O I ) O , 6 J O 6 o         + o + 8       + + +   6 O   O   8 + + 6 +   0 S + ( 0     + , , , O   X , , B B O E ^ ( ( ( ( ) ) ^ ( _ ) _ ` d.` . $ ..=.=.o.# 0 ( ) ) _ 7.z.h.6 X 9 E ! ) ) e.e.e.i.p.g.h.a.a.a.k.h.V.8 S p.e.e.i.i.p.a.h.k.k.h.h.h.h.k.k.k.x.c.k.l.k.h.h.h.h.h.h.k.h.h.a.a.a.p.p.p.i.p.p.i.i.i.i.i.i.i.i.i.i.i.p.p.p.s.s.p.p.s.h.h.s.s.s.s.s.s.s.s.h.z.k.k.k.h.g.h.z.z.z.h.h.h.h.h.h.z.z.z.h.h.h.h.h.k.z.h.h.h.s.s.s.s.s.s.p.i.a.p.i.i.i.i.e.7.7.7.7.7.7.7._ _ 7.( H.E 0 _ ) ( ) ) ) ) _ _ _ _ ( ( ( ( ) ) ) ) ) ) _ ) ( ( ( ( ( ( ( ( ) _ _ ) ( ( ( ( ( ) _ _ ) ) _ _ _ ) ) ) ) _ _ _ _ _ _ ) _ _ _ _ _ _ _ _ ) ) _ _ _ _ _ _ _ _ _ 7.7.7._ _ 7.7._ _ _ 7.7.7._ _ _ _ 7.7.7._ _ _ 7._ 7.H.L p.i.i.7.7.7.e.i.i.7.7.i.i.i.i.i.i.s.s.s.g.h.h.h.h.x.k.k.x.x.c.x.c.x.x.c.c.N.c.c.M.M.S.S.M.M.V.V.M.M.N.M.M.M.c.c.c.V.M.M.M.M.M.M.V.A.M.V.V.V.V.V.V.V.M.M.M.N.c.c.x.x.c.c.x.k.k.k.k.c.c.c.x.c.c.x.k.M.M.V.S.D.H.H.H.D.H.H.K.P.H.J.P.H.D.S.J.J.S.A.A.V.c.M.7.9 c.x.x.k.x.c.x.x.k.h.h.p.7.7.( E I O O O I x.z.z.h.g.a.2 $ *.%.*.O.# % ` z.h.k.h.h.g.a.p.p.p.p.p.p.a.P 3 L 8 N 3 , , , 0 9 6     8 I , v.6 q 0         J q 6 B 8   o   + J 6 0 J O       J B 8 0 3   8 p.  O B e.e.D W P P O a.7.  q + B O   o 6 0 O   + 8       J 3     6 q     6 B +   O 0 +     q 0     8 6 O   , J ",
"      o o o + +       + 8 6 + o       o o o + 6       + , o O +         +   o ,   6 O ( 0 O , , , O I _ O , 6 J   O 6 O   6 +       + +   O , +     , +   o o 8 O   + 6   q L   ( 9     + , 3 3 +   , 8 6 0 B O E ^ ( ( ( ) ( ( ^ ) _ ) _ _ d./ . $ ..=.=.o.# 0 ( _ 7.7.7.h.s.6   9 E ! ) _ e.e.7.e.p.a.h.h.a.a.h.k.V.8 S p.7.e.p.p.a.h.k.k.h.h.k.k.k.k.k.x.x.x.h.k.k.k.h.h.k.h.h.g.a.a.h.k.h.a.p.p.p.p.p.p.i.i.p.p.i.i.i.i.i.i.p.p.p.s.s.p.p.p.s.p.p.s.s.a.p.p.s.p.s.h.h.h.h.g.a.s.h.h.h.h.h.h.s.s.s.h.k.k.h.s.s.s.s.h.h.s.s.s.s.s.a.s.s.s.p.p.i.i.i.i.i.i.i.i.7.7.7.7.7.7.7.7.7.( H.E 0 _ ) ( ( ( ) ) _ _ _ ) ( ( ( ( ) ( ( _ ) ( ( ( ( ( ( ( ( ( ) ( ) _ _ ( ( ( ( ( ( ( ( ( ( ) ) ) _ ) ) ) ( ( ) _ _ _ _ _ _ _ _ _ _ _ _ _ _ _ _ _ _ _ _ _ _ _ _ 7.7.7._ _ _ _ _ _ _ _ _ _ _ _ _ _ 7.7.7.7._ _ 7._ 7.H.P p.e.i.i.i.i.i.i.7.i.i.i.p.p.p.p.p.p.p.p.s.h.h.h.h.h.h.k.x.c.N.c.x.x.x.c.c.N.c.N.M.c.M.V.V.V.V.V.M.V.x.x.M.V.c.x.M.V.M.M.M.M.M.M.V.c.x.c.M.N.N.M.c.c.c.x.x.c.x.k.k.x.x.x.k.k.x.k.h.k.k.h.h.x.c.c.c.M.M.M.V.D.H.H.H.H.K.K.K.H.D.D.K.K.D.V.S.H.H.S.N.V.x.c.e.9 x.x.c.h.k.x.x.x.k.k.h.p.7.7.( E P   O O I z.h.z.z.h.p.2 $ *.%.*.O.# % ` x.h.k.z.h.g.p.p.p.p.p.p.p.a.L , L 9 B N 8 O N 0 9 6     8 I , x.6   q o O o 8 0       0     O 0 +     0 0 O   + 6 +   + 0 + + p.X O B e.e.D E P P X s.e.  8 + J o   6 0 ,   O O 6 8 O 8 0 o   +   6 6 8 J 6       6 3   6 J 6 O   O q 8 O 8 I ",
"X   + o .     +     o + .     6       +   o   + o     6 O     O +   , 6 o   + 3   6 O ) B O , , , + I _ O , 6 J     6 q 6 0 6       O 0 8 J 6       + 8 6 6 6 ,       6 + 8 B + ( 0     + 3 3 6 + , 0 3 6 B 8 , ^ ^ ^ ^ ( _ ) ( _ _ ) ( _ _ d./ . $ ..=.=.o.# 0 ( ) ( ( 7.z.s.,   9 E ! _ 7.e.e.p.p.p.p.a.h.a.p.p.k.V.8 L p.7.e.7.p.g.h.g.a.h.k.x.x.k.h.k.x.k.a.l.x.x.x.k.k.h.h.h.k.k.a.p.a.a.p.p.p.i.p.p.i.i.i.e.7.7.e.i.i.i.i.p.i.i.p.s.a.s.h.a.a.s.h.h.s.a.s.h.p.p.g.g.s.h.h.z.h.a.s.h.z.h.s.h.h.k.h.h.h.z.x.h.h.h.h.h.s.s.s.s.a.a.s.s.s.s.s.7.e.i.i.e.7.7.e.7.7.7.7.7.7.7.7.i.) H.E 0 ) ( ^ ( ( ( ) ) ) ) ( ( ( ( ( ( _ _ _ ( ( ( ( ( ( ( ( ( ( ) ) ) _ ) ( ) ) _ _ ) ) ( ( ( ( ) ) _ ) ) ) ) ) _ _ _ _ _ _ ( ( ) _ _ _ _ ) _ ) ) ) ) ) _ _ _ _ _ 7.7._ _ _ ( ( ) _ _ _ _ _ _ _ _ _ 7.7.7.7.7._ 7._ 7.H.I p.i.i.i.e.i.p.p.i.7.7.e.i.p.p.p.i.p.p.p.a.s.g.h.h.k.k.h.h.x.c.x.k.x.x.x.x.c.c.c.c.M.c.c.N.M.M.M.M.V.V.M.c.V.J.D.M.N.N.M.M.M.M.M.N.N.c.c.M.M.M.M.N.c.M.N.c.M.M.c.x.x.x.x.h.h.k.k.g.a.k.x.x.x.c.c.N.M.V.V.V.V.S.D.J.J.K.H.S.D.H.H.S.S.H.H.S.S.D.S.c.A.c.M.i.9 x.c.M.c.x.x.x.x.x.k.h.h.i.7.) ^ L   O O U s.p.h.h.g.p.1 t *.%.*.O.# + ` h.p.a.h.h.g.p.p.p.i.e.p.p.a.P , P B 9 N 9 X S B 9 6     8 I , c.0     0 + J B         q J + J 0   o   + 0 o 0 B +     O q   6 a.X O B 7.e.S W P P X s.i.  8 + 6 0 B J 0 + X     + J U 8 8   O   + J 8 8 J O O     + J I I 8       O q J B J q ",
"8 + 6 o       o 6 @ 6 +       + 8   6 +   X     6 + w w X       + + + + o     6   8 o ` 0 O , + , + E ) O + 6 J   O 8 O   + 8     O , 8 O 6 6     o   0 + , 8   O     8 6 0 B + ` q     + , , 3 + O 6 3 , 0 9 O ^ ^ ^ ^ ( ( ) _ ) ` _ _ _ ( i.^   $ ..=.=.O.# 0 _ _ 7.) _ h.a.6   0 ! ! ( _ e.p.r.p.a.h.a.p.p.a.i.s.K.8 S p._ a.i.e.i.a.h.k.k.h.k.k.k.x.c.x.h.k.x.x.z.x.x.k.h.k.z.h.s.h.s.p.p.h.p.a.p.p.i.i.i.e.i.i.e.e.e.i.p.p.i.i.p.p.p.p.a.s.h.s.s.s.s.h.k.h.h.h.h.k.h.h.h.h.h.k.x.x.z.h.h.x.x.h.h.z.x.h.h.z.a.h.z.h.h.s.s.s.z.h.s.s.s.p.p.p.i.i.i.i.i.i.e.7.7.7.7.7.7.7.7.7.e.( H.E 8 e.( ( _ _ ) ) ) ( ( ( ( ( ( ( ( ) ) _ ( ( ( ( ( ( ( ( ( ( ( ( ( ( ( ( ( ( ( ( ( ( ( ( ) ( ( ( _ _ _ ) ) ) _ _ _ _ _ _ ) ) _ _ _ _ _ _ _ _ _ _ _ ) ( ( ) ) _ _ ) ( ( _ _ _ _ _ _ _ _ _ ) _ _ ( ( _ 7.7._ 7.7.7._ D.L p.p.7.7.7.i.i.i.i.i.i.e.e.i.p.p.p.p.s.h.h.h.k.h.s.z.z.x.c.v.x.x.v.z.c.v.x.x.v.v.M.V.M.c.M.V.V.V.V.V.S.V.v.M.M.M.M.S.V.M.M.V.V.M.c.V.V.V.V.V.V.V.M.M.V.V.M.c.x.c.c.c.x.x.x.x.k.x.c.k.k.k.h.c.x.c.N.M.V.S.S.D.D.D.H.K.H.H.P.P.H.H.P.K.K.K.K.D.V.M.S.N.x.V.7.8 x.c.k.x.x.x.k.h.h.h.a.p.e.) ! ! P X   o I z.h.g.h.z.h.- e &.%.*.O.# + _ h.a.h.a.a.g.s.a.a.a.p.p.p.h.! 3 P 8 0 0 8 X 0 B 0 6     8 L , c.q   + 0 6 o 8 ,       8 0 0 J 8       o B S q J         , B 0 h.X O 0 7.e.S P P L X p.)   8 O S 0 + + 8 , X O o 0 6     8   + O 8 0     , 6   +   0 q   + B         B 8 + 8 0 ",
"    + +       + + o 6 +       w o @ 8 6       + o     + o     o +     o +     6   8 O ( 0 O , + 3 + E ( O + 6 J O + o       + o   + 8       , 6   + , +     + ,     O ,   8 B 6 ` 0     + , , 6 + O 6 3 , 0 9 O ^ ( ( ( ( ( ( ( ( ( ( _ ` ` d./ X $ ..=.#.O.# 0 ^ ( _ ( _ z.s.8   0 E ! ( ) 7.e.e.i.a.g.g.a.a.h.s.k.K.8 S p.) e.g.a.p.g.k.x.k.h.h.k.k.k.k.k.x.c.z.z.h.h.k.h.s.h.h.h.s.s.h.h.s.s.s.s.s.p.p.p.i.i.i.i.i.i.i.i.p.p.p.p.p.p.p.p.a.s.p.s.h.h.p.p.s.z.h.h.h.g.s.s.h.h.h.h.g.s.g.h.h.h.s.z.x.z.h.h.h.h.s.h.h.s.h.h.s.a.s.a.a.s.s.p.i.i.p.p.p.i.i.i.e.e.7.7.7.7.7.7.7.7.7.( H.E 8 i._ _ ) ( ( ( _ _ ( ( ) ) ( ( ( ( ( ( ( ) ) ) ( ( ( ( _ _ ) ) _ _ _ ( ( ( ) _ _ ) ) ) _ ) ) ) _ _ _ _ _ _ _ _ ) ( ( ( _ _ ) _ _ _ _ _ _ _ _ _ _ _ _ ) ) ( ( _ _ _ _ _ _ _ _ _ _ _ _ _ ) _ 7._ _ 7.7._ _ _ _ _ 7.F.P i.p.i.7.7.e.e.7.7.i.i.e.e.i.p.p.p.p.s.s.s.s.h.h.h.k.z.z.z.k.k.x.c.x.z.z.v.M.x.x.A.c.c.M.V.v.c.v.V.c.M.V.v.c.c.M.V.M.M.M.M.N.N.M.V.V.V.M.M.M.M.M.c.c.c.x.x.c.c.c.x.k.k.x.k.h.l.x.k.x.c.x.x.x.c.c.c.M.V.S.S.D.H.K.P.H.H.H.H.K.K.K.P.S.S.S.S.A.V.A.D.M.x.V.7.8 x.c.k.x.c.c.c.x.k.h.g.p.r.8.! ! P X   o I z.h.h.h.g.p.1 e &.%.*.... + 7.k.s.k.g.g.g.p.s.a.a.p.p.i.p.U 3 P 9 0 0 8 O B 0 0 6     8 L , v.0 + 8 +     q 0     , 8 O     q O   + 0 3 O   6 8     + 8 X 0 a.X O 0 7.e.B P P L X p.)   8 o L +     , q +   0 0   o   B 6   q 0 +   o   8 + o 0 0       + 6 + 6 J 8       6 ",
"    o + o   + + .   @ +       +     X o       +       + * + + w .       + + + 3   8 O ^ q O + + 3 + I ( O + 6 J , 8     +   6 q + 0 ,       + 0 + , 0   O     8 + + 6 +   0 S 3 ( 0     + , , , + O 6 3 , 0 9 O E ^ ( ( ( ( ) ) _ ) _ _ ` ( i.^   $ ..=.#.O.# 0 ( ( _ ) _ z.s.6   0 E ! ( ) 7.e.e.e.p.a.a.p.a.h.h.s.D.8 S a.7.e.p.p.p.a.h.k.h.h.k.c.x.h.k.x.x.c.x.x.z.h.z.k.h.h.s.h.s.a.s.h.h.p.a.a.p.p.i.i.i.7.i.i.i.i.i.i.i.i.p.p.p.p.p.p.p.a.s.s.s.s.s.p.a.h.h.h.h.h.s.s.h.h.h.h.h.s.s.h.h.h.h.h.s.s.s.h.h.a.h.h.s.s.s.h.s.s.s.a.a.s.s.p.p.i.p.p.p.i.i.e.7.7.7.7.7.7.7.7.7.7.7.( K.^ 8 7.( _ ( ( ( ) ) ) ( ( ( ( ( ( ( ( ( ( ( _ _ _ ( ( ( ( ) ( ( ( ( ( ( ( ( ( ) ) _ _ _ _ _ _ ) ) _ _ _ _ ( ) ) ) ) ) ( ( _ _ ) ( ) _ _ _ _ _ _ _ _ _ _ _ _ ( ( ) _ _ _ _ _ _ _ _ _ _ _ _ _ _ _ _ _ _ _ _ 7._ ) _ 7.H.I i.p.i.i.i.i.i.i.p.i.i.e.e.i.p.p.p.p.a.s.p.p.s.h.k.h.k.z.z.x.x.z.k.x.x.x.x.v.v.x.x.c.c.c.v.c.c.c.c.V.M.M.V.M.M.V.V.N.M.V.M.c.c.M.V.V.M.N.c.c.M.N.c.M.M.c.c.c.M.c.c.x.x.c.x.k.x.x.h.x.x.x.c.k.N.N.N.V.A.A.V.A.S.D.S.S.H.H.D.J.K.P.K.S.S.D.J.D.S.V.M.c.k.M.7.8 x.c.x.x.x.x.x.x.k.h.a.p.p.7.~ ! L X X o I z.h.h.h.h.p.1 e &.%.*...# + ` s.s.s.g.g.g.s.g.a.p.p.p.p.a.P 3 P 8 0 0 8 O B 0 0 6     8 P 6 x.0 8 q         8 , 6 J 8   + O + J 6 0 B     + + 0 8 8 B 8   6 a.X O B 7.7.B P P L X p.)   8 O 8   O   o B B 0 I +     o + L B J J   o o   J J 8 J 6   +   o L J 6 J ,   +   , ",
"      + w + 6 o       + + + 6 w       X 6 6 6 +     . + + + 6 6         o + 3 6   8 O ^ 8 O + + 3 O I ( O + 6 J   8 +       * 8 o 0 , O   O o 8 + + 0         8 8 6 8 +   0 0 + ^ 8     + , , , + O 3 3 , 0 0 O E ^ ^ ( ( ( _ 7.7._ _ _ ` ( 2.Q   $ ..=.#.O.# 0 ` _ _ _ _ h.p.6   0 E ! ( ) 7.e.i.i.p.p.p.p.a.g.a.p.S.9 B a.e.7.e.e.e.p.a.h.h.h.h.k.h.h.k.l.k.h.z.x.z.h.h.h.s.s.p.h.h.a.p.a.p.i.p.p.p.i.e.e.7.7.i.i.i.i.i.i.i.i.p.p.i.i.p.p.p.a.h.s.p.s.s.a.p.s.s.s.s.s.s.s.s.s.s.h.z.h.s.s.g.g.z.s.p.s.h.h.s.h.h.k.k.h.s.s.s.s.h.s.s.s.s.a.p.p.i.i.i.e.7.7.7.7.7.7.7.7._ 7.7.7.7._ K.^ 8 _ ( _ ) ) _ _ ) ( ( ( ( ( ( ( ( ( ( ) ( ( ( ( ( ( ( ( ( ( ( ( ( ( ( ( ( ( ( ( ( ( _ ) ( ( ( ( ( _ _ _ ( ( ( ) ) _ _ _ ) ) ( ( ) ) _ ) ) ) ( ( ( ) ) ) _ ( ( _ _ _ ) _ _ _ _ _ _ _ _ _ _ _ _ ( ( ( _ _ 7._ ) _ 7.H.I e.7.7.7.7.7.7.7.i.i.i.e.e.i.i.p.p.p.a.s.s.s.s.h.k.s.z.x.x.x.x.x.z.x.v.x.z.x.v.v.x.V.M.M.V.V.V.V.V.S.M.M.V.V.V.V.c.M.M.M.M.M.M.M.M.M.M.M.M.M.M.M.M.N.M.M.c.x.k.x.x.c.x.x.x.k.h.h.k.k.k.x.x.h.c.M.c.x.c.N.M.V.D.S.A.A.H.K.J.D.H.K.H.I.P.H.S.S.S.S.V.c.k.M.7.8 x.c.x.x.x.k.k.k.k.h.a.e.e.) ! E L X X + U h.s.h.h.h.a.- e &.=.*.... + ( s.d.s.a.g.g.h.g.a.p.i.p.i.a.E 3 P 8 9 0 8 O B 9 9 6     8 P 8 M.6 + J ,     o S 8 6 8 8 O O   , J 3 6 q O O     3 8 6 B 6 O 6 p.X O B 7.7.B L P L X p.)   8 o 0 O     , 0 6 , , 6 + O   , 8 O   q +     O J 6   6 8 o     6 J 6 O 0 ,     o 8 ",
"      + + o + o       o + o + +       o +   o w       o     o o o     + o     6   6 O ^ 8 O + + , O I ( O + 6 J   o 6   o + +       8 o O   , o     , o     + 6     3 +   8 q 3 I 6     + , , , + O 3 3 , 0 0 O ! ^ ^ ( ( ( ( ) ` ( ( ` ` ` i.R   $ ..=.#.O.# 0 ( ( ( ( _ h.a.8   0 I ! ( ) 7.e.p.p.p.p.p.p.a.g.a.a.V.9 B p.7.7.i.p.p.a.a.g.h.k.h.h.g.h.x.k.h.k.h.z.k.h.h.h.s.s.s.s.h.s.p.p.p.p.p.p.i.i.i.i.e.i.i.e.e.7.e.e.i.i.i.i.i.i.p.p.a.s.s.p.s.h.s.p.p.h.g.s.s.s.h.h.s.a.g.h.h.k.h.s.s.h.k.h.h.h.h.s.s.h.h.h.h.h.s.s.s.s.s.a.p.p.p.p.p.i.i.i.i.e.7.7.7.7.7.7.7._ _ _ _ _ _ ( K.! 6 _ ( _ ) _ _ _ ) ( ( ( ( ( ( ( ( ( ( ( ( ( ( ( ( ( ( ( ( ( ( ( ( ( ( ( ( ( ( ( ( ( ( ( ( ( ( ( ( ( ( ( ) ) ) ( ( ( ( ( ( ( ( ( ( ( ( ( ( ( ( ( ( ( ) ) ( ( ) _ ) ( ( _ _ _ _ _ ) ) ) ) _ _ _ _ _ ) _ _ _ _ _ _ 7.H.L e.p.i.i.i.i.i.i.p.7.7.7.7.e.i.i.p.p.p.s.s.s.s.s.h.s.z.x.k.s.h.x.v.z.z.z.x.v.x.x.M.z.x.c.c.x.l.c.M.c.x.v.V.c.c.M.M.M.M.N.M.M.M.M.M.M.M.V.M.M.M.M.M.x.c.N.c.x.k.x.c.c.k.k.x.k.k.x.x.x.k.c.x.x.x.M.c.M.V.V.V.A.S.V.M.S.D.H.H.H.H.H.H.P.K.D.S.S.S.A.M.c.k.M.7.8 x.c.x.c.x.k.x.x.x.k.h.e.e.) ! E L X X + L s.a.s.g.s.i.* e &.=.*...# + _ k.s.s.g.g.g.g.s.a.p.p.e.7.p.P 3 L 8 9 0 8 O 0 9 8 6     6 L 8 x.+   + 6   + 0 8 O     6 o   , 0 +     6 , O   6 0     + 8   6 e.X O B _ ) B P L L O a.)   8 O B 6   o 8 6     o 0 6   1 B o     o 8 + 8 B ,       8 q   6 0 o   o 6 6 ,   0 8 ",
"    @ +     o o     o +       o .   o o       o o o + +         + o + + o     6   6 O ^ 8 O + + , O I ( O + 6 J     6 6 8 8 +       + 6 , 8 8         8 + 6 q         +   8 q , I 6     + , 3 6 + O 3 , , 0 0 + E E ^ ( ( ( ( ( ( ( ( ` ` ` i.R   $ ..=.#.O.. 8 ( ( ( ( _ h.p.6   8 P E ^ ) _ 7.e.e.e.p.p.p.p.a.a.h.V.B B p.7.7.e.i.p.a.a.a.g.h.h.h.k.k.k.h.h.x.h.z.k.h.z.z.h.h.h.p.p.p.s.p.p.p.p.i.i.i.i.i.i.i.e.e.7.7.7.7.i.i.e.i.e.i.p.p.p.p.a.p.p.s.s.p.p.p.h.s.a.a.s.h.h.g.h.a.p.g.h.h.g.h.p.s.h.s.s.h.h.p.s.a.a.s.h.h.s.a.p.p.p.p.p.p.i.e.i.i.i.i.i.e.7.7.7.7.7._ _ _ _ _ _ ( K.E 6 _ ( ) ( ( ) ) ( ( ( ( ( ( ( ( ( ( ( ( ( ( ( ( ( ( ( ^ ( ( ( ( ( ( ( ( ( ( ( ( ( ( ( ( ( ( ( ( ( ( ( ( ( ( ( ( ( ( ( ( ( ( ( ( ( ( ( ( ( ( ( ( ( ( ) ) ( ( ( ) ( ( ) _ ) ) ) ) ) ) ) ) ( ) _ 7._ _ ( ( ) ) ) _ _ F.L e.7.7._ 7.7.7.7.7.7.7.7.e.e.i.i.p.p.p.s.s.s.p.s.h.h.h.h.h.k.z.z.z.h.z.x.x.x.x.x.v.c.c.c.c.c.c.v.V.c.x.c.v.c.c.v.c.N.N.N.c.c.N.M.V.c.N.M.N.c.c.c.c.c.c.c.c.x.x.x.x.x.x.x.h.h.x.x.k.k.h.x.k.x.x.c.c.c.c.c.M.S.D.J.D.S.S.S.D.H.H.D.S.S.S.D.J.J.S.M.c.c.h.M.7.8 k.x.l.x.k.k.l.x.k.h.a.p.e.) ! E L     O J s.s.h.h.s.i.- $ &.=.*...# + ( k.s.s.h.g.p.a.p.p.p.a.p.e.p.P , L 8 9 0 4 X 0 8 8 6     6 L 8 z.8 +   0 0 J J         q q 6 L 6       , B 8 6 S 8       8 3 0 _   X 0 ) ) S L L S X a.)   8 O 6 0 6 0 0 +   ,   6 q 6 ^ J     o   Z 0 J J o   +   , J q J 0     O   0 J 8 L 8 ",
"o o 6 +       o + @ 6 6       + :   6 6 o     o + o + 6 o     o o + o o o   O 6   6 O ^ 8 O + + , O I ( O + 6 J     + o + + +       O 8 o 0 8       O 0 6 q q         6 , 0 0 + I 8     + , 6 6 + O 3 , , 0 0 + I E ^ ( ( ( ( ( ( ` ` _ _ _ i.R   $ ..=.#.O.# 0 ( ( _ _ _ h.i.3   8 P E ! ) _ 7.7.7.7.i.p.p.p.p.p.h.M.9 S p._ e.7.e.e.p.p.a.g.h.a.h.h.h.h.a.a.h.g.h.g.h.h.h.s.h.s.p.p.p.a.p.p.p.p.i.i.i.i.e.7.i.e.e.7.7.e.e.e.e.i.i.e.i.p.p.p.i.s.p.i.p.s.s.p.i.p.p.p.p.p.p.p.s.a.p.p.p.s.s.a.p.p.a.a.p.h.z.h.p.s.p.p.s.h.h.s.p.p.p.p.p.p.p.p.i.i.i.i.i.i.e.7.7.7.7.7._ _ _ _ _ 7.( H.E 6 _ ^ ( ( ( ( ( ( ( ( ( ( ( ( ( ( ( ( ) ( ( ( ( ( ( ( ^ ^ ^ ^ ( ( ( ( ( ( ( ( ( ( ( ( ( ( ( ( ( ( ( ( ( ( ( ( ( ( ( ) _ ( ( ( ( ( ( ( ( ( ( ( ( ( ( ( ( ( ( ( ) ) ) ) _ ( ( ) ) ) _ _ _ ( ( _ _ _ ) ( ) ) ) ) _ 7.F.L 7.e.7.7.7.i.i.i.i.7.7.e.e.i.i.i.p.p.p.p.s.s.a.s.s.h.s.s.h.x.x.z.s.h.c.x.z.z.v.x.z.v.x.k.z.c.c.c.c.V.M.c.c.M.V.c.c.c.c.N.c.c.c.M.M.c.c.c.c.c.c.c.x.c.x.x.x.x.k.k.h.h.h.h.h.a.h.h.a.h.h.h.k.c.x.x.c.M.c.M.V.S.A.V.S.S.S.S.S.D.H.J.D.J.S.S.S.S.V.M.M.c.h.c.7.8 k.c.x.x.k.h.k.k.h.a.a.p.e.) E E L X     J s.h.h.h.g.p.- $ &.=.*...# + ! k.p.p.h.g.p.p.p.i.i.p.p.e.p.E , L 8 9 N 8 X 0 8 8 3     6 L 3 z.o   + 0 + + 8 + O     0 B 6 6 6       3 L q , 3       o 8 J B 7.X X 0 ) ) S L L S O a.)   8 O 0 6 , 3 8 3   X   J , + O 0       6 B     8 8   O   8 8 6 + 6 6       B 8 o 8 0 ",
": @ + o   .   + o   + o   .   o +   6 6 .     + o     6 +     + +     + +     8   6 O ^ q O + + 3 O I ^ O + 6 J   6 +       8 6   O 8 +     , +     + ,     , ,       8 + 8 0 + I 8     O , 3 3 + O 3 , , 0 0 + E ! ^ ^ ^ ^ ( ( ( ( ( _ _ _ d.R   $ ..=.#.O.# 0 ( ( _ _ 7.h.p.3   9 P ! ( ) 7.7.e.e.e.p.a.a.p.p.p.k.c.9 S p.( 7.p.p.p.a.h.h.h.g.a.h.h.h.x.x.k.h.k.h.h.h.z.h.s.h.s.s.h.s.a.p.p.p.p.i.i.i.i.e.7.i.7.e.e.i.i.i.e.e.i.i.i.p.p.p.p.p.p.s.s.s.p.p.p.p.p.a.g.g.s.s.s.h.s.k.x.k.h.h.h.s.h.h.h.h.s.s.s.h.s.s.s.h.s.a.a.s.s.s.p.p.p.p.p.p.7.i.i.i.e.7.7._ _ _ 7.7.7.7.7._ 7.( H.E 8 7.( ( ( ( ( ( ^ ^ ( ( ( ( ( ( ( ( ( ( ( ( ^ ^ ( ( ( ^ ( ( ( ( ( ( ( ( ( ( ( ( ( ( ( ( ( ( ( ( ( ( ( ( ) ) ( ( ( ( ) ) ) ( ( ( ( _ _ _ ( ( ( ( ( ( ( ( _ ( ( ) _ _ ) _ ( ( ( ) _ _ _ _ 7._ _ _ _ _ _ 7.7._ _ _ 7.H.L 7.p.e.7.e.i.i.7.7.7.e.i.i.i.i.p.p.p.p.a.h.h.s.a.s.s.s.h.h.h.s.h.z.x.z.h.z.x.x.z.x.c.c.c.c.x.z.x.c.c.V.V.c.c.c.c.c.c.c.c.M.M.M.c.c.M.c.c.c.M.M.M.c.M.c.c.c.c.x.k.x.k.h.k.x.x.k.k.k.k.x.h.c.c.c.k.c.c.c.M.S.D.S.A.S.S.H.H.D.S.D.H.K.S.A.S.D.D.V.M.M.M.x.M.7.8 k.c.c.c.x.k.k.k.h.h.h.i.7.( E E U O   + L h.s.g.s.a.p.- $ &.=.*.... + ( z.s.p.g.a.i.p.s.p.e.e.e.7.p.P , L 8 9 B 8 X 0 8 8 ,     6 L , z.6 + 8 ,     + 6 O   , q   O O B +   O 6 6     6 6     + 0 + 8 e.O X B 7.) S L L S O a.)   8 o J       + 0 O   , 8       6 q + + 8 +       8 o   + J       0 +   O 8 8       8 ",
"      6       +     o +   X   +       . 3     +         + o + 6       . : + + 6   6 O ^ 8 O + + , + I ( O + 6 J 6 6         + q 6 6 +       o 8 , o 6     o   8 +   8 +   8 8 3 E 8     O 6 , , + O 6 6 , q 8 + E ^ ^ ^ ^ ( ) ) ( ( ` ` ` ^ d.R   $ ..@.@.O.# q ` ( _ _ ^ h.i.6   8 L E ! ( ) 7.e.e.p.p.p.p.p.a.a.s.S.9 S e.e.e.i.p.a.a.a.h.h.h.k.k.k.k.k.x.x.x.z.h.h.z.z.h.s.s.s.a.p.p.a.a.p.i.i.i.i.i.i.i.i.i.i.i.i.7.7.e.i.i.i.i.i.p.p.p.a.a.a.s.a.p.p.p.s.s.g.s.p.a.g.a.p.g.g.s.g.h.g.s.s.h.a.s.h.h.s.s.h.z.s.s.s.h.h.s.s.h.p.p.p.p.i.i.p.p.p.i.7.7.7.7.7.i.7.7.7._ _ _ _ _ _ ( H.E 6 ( ^ ( ( ( ( ( ( ( ( ^ ( ( ( ( ( ( ( ( ( ( ( ( ( ( ( ( ^ ^ ^ ( ( ( ( ( ( ( ^ ^ ( ( ( ( ( ( ( ( ( ( ( ( ( ( ( ( ( ( ( ( ( ( ( ( ( ) ( ( _ ( ( ( ( ( ( ) ) ) _ ( ( ( ( ( ) ) ) ( ( ( ( ( ( ( ( ( ( ( ( ( _ ( 7.( 7.H.J 7.e._ _ i.7.7.7.e.p.i.7.e.i.i.p.a.p.a.a.a.a.a.s.s.s.h.z.k.h.h.z.x.c.z.z.x.x.x.x.x.c.c.c.V.V.v.M.V.c.x.V.V.A.c.M.V.M.c.c.M.M.N.M.V.N.c.N.M.c.c.M.M.N.c.c.c.c.x.x.x.x.h.h.x.x.h.h.x.k.k.c.x.x.c.c.M.M.M.V.S.D.H.J.S.K.H.H.H.P.K.D.S.K.D.H.H.S.M.M.N.M.x.M.i.4 k.c.x.x.x.k.k.k.h.g.a.p.7.8.! P L     o U s.s.g.h.s.p.- t &.#.*...# + _ h.p.p.p.a.g.h.g.p.e.p.p.e.a.! 3 L 9 8 0 3 O 9 8 9 ,     6 B 3 k.q 8 ,   O     8 8 8 J +   +   + J 6 0 0   O   + 8 8 + J 6   9 e.X X 0 7.) B L L S X p.)   8 + 0       O 6 J B B +   O o   U J B 6 O       0 J 6 J +   + O   0 8 q B o   o   + ",
"      + o 6 +         o + o + o         6 8 6 o     . X + o o +         + o + 6   6 o ^ 8 O + + 3 + I ^ O + 6 J O , O     O + + + , ,       + 8 , , 6 O       6 8 + 6     8 8 , E q     O 3 , 3 + O 6 6 , q 8 + E ^ ^ ^ ^ ( ( ( ` ( ` ( ` ^ d.R o $ ..=.@.O.# 0 ` ( ) _ ( z.i.6   9 P ! ( ( ) ) 7.7.e.i.p.p.a.a.p.a.V.8 S e.e.e.7.e.p.p.p.a.g.g.k.k.h.h.h.h.k.x.x.h.h.h.h.h.h.h.h.h.s.s.s.a.p.p.p.p.i.i.i.i.i.i.i.i.i.i.i.i.i.e.i.i.i.i.p.p.p.p.s.s.s.s.s.s.a.p.h.h.p.a.s.a.p.h.s.a.s.h.g.s.s.h.h.s.a.s.h.h.s.p.h.h.s.s.s.s.s.h.s.s.p.p.p.i.i.i.i.i.e.i.i.7.7.7.7.7.7.7._ 7._ _ _ ( H.E 6 ( ( ( ( ( ( ( ) _ ( ( ( ( ( ( ( ( ( ( ( ( ( ( ( ( ( ( ^ ^ ^ ^ ( ( ( ( ( ( ^ ^ ^ ( ( ( ( ( ( ( ( ( ( ( ( ( ( ( ( ( ( ( ( ( ( ( ( ( ( ( _ ( ( ( ( ( ( ( ( ( ( ( ( ( ( ( ( ) ) ( ( ( ( ) ) ) _ ) ) _ _ _ _ ( 7.( 7.F.L i.e.7.7.e.7.7.i.7.7.7.7.e.i.i.i.p.p.p.p.p.p.a.s.s.h.h.h.h.k.z.z.z.x.z.z.v.v.x.x.M.c.c.c.v.v.c.c.v.V.M.V.v.M.x.v.M.N.M.M.V.M.c.M.V.V.M.N.M.M.M.M.c.V.M.c.c.c.x.k.h.x.k.k.x.x.h.h.k.c.h.h.h.c.M.c.x.c.M.M.M.M.V.D.H.D.S.D.H.H.D.D.H.H.H.S.S.D.V.N.S.c.k.c.i.9 x.c.k.x.x.x.k.k.h.h.g.p.7.) ! P L     o U h.s.g.g.g.p.- e &.=.*...# + _ k.s.s.g.g.p.p.h.p.p.p.p.e.p.E 3 L 9 8 0 3 + 9 9 0 ,     6 S 3 v.q O 8 O     + 0 6 6 0 6     O 6 8 , 8 0 O   o   B J o J 3   3 e.X X 9 7.) S L L D O e.(   6 + J   O   , q , , + 6       q , O + 8 + O     0 6 o + 6   o   6 q 6 o , , +     + ",
"      + o + o +       o 8 o 6 o       + + o o +       o @             o o   O 6   6 + ^ 8 O + + 3 + I ^ O + 6 J   O 6 O O 6 +     O 6 +   O 6 6 O + + o     o 6 w O + o   0 8 + I 8     O , , 6 + O 6 3 , q 8 O E ^ ^ ^ ^ ^ ( ( ` ( ( ( ` ^ d.Y o $ ..=.#.O.# q ` ( ( _ ( z.p.,   0 P E ! ( ` ) 7.7.e.p.p.p.p.p.p.p.V.8 S e.e.e.7.p.a.a.a.h.h.k.g.h.h.h.k.h.h.h.h.h.h.h.h.h.s.h.s.s.s.s.p.p.p.p.p.i.i.7.7.7.7.e.e.e.e.e.e.7.7.7.i.i.i.i.i.p.p.p.p.p.p.p.p.p.p.p.a.a.p.s.h.s.p.s.s.a.s.s.h.s.s.h.s.s.s.s.s.s.s.p.h.s.h.h.s.a.p.a.s.p.p.i.i.i.i.e.i.e.e.i.i.7.7.7.7.7.7._ _ _ _ ) _ ( H.E 6 ) ( ( ( ( ( ( ( ( ( ( ( ( ( ( ( ( ( ( ( ( ( ( ( ( ( ( ^ ^ ^ ^ ( ( ( ( ( ^ ^ ^ ^ ( ( ( ( ( ^ ^ ( ( ( ^ ( ( ( ( ( ( ( ( ( ( ( ( ( ( ( ( ( ( ( ( ( ( ( ( ( ( ( ( ( ( ( ( ( _ ) ) ) ) _ _ _ _ _ ) ) _ _ _ _ ( 7.( 7.F.L i.7.7.e.7.7.i.i.7.7.7.7.e.i.i.i.i.p.p.p.p.a.s.s.h.h.h.h.h.k.z.k.h.x.x.x.v.x.z.z.x.v.c.c.c.c.c.c.c.M.v.M.M.M.x.c.M.M.M.N.N.M.M.M.N.M.c.c.M.M.c.c.x.c.x.x.x.x.x.x.c.x.k.k.k.k.k.k.x.h.k.c.x.h.k.x.M.N.V.S.C.V.A.D.H.D.K.P.H.D.P.I.H.D.K.D.M.A.S.V.V.c.k.c.e.9 x.c.k.x.x.x.k.h.h.g.g.p.7.) E P P     o U h.s.s.s.s.p.* e &.=.*...# + _ k.a.s.g.g.p.i.a.p.i.p.p.e.a.! 3 L 9 9 N 8 + 0 9 0 ,     6 S 3 x.,   8 8     J 0     + 0 +   8 J O     6 8     6 0       6   3 e.X X 9 7.) B L L L O e.!   6 o S + O O 0 8     + 6 6   8 0       6 8   O 0 B       8 8 O + 0 8     + 8 + O 6 0 ",
"    o +       +       o o   o o o     6       o + o o 6         w o o +       ,   6 o ^ 8 O + + , O P ^ O , 6 J     8 6 , 8 +       6 6 + , 8       O 6 o o 8 +     + 6   0 8 + I 8     O , , 6 + O 6 3 , 8 8 O E ! ^ ^ ^ ^ ( ( ( ( ( ( ` ^ d.Y   $ ..=.#.O.# 0 ( ( ( _ ( h.i.,   0 P P E ( ) ) 7.e.i.p.p.p.p.p.p.p.V.9 S e.7.7.e.e.r.e.p.a.g.h.a.a.h.k.k.h.h.a.h.h.h.h.h.g.s.s.p.p.p.p.p.i.i.p.i.i.e.7.7.7.e.e.e.7.7.7.7.7.7.7.7.7.e.i.i.p.p.p.p.p.p.p.p.a.s.s.p.p.p.p.s.s.p.s.s.a.p.s.s.s.p.a.s.s.s.s.p.p.s.h.a.s.s.s.a.p.p.p.p.i.i.i.i.i.i.i.i.7.7.7.7.7.7.7.7.7._ _ _ _ ) ( _ ( H.E 6 ) ^ ^ ^ ^ ^ ^ ^ ( ( ( ( ( ( ( ( ( ( ( ( ( ( ^ ^ ^ ^ ( ^ ^ ^ ^ ( ( ( ( ( ( ^ ^ ( ( ( ( ( ^ ^ ^ ( ( ( ^ ( ( ( ( ( ( ( ( ( ( ( ( ( ( ( ( ( ( ( ( ( ( ( ( ( ( ( ( ( ( ( ( ( ( ( ( ( ) ) _ ) _ ) ) ) ) ( ( _ ) _ ( _ S.L e.7.7.7.7.7.7.e.7.i.e.7.7.7.e.i.i.i.p.p.p.p.s.s.h.s.h.k.h.h.s.s.h.h.h.h.z.z.x.x.x.x.x.x.k.z.c.c.x.c.c.v.M.M.c.c.v.M.N.c.x.c.M.N.x.c.x.c.M.c.x.c.c.c.N.N.c.x.h.k.c.k.k.k.k.k.x.x.x.k.k.c.x.k.x.x.c.c.c.c.M.V.V.V.M.H.M.V.D.S.S.S.A.D.S.D.S.M.S.S.c.c.k.x.7.8 k.x.k.k.k.k.k.h.a.a.a.p.7.) E P U X   O L s.a.a.s.s.p.- e &.=.*.O.. + _ h.p.s.g.g.g.p.p.i.i.p.r.7.a.! , L 9 8 0 3 + 9 8 0 ,     6 S 3 p.8   o B 8 J L   O +   6 q 8 J 6   o   + J 6 0 U +   O O 0 B , e.O X 9 ) ( B D S L O e.^   6 O 8 J 8 0 0     +   8 U 8 I J         J 0 J I +   +   + 0 8 J J   o   + q q 0 J 0 ",
"w + 6 o   o .   o o w +       + + + o +   . . . 6 + + 6   .     w o + w o     3   6 o ^ 8 O + + , O L ^ + , 6 J     6 + + 6 o       + , + 6 8       o 8 + + 0 O       6 O 0 8 3 L 6     O , , 6 + O 6 3 , 8 8 O I E ^ ^ ^ ^ ( ( ( ^ ( ( ` ( d.U   # ..@.#.O.# 0 ^ ( ( _ ( h.i.,   0 P P E ( _ 7.8.7.e.e.p.p.p.p.p.p.V.9 S 7.) ) p.a.p.p.a.h.h.g.h.h.a.a.g.h.h.h.g.h.g.s.a.a.s.s.p.p.p.p.p.p.p.p.i.i.i.i.i.i.e.e.i.e.7.7.7.7.i.i.7.7.e.i.i.i.i.p.p.p.p.p.p.p.s.s.a.a.p.i.p.p.i.p.p.p.p.p.p.p.p.p.s.p.p.p.a.s.s.s.a.a.p.p.p.p.p.s.i.i.i.i.i.i.i.i.7.7.7.7.7.7.7.7._ _ _ _ _ _ _ _ _ ( H.E 6 ) ^ ^ ( ^ ^ ^ ( ( ( ( ^ ^ ^ ^ ^ ^ ( ( ( ( ^ ^ ^ ^ ^ ^ ^ ^ ^ ^ ^ ( ( ^ ^ ( ^ ^ ^ ^ ^ ( ^ ^ ^ ^ ^ ^ ^ ^ ^ ^ ^ ^ ^ ^ ^ ( ( ( ( ( ( ( ( ( ( ( ( ( ( ( ( ( ( ( ( ( ( ( ( ( ^ ^ ^ ( ( ( ( ( ( ( ( ) ) ) ( ( _ ) _ ( ) M.J 7.i._ _ 7.7.7.7.7.7.7.7._ 7.7.7.7.i.i.i.p.p.p.a.s.p.s.h.h.s.s.s.h.s.h.h.h.z.x.x.z.x.x.x.z.x.c.c.x.M.v.c.c.x.x.c.c.x.c.M.c.x.x.c.c.c.c.M.M.N.c.M.M.N.N.M.N.c.x.x.c.x.x.x.k.k.x.k.k.c.k.k.k.c.N.x.k.M.N.c.M.A.S.S.A.K.A.S.H.J.D.D.S.H.V.A.D.S.V.M.c.c.l.x.) 3 k.x.k.k.k.k.h.g.a.p.p.p.8.( E P P X   O L a.p.s.g.s.p.* e &.=.*.... . _ h.p.s.p.p.p.p.p.p.i.i.e.7.p.I , S 9 8 0 3 O 9 8 9 ,     6 B , a.6   O 0 6 8 8 + O O   q 8 + 8 +   O   + 0 6 8 0 O O     8 L , ) X O 9 ) ( B L B S O e.(   6 O 0 S + 6 8   X O o 0 8 +   8 +   + o J + o q o +     B 6 , o q +     O 0 8 , 8 6 ",
"o o + +     . + + o + +       + o o o +       o @     +   .   o       o o   + 8   6 O ^ 8 O + + , O L ^ + , 6 J   o +     + +       + o O o 6 o     O 6 O O 8         + O q q + L 6     O , , , + O 6 3 + 8 8 O I E ^ ^ ^ ( ( ( ^ ^ ( ( ` ( d.U   # ..=.#.O.# 0 E ^ ^ _ ( s.p.,   9 P E ! ( ) ) 7.7.7.e.e.r.p.p.p.p.V.8 B _ ( ) 7.7.7.e.p.p.p.p.g.g.a.g.h.h.h.h.p.s.s.s.a.s.a.p.s.p.p.p.p.p.p.i.e.e.i.i.e.7.7.7.7.7.7.7.i.e.7.7.e.e.e.i.i.i.i.i.7.e.i.i.i.i.i.e.i.p.p.p.s.s.p.p.p.p.p.p.a.s.a.p.p.p.a.s.s.p.p.p.p.p.s.s.s.a.p.p.p.p.p.p.i.i.i.i.7.7.7.7.7.7.7.7._ _ _ _ _ _ ) _ ( ^ F.E 6 ) ( ( ( ^ ^ ^ ( ( ( ^ ^ ^ ^ ^ ^ ^ ^ ^ ^ ^ ^ ^ ^ ^ ^ ( ^ ^ ^ ^ ^ ^ ^ ^ ^ ^ ^ ^ ^ ^ ^ ^ ^ ^ ^ ^ ^ ^ ^ ^ ^ ^ ( ( ( ( ( ( ( ( ^ ^ ( ( ( ^ ( ( ( ( ( ( ( ( ^ ^ ^ ^ ^ ^ ( ( ^ ^ ( ( ( ( ( ( ^ ( ( ) _ _ _ _ ( ( ( ( _ M.J 7.i._ _ 7.7._ 7.7._ 7.7.7.7.e.7.7.i.i.i.i.i.p.p.p.s.p.s.s.h.h.h.s.z.z.z.h.z.x.z.h.x.c.c.x.c.c.c.c.c.c.c.v.c.c.x.c.x.c.c.c.x.c.c.c.M.x.x.c.N.M.M.c.c.x.x.x.c.c.x.x.k.x.x.x.x.x.k.k.h.k.c.x.x.x.x.c.x.x.c.M.V.V.V.V.M.D.H.S.V.H.K.M.S.H.S.M.A.S.M.c.x.k.x.8.8 x.x.x.h.h.h.h.h.a.p.i.e.) ( E P L X   + L s.p.s.h.s.i.- $ &.=.*.... . ^ s.p.s.a.a.p.p.e.e.e.e.e.e.p.E + S 8 8 0 3 O 9 8 9 ,     6 B , s.6   q +     + q     6 0 o     0 +   , 0 ,     O ,     O , + , !   O 9 ` ( B L B S O e.(   6 O 0 O     3 0 + , + +       + 6   + , +     O 8 + + 6 6   O O 6 6   + 8 8     o 8 ",
"      6 X     8 .     o       @       + +     8       o 6 + + 6         + o + 8   6 O ^ 8 O + + , O L ! O , 6 J + 3 o     O + : o + +       + 6   o o O     + +     O + O 8 0 O U 6     O 3 , , +   , , + 8 8 O I E ^ ^ ^ ( ( ( ( ( ` ( ` ( d.U   # ..@.#.O.# 0 ^ ( ^ _ ( s.p.,   8 L E ! ! ( ) 7.7.7.e.e.p.p.p.p.p.V.8 B ) ) 7.7.7.i.p.p.a.h.h.a.a.h.h.k.h.h.s.s.s.g.g.h.g.p.i.a.p.p.p.p.p.i.e.7.7.7.7.7.7.7.7.7.7.7.7.7.7.7.7.e.e.i.i.i.i.i.i.e.i.p.p.p.p.p.i.7.i.p.p.s.s.p.p.p.p.p.s.s.s.s.s.p.a.h.h.p.p.p.p.i.p.s.h.s.s.p.i.p.p.i.i.i.i.i.7.7.7.7.7.7.7.7.7._ _ _ _ _ ) ( ) ( ^ D.I 6 ) ( ( ^ ^ ^ ^ ( ^ ^ ^ ^ ^ ^ ^ ^ ^ ^ ^ ^ ^ ^ ^ ^ ^ ^ ^ ^ ^ ^ ^ ^ ^ ^ ^ ^ ^ ^ ^ ^ ! ^ ^ ^ ^ ^ ^ ^ ^ ^ ^ ( ( ( ( ( ( ( ( ( ^ ^ ^ ( ( ( ( ( ( ( ( ( ( ( ( ^ ^ ^ ^ ^ ^ ( ( ( ( ( ( ) ) ) ( ( ( ( ( ( ) _ _ ( ( ( ( _ M.L 7.i.7._ 7.7.7.7.7._ 7.7.7.7.i.e.7.e.i.i.i.p.p.p.a.s.a.p.s.h.h.h.s.h.h.h.z.x.x.x.x.k.k.z.x.x.x.x.z.k.x.x.M.c.M.c.c.c.c.x.c.N.M.c.x.c.x.x.c.c.c.c.c.M.c.x.x.x.x.k.h.k.k.k.x.x.k.k.k.k.h.k.k.x.c.x.c.x.c.M.S.D.S.S.D.A.S.D.D.D.D.D.D.V.H.D.c.V.S.V.c.x.k.x.) 9 x.k.k.h.h.h.h.h.h.a.p.e.) ) E P L     o L s.p.s.g.a.i.* e &.=.*...# . ^ a.d.s.g.a.p.p.e.e.e.e.i.e.a.E + S 8 8 N 3 O 9 8 9 ,     6 B , d.0 0 0   O O O 3 q B 0 + O O   6 8 , 0 S O   + O 6 6 6 E + O , ! X O 9 ( ( B L S B X e.(   6 o 8   O O O B 8 B J o     + + J 8 L 6     o   0 J + 0 6 O     + B 0 0 J +   O O + ",
".     6 6 + + o       w 8 o 6 + .       6 + + 6         8 + + :         + + o 6   6 O ^ 8 O + , 3 O L E O , 6 J 6 6   O o   o 8 , 6 +   O   O 6 + q ,   O     8 + 6 8 +   6 B O I 8     O 3 , , o   , , + 8 8 + I E ^ ^ ^ ^ ( ^ ( ( ` ( ` ^ s.U . # ..@.@.O.# 0 ( ( ^ _ ( s.p.+   8 L I ! ( ) e.7.7.7.e.p.a.a.a.a.p.V.8 B _ _ e.e.p.p.p.e.p.h.k.h.h.h.h.h.h.k.h.x.z.h.s.s.g.s.p.p.p.p.p.p.i.i.i.e.e.e.e.e.i.i.i.7.7.7.7.7.7.7.7.7.7.e.i.i.i.i.i.7.i.p.p.p.p.p.i.s.s.i.7.i.p.p.s.p.p.p.p.a.a.a.p.h.s.a.a.s.s.a.p.s.s.s.p.i.p.p.p.i.7.7.e.i.p.i.e.i.7._ _ _ _ _ 7.7.7.7.7.7._ ) _ ) ^ D.I 6 ( ^ ^ ( ( ( ( ( ( ^ ^ ^ ^ ^ ^ ^ ^ ^ ^ ^ ^ ^ ^ ^ ^ ^ ^ ^ ^ ^ ^ ^ ^ ^ ^ ^ ^ ( ^ ^ ^ ^ ^ ^ ^ ! ^ ^ ( ^ ^ ^ ^ ^ ^ ^ ^ ^ ! ( ( ( ( ( ( ( ( ( ( ( ( ( ( ( ( ( ( ( ( ( ( ^ ^ ^ ^ ^ ( ( ( ( ( ( ( ( ( ( ( ( ) _ _ ( ) 7.V.L 7.e.7.7._ _ 7.7._ 7.7.7._ _ 7.7.7.i.i.p.p.p.p.s.s.p.s.s.h.s.s.s.h.k.h.h.x.x.h.h.z.k.k.x.c.c.c.x.c.x.c.x.c.z.c.c.c.c.x.c.c.c.c.x.x.c.x.c.M.c.c.M.M.c.c.c.c.x.x.x.c.x.k.k.x.k.h.h.h.h.h.k.h.h.x.x.c.c.x.x.N.V.A.S.S.J.H.D.D.H.K.H.D.J.M.V.J.S.M.V.M.c.x.k.( 8 k.h.h.k.h.h.k.k.k.a.p.7.) ) E P L     O L s.a.p.a.p.q.- e &.=.*...# + ( s.i.a.a.p.p.e.p.p.r.i.i.e.p.L + S 9 8 B 6 + 9 8 9 ,     6 S 3 z.  + 0 O       J , O B 6       , q 6 8 0 O       8 6 8 6 + O 3 ( X O 9 ( ( B L S B X e.(   6 + q O   O   8 8 , q ,       8 0 , 6 q 6     + 0 + + 8 8   o   6 0     6 + O     8 ",
"      + + @ :           6 + + + .     o o   X w       : +     + ,     + X   X 6   6 o ^ 0 O , , , + J E O , 6 B   , 6     + +     o +       + + o o +         6 6 o + O   0 0 O I 8     O , , 3 , O 3 3 + 8 8 O E ^ ^ ^ ^ ( ( _ ^ ^ ^ ` ^ ( p.I . $ ..=.=.O.# 0 ( ^ ^ ^ ^ a.p.3   0 P E ! ( ( ( 7.7.7.e.e.e.i.i.p.a.M.9 B ) ( ) 7.7.7.7.p.p.p.g.h.g.g.h.s.a.s.g.s.a.p.p.p.p.p.p.i.i.p.p.p.p.p.p.i.i.e.7.7.7.7.7._ 7.7.7.7.7.7.e.7.i.i.i.7.7.7.i.p.i.i.i.i.p.p.p.p.i.e.p.s.p.p.p.p.i.i.a.h.s.s.h.p.s.p.p.a.s.p.p.s.p.p.s.s.p.p.a.i.p.p.i.7.7.7.7.i._ _ 7.7.) ) 7._ _ _ _ _ _ _ _ _ ! F.E 6 _ ^ ( ( ( ( ( ( ( ^ ^ ( ^ ! ^ ( ( ^ ^ ^ ^ ^ ^ ^ ^ ^ ( ^ ^ ^ ^ ^ ^ ^ ^ ^ ^ ^ ^ ^ ^ ^ ^ ^ ^ ^ ^ ^ ^ ^ ^ ^ ^ ^ ^ ^ ^ ^ ^ ( ^ ^ ^ ( ( ( ^ ( ( ( ( ( ( ( ^ ( ( ( ( ( ( ( ( ( ( ( ( ( ( ( ( ( ( ( ( ) ) ) ) ( ( _ ( ( A.L 7.7._ 7.7.7._ _ 7.7._ _ 7.7.7.7.7.i.i.i.i.i.p.p.p.p.h.s.s.h.s.a.h.z.h.h.z.z.h.h.z.x.c.c.x.c.c.c.x.N.c.x.c.c.c.c.c.x.x.x.c.c.x.c.M.M.x.x.c.x.k.x.M.M.c.x.x.x.x.k.k.k.h.h.k.h.h.h.k.x.x.k.k.k.x.x.x.c.c.c.M.M.M.M.V.S.S.S.S.S.D.H.H.S.D.S.A.M.N.c.c.c.k.z.) 3 k.x.l.k.h.a.h.g.p.p.p.i.7.( E I L O   o L s.p.i.p.p.d.* e &.=.=...# . ` h.p.g.j.g.p.p.i.e.e.7.e.7.r.P , L 9 9 N 3 + 9 8 0 ,     6 B , x.+   + 6     0 8     o 6 o   + J ,     8 ,     6 8   O   6   , ( + X 0 ( ( S L L S O 7.^   6 O 0 o     8 8   O   8 o   + S   O   + + O O 6 6       6 ,   o 6 +     O 8   O + 0 ",
"      + +   o +       + o   . 8       o o .   X + + + +         6 6 6 ,     X w   6 o ! 8 O , + , + J E O + 3 0 O   , 6 8 , o   .   + 6     + @ . . w +     o 6     , ,   6 q , I 8     O , , 3 , O 6 3 , 8 8 O ^ ^ ^ ^ ^ ^ ^ ( ( ` ` ( ^ ( g.E . $ ..@.@.O.. 0 ^ ^ ( ( ( s.i.,   9 P E E ( ( _ 8.7.7.7.e.e.i.p.p.p.N.9 B 7.) 7.7.i.p.p.g.g.a.g.z.h.h.z.z.h.g.s.p.s.s.s.p.i.p.s.p.p.p.p.p.i.i.i.i.i.i.i.e.i.7.7.7.7.7.7.7.7.7.7.i.e.7.e.i.i.i.7.p.p.i.p.s.h.s.p.s.p.p.a.s.p.p.p.z.s.s.s.a.p.i.p.p.h.s.i.p.h.h.s.s.p.p.s.s.p.p.a.p.p.p.i.i.i.e.7.7._ _ _ 7.7._ 7._ _ _ _ _ _ _ _ _ ^ F.I 6 ) ^ ( ( ( ^ ( ( ( ^ ^ ( ^ ^ ( ( ( ^ ( ( ^ ^ ^ ^ ^ ^ ^ ^ ^ ^ ^ ^ ^ ^ ^ ^ ^ ^ ^ ^ ^ ^ ^ ^ ^ ^ ^ ^ ^ ^ ^ ^ ^ ( ( ( ^ ^ ^ ^ ^ ^ ^ ^ ^ ^ ^ ( ( ( ( ( ( ^ ^ ^ ^ ^ ^ ^ ^ ^ ^ ( ( ( ( ( ( ( ( ( ( ( ( ( ) ( ( ) ( _ ^ ( A.L _ 7.7.7.7.7._ 7.7._ _ _ 7.7.e.i.i.p.i.i.i.p.p.p.p.s.s.s.s.h.h.h.h.x.k.h.z.k.h.k.x.k.c.c.c.x.x.c.N.N.c.c.M.M.c.c.c.c.x.x.c.M.N.c.x.N.c.c.c.c.c.c.x.c.x.x.c.c.c.x.k.k.k.k.k.k.k.k.k.k.k.k.k.k.x.c.c.c.c.c.M.S.S.S.S.S.D.H.J.D.D.H.H.D.D.S.S.S.M.N.c.c.k.x.) 3 k.x.l.k.k.h.h.h.g.a.p.i.7.( E I L O   O L h.p.p.s.p.d.- e &.%.*...# o ( g.r.a.g.g.p.d.d.p.e.e.e.e.p.P , J 9 9 B 3 O 9 8 9 ,     6 B , z.+   + 0 B 0 0 +       8 0 q J 8       8 0 6 q J ,     + , + 0 _ +   B ( ( B J L S O 7.^   6 O 8 J q 8 q o   o   0 0 , 0 8   O O   6 8 0 B 6 O     0 L B J J         0 6 8 q 0 ",
"o @ + +       o o + + +       o + + + + o     X + o + +       X , + + , o     6   6 o I 8 O , + , + J E O + , 0     , + + 6 6   o     8 6 8 8       + 6 o 6 8 o     O 6 o 6 0 + I 8     + , , , + O 6 3 , 8 8 O E ^ ^ ^ ^ ^ ( ( ( ( ^ ^ ! ~ p.I . $ ..@.=.O.. 9 ^ ^ ( ( ( s.i.,   8 P E E ^ ) 7.7.7.e.e.r.p.p.a.p.p.N.9 B 7.) 7.7.i.p.i.p.p.s.h.h.s.s.g.h.g.s.p.h.s.p.p.p.p.p.p.p.p.p.p.i.i.e.e.7.7.7.7.7.7.7.7.7.7._ _ 7.7.7.7.i.7.7.7.i.i.i.7.i.i.i.p.a.s.a.p.p.p.p.p.p.p.p.p.a.p.p.p.p.s.s.s.p.s.s.i.i.p.p.p.s.p.p.p.p.p.p.p.p.p.i.i.i.i.7.7.7.7._ ) _ 7.7.) _ _ _ _ _ _ _ _ _ ( H.I , ) ^ ( ( ( ( ( ( ( ( ^ ( ^ ^ ( ( ^ ^ ( ( ( ^ ^ ^ ^ ^ ^ ( ^ ^ ^ ^ ^ ^ ^ ^ ^ ^ ^ ^ ^ ^ ! ^ ^ ^ ^ ^ ^ ^ ^ ^ ^ ^ ^ ^ ^ ^ ! ^ ^ ^ ^ ^ ^ ^ ^ ^ ^ ^ ^ ^ ^ ^ ^ ^ ^ ( ( ( ( ( ( ( ( ^ ^ ^ ( ( ( ) ( ( ( ( ( ( ( ) ( ( ^ ) S.L _ 7.7.7.7.7.7.7.7.7.7.7.7.7.7.7.e.i.i.i.i.i.p.p.p.s.p.p.a.s.h.h.h.s.h.h.z.z.h.h.h.k.k.k.h.k.x.x.x.x.k.x.c.c.k.k.x.x.x.c.c.c.c.x.x.x.c.c.c.x.N.c.k.c.x.x.c.x.x.k.h.h.k.h.h.h.h.h.h.h.h.k.k.h.k.x.c.x.x.c.c.M.V.A.V.V.S.D.S.A.S.S.D.J.H.D.V.V.S.M.x.x.k.x._ 8 k.z.k.h.k.h.s.a.h.g.p.i.7.( E I L O   O J h.s.a.g.p.p.- & &.=.*.o.# @ ( h.p.a.r.r.p.d.d.p.p.i.r.e.p.P > S 9 8 0 3 O 9 8 8 ,     6 B , x.+   6 8 8 + , +       B 0 6 8 8   O   + J B + B 6   O   0 6 B 7.O   B ( ! 0 S L B O 7.^   6 o 8 ] + + 0 +       B 6 + 6 8 O     , 0 6 O 6 6 ,   O 8 6     8 +   O O 0 + + + , ",
"+ + 6 o       X + + + +   .     o + + o       o o     + o     + O     + +     8   6 o I 6 O , + , + J E O + , 0   O 6     + 8       + +   o 6 X     o 6 + 6 8   X     , , 8 S   U 6     + , , , + O 3 3 + 8 8 O I E ^ ^ ^ ( ( ( ( ( ^ ^ ! ~ p.L . $ ..=.@.O.. 8 ( ^ ^ ^ ^ p.i.,   8 L E ! ( ) _ ) 7.7.7.7.7.e.i.i.p.c.9 B 7.( ) _ 7.7.7.i.i.p.h.h.g.s.s.g.h.h.h.h.s.p.p.a.s.p.e.p.p.i.i.i.i.i.i.i.i.e.e.7.7.7.7.7.7.7.7.7.7.7.7.7.e.i.i.7.7.7.e.7.e.i.i.i.e.i.p.i.p.p.i.i.p.p.p.p.p.p.p.p.s.s.p.s.s.s.h.h.p.p.s.p.p.p.i.i.p.p.i.p.i.7.e.i.i.7.7.i.7._ _ _ _ _ ) _ _ _ _ ) ) ( ( _ ( H.I 3 _ ^ ( ( ( ( ( ( ( ( ( ^ ^ ^ ^ ^ ^ ^ ^ ( ^ ^ ^ ^ ^ ^ ^ ^ ^ ^ ^ ^ ^ ! ! ^ ^ ^ ^ ^ ^ ! ! ^ ^ ^ ^ ^ ^ ^ ^ ^ ^ ! E E ^ ^ ^ ^ ^ ( ( ^ ^ ^ ( ^ ^ ^ ^ ^ ^ ^ ^ ( ( ( ( ( ( ( ( ^ ( ( ( ( ( ( ( ( ( ( ( ( ( ( ( ( ^ ( ( ( S.L 7.7.7._ 7.7._ _ 7.e.7.7._ _ _ _ 7.7.7.7.i.p.p.p.p.s.p.p.s.p.s.h.s.p.s.h.h.k.k.h.s.x.x.k.k.x.c.c.x.c.x.x.c.c.x.x.c.l.c.c.c.x.x.c.c.k.c.M.c.k.x.c.x.c.x.x.k.k.h.h.h.h.g.g.h.h.h.h.h.h.h.h.h.h.h.k.x.c.M.M.N.c.M.S.S.A.S.D.D.S.S.S.S.H.D.S.V.V.V.N.x.k.h.k.) 6 k.k.h.k.k.h.s.a.a.a.p.e.7.( E P L O   O J s.a.a.s.p.p.+ & &.=.&.O.. . ^ h.p.p.r.p.d.d.i.e.e.e.e.e.p.P + S 8 8 0 3 O 9 8 8 ,     6 B , s.+ O 8 o     o 8 o   , q O     0 O   + 8 ,     + 6   O O 8 o 6 ( O   B ( ! 0 S D B O 7.E   6 + 0 +     6 6 + O 6 8   O   6 3 + 6 q 6     O 6 + + q 8       o 8   O , 8   O + 8 ",
".   +     o + o     o + @   o 6       X o   o +         o + : o         + + + w   6 O I 6 O , + , + J E O + 3 0 + + +       o 6   6 6 .     o 6   o + + .   + o     O + O 6 J o J 6     + , , 3 + O , , + 8 8 O I ! ^ ^ ^ ^ ^ ^ ^ ( ^ ( ( ( p.U   # ..@.@.O.. 8 ( ^ ^ ^ ^ p.i.,   8 L I ! ( ( ) ) 7.7.7.7.7.e.e.e.i.x.9 9 7.^ ) ( 7.i.i.p.p.p.a.s.s.s.p.p.s.g.h.p.p.p.p.p.p.p.p.p.i.i.i.i.i.i.i.i.i.e.7.7.7.7.7.7.7.7.7.7.7.7.7.7.7.i.e.7.7.7.i.i.i.i.i.i.i.i.p.i.p.p.i.i.p.p.p.p.s.s.p.p.s.a.p.p.p.p.s.s.i.i.s.p.s.p.p.p.p.p.i.i.i.i.i.i.i.e.7.i.7.7.7._ ( ) _ _ _ _ ) ) ( ( ( ( ^ H.E 6 _ ^ ( ^ ^ ^ ^ ^ ( ^ ^ ^ ^ ^ ^ ^ ^ ^ ^ ^ ^ ^ ^ ^ ^ ^ ^ ^ ^ ^ ^ ^ ! ! E ^ ! ! ! ^ ^ ^ ! ^ ^ ^ ^ ^ ^ ^ ^ ^ ^ ^ ^ ^ ^ ( ( ^ ^ ^ ^ ^ ^ ^ ^ ^ ^ ^ ^ ^ ^ ^ ^ ^ ^ ^ ^ ^ ^ ( ( ^ ^ ( ( ( ( ( ( ( ( ^ ^ ( ( ( ( ( ^ ( ( ( A.J 7.7._ _ _ _ _ _ 7.7._ _ _ _ 7.7.7.7.7.e.i.p.p.p.p.a.p.s.h.a.s.h.s.h.h.s.s.h.z.z.h.h.x.c.c.k.k.x.c.x.x.x.x.x.c.c.x.c.c.x.x.c.N.c.x.x.c.M.M.x.x.c.M.x.x.x.k.k.k.k.k.k.h.h.k.k.h.h.x.k.k.k.h.h.k.k.x.x.c.M.N.M.V.S.S.A.S.D.J.J.D.S.V.D.V.M.A.A.c.x.c.z.h.k.) 3 k.k.h.k.h.h.h.h.a.p.p.7.7.( E P J O   O J s.p.p.s.p.p.+ $ &.=.&.O.. o ! g.p.p.r.r.i.i.i.e.e.7.e.7.p.P + S 8 8 0 3 O 8 8 8 ,     6 B , p.6 6 6   O     q 6 8 8 +   O   6 8 , 0 0     + O , 8 + J +   6 E O X 0 ^ ! 0 S B B O 7.E   6 + 8     @   0 6 8 J ,         0 8 8 q O O   O 0 6 + 0 q   O O 6 B q , q 6       6 ",
"      + + o + +       X +   + 6       o 6 6 6 +         o o + :       O + o o +   6 O I 8 O , + , O J E O + 6 0 3 +           8 6 6         o 8 o + +         6 o o 6 +   3 B O J 3     O , , , + O , , + 8 8 O P E ^ ! ! ^ ^ ^ ! ^ ^ ( ` ( p.L   # ..@.@.O.. 8 ^ ^ ( ( ( a.e.+   6 J I E ^ ^ ( 7.7.e.e.e.e.r.p.e.e.k.9 9 7.( ) _ i.i.i.p.p.p.p.p.p.a.p.p.p.p.p.p.p.p.p.p.p.p.p.p.p.i.i.i.i.e.7.7.7.7.7.7.7._ _ _ 7.7.7.7.7.7.7.7.7.7.7.i.i.i.7.p.i.7.i.p.a.p.p.p.p.p.p.p.p.p.p.i.p.a.p.a.s.s.a.s.h.h.a.s.s.s.s.p.p.p.i.p.p.p.i.7.e.i.i.e.7.7.7.7._ 7.7.7.( ) 7._ _ _ _ ) _ ) ) ( E F.I 6 ( ! ^ ^ ^ ( ( ( ( ( ( ^ ( ( ^ ^ ^ ^ ^ ! ! ^ ^ ^ ^ ^ ^ ^ ^ ^ ^ ^ ^ ! ! E E E ! ^ ^ ^ ^ ^ ^ ^ ^ ^ ^ ^ ^ E ! ^ ^ ( ^ ^ ! ! ! ^ ! ! ! ! ^ ^ ^ ^ ^ ^ ^ ^ ^ ^ ^ ^ ^ ^ ^ ^ ^ ^ ^ ( ( ( ( ^ ^ ^ ^ ^ ^ ( ( ( ( ( ^ ( ( ( M.J 7.7._ _ _ _ _ _ 7._ _ _ _ 7.7.7.7.7.7.e.i.i.i.i.e.i.p.a.s.s.s.h.h.k.h.h.h.h.k.k.h.h.h.k.x.k.h.k.x.h.k.x.k.x.c.x.k.x.x.x.x.c.c.x.x.c.x.x.N.c.c.c.x.k.x.x.x.k.k.k.h.k.h.g.h.k.h.h.h.h.h.h.h.h.k.k.x.k.k.x.c.M.V.V.N.V.V.V.A.S.D.D.D.M.V.A.V.V.V.M.x.x.k.k.) 3 k.k.h.h.a.a.g.g.p.p.p.7._ ( E P J O   o J a.p.p.a.p.p.o $ &.=.&.O.. + E a.p.p.p.p.d.i.i.e.7.7.e.7.p.P + S 8 8 0 3 O 8 8 8 ,     3 B , p.6 6 6 O     O 0 + 6 8 6       o B 8 8 8 ,     o 8 0 + J 6 O 8 I O O 9 ! ! B S B B O _ E   6 + 8         L 8 o 8 +       6 0 + O 6 + + O O q ,     6 +   O q 8 O   6 +   O + 0 ",
"      6 6 o + +       . + 6 + o       o + o o o o     + +     6 o     + o     w   3 O I 8 O , , , O J E O + 6 B   O o     O + o   o o         6 + o +         6 3 O 6 o   6 0 O J 3     O , , 3 + O , , + 8 8 O L E ! ! ^ ( ( ( ! ^ ^ ( ( ( i.J   # ..@.@.O.. 8 ^ E ( ( ( s.e.+   8 J I ! ^ ( ( ) 7.7.7.7.7.e.e.e.i.k.N 9 7.( ) 7.i.i.7.i.p.p.a.a.s.g.s.s.s.s.p.p.p.i.p.s.s.p.i.p.p.i.i.i.i.7.7.e.7.7.7.7.7.7.7._ 7.7.7._ _ 7.7.7.7._ 7.i.i.e.7.p.i.i.i.p.p.p.i.p.p.p.p.p.p.p.p.p.p.a.p.p.p.p.p.p.s.a.i.i.p.p.i.p.i.i.i.i.p.i.i.7.7.e.e.e.7.7.7._ _ _ _ _ _ ) _ ) ) ) ) ) ) ) ) _ E S.I 6 ( E ( ^ ^ ( ( ( ( ( ^ ^ ^ ^ ^ ( ( ^ E ! ! ^ ^ ^ ^ ^ ^ ! ^ ^ ^ ^ ^ ! E E E E E ! ^ ^ ^ ^ ^ ^ ^ ^ ^ ^ ^ E E ^ ^ ^ ^ ! E ^ ! ! ! ! ^ ! ! ^ ^ ^ ^ ^ ^ ^ ^ ^ ^ ^ ^ ^ ^ ^ ^ ^ ^ ( ( ( ( ^ ^ ( ^ ^ ( ( ( ( ( ( ^ ( ( ( V.J _ 7.7._ _ _ _ _ 7._ 7.7.7.7.7.7._ 7.7.7.e.i.i.i.e.e.i.p.p.s.s.s.s.s.s.h.k.k.h.h.h.x.k.h.k.c.c.x.z.k.x.x.x.x.c.x.x.k.k.x.x.x.h.k.c.x.k.x.c.c.c.x.k.x.x.x.k.k.k.h.a.h.h.h.g.h.h.h.a.a.g.h.h.h.k.k.x.x.x.c.M.V.V.V.M.A.S.S.A.S.D.H.H.M.S.S.M.M.S.A.x.x.k.k.) 3 k.k.k.h.g.a.a.a.a.p.p.7._ ^ E L J O   O J s.a.s.s.p.i.+ $ &.=.&.O.. + I s.p.p.a.a.p.i.e.e.e.e.e.7.p.P O S 8 8 0 3 O 8 8 8 ,     , B , 7.  O + ,   o 0 8     + 0 +   O 8 O   + 6 1     o 6 O O O 8 O + E O X 0 ! ! 0 S B B O _ E   6 + q       6 B +     6 O     J +   O + + O + 0 6   o   + 0 + B 0       , 8 + O 6 0 ",
"      + o   6 o       + + o   6     o + o     + + o + 6 o   .   + + 6 ,     O +   3 O E 8   + , , + J E O + 6 B     8 6 + , 6     o : + o + + X     6 +   . . 6     , O   6 0 + J 6     O , , 3 + O , , + 8 8 O E ^ ( ^ ^ ( ( ^ ^ ( ^ ` ` ` d.J . # ..@.@.O.. 0 E E ^ ( ( a.7.+ X 8 L E ^ ( ( _ ) ) 7.7.7.7.e.e.p.p.k.N 9 7.! ) ) 7.i.i.p.g.p.p.s.s.p.p.p.s.s.p.p.a.s.s.p.i.i.p.p.i.i.i.i.i.i.e.7.7.7.7.7.7.7.7.7._ _ _ _ _ _ _ _ _ 7.7._ _ 7.7.7.i.p.p.e.7.e.i.i.e.7.i.p.p.p.i.i.i.i.p.p.p.p.s.i.p.p.p.s.p.i.p.p.i.e.i.i.i.p.p.i.i.i.i.i.e.7.7._ 7.7.) ) _ _ ^ ( ( ( ( ( ( ( ( 7.E S.E 6 ( E ( E E ^ ^ ^ ^ ^ E ^ ^ ^ ^ ^ ( ^ E ! ^ ^ ^ ^ ^ ^ ^ E E ! ! ! ! E E E E E E ! ^ ^ ! ^ ! ! ! ! ! ^ ^ ^ ^ ! E ! ^ ^ ( ^ ^ ! ^ ^ ^ ^ ^ E ! ^ ^ ^ ^ ^ ! ! ! ! ^ ^ ^ ^ ^ ^ ^ ^ ( ( ( ( ( ( ( ( ( ( ( ( ( ) ^ ( ( ) A.J _ 7._ _ _ _ _ _ 7.) _ _ _ 7.7.7._ 7.7.7.i.p.p.p.p.i.p.p.p.h.h.s.h.s.s.h.h.h.s.h.x.k.h.h.k.z.z.x.x.k.k.k.x.k.k.k.c.N.x.k.x.x.x.x.c.x.x.c.c.x.c.c.c.x.x.k.h.h.k.k.h.h.x.k.a.h.x.x.g.a.g.h.h.h.h.x.c.k.x.c.M.M.M.V.J.V.S.J.J.D.S.A.V.H.A.M.V.A.M.N.M.x.h.k.) 3 k.k.h.h.k.h.a.a.g.a.p.7._ ^ E L J O   O J s.h.h.h.p.i.% $ &.=.&.O.. + I s.p.p.p.r.r._ e.e.e.e.e.7.r.L O S 8 8 0 3 + 9 8 8 ,     , B , i.+ o O 8 8 8 0     O   8 q , J q       o Z + 6 0 o       6 + + ^ O X B ! ! 9 S B B O _ E   6 O q 6 8 6 0     o O 8 q 6 0 6   O     0 q 0 J +     O + 0 + 0 8 o       q 0 6 B q ",
"o   o +       o o o 6 o       + 6 o 6 +     .   6 + + +   @   o o   o 6       w   w o I 6 O + , , + J E O + 6 S   O + 6 + + 6   o   o 6 6 + :       . 6   o 6   X     6 o 3 6 + J 6     O , , , + + + 3 + 8 6 + I E E E ! ^ ^ ! ^ ^ ^ ( ^ ^ i.U . $ } @.=.{ # q ^ ^ ^ ^ ! p._ , X 8 L L ! ^ ) _ 7.7.7.7.7.7.7.e.r.p.x.8 9 7.( ) _ 7.i.7.7.i.p.g.p.p.p.p.p.p.p.a.s.s.a.i.e.i.i.i.i.p.p.i.e.i.e.7._ _ 7.7.7._ _ 7.7.7.7.7._ _ _ _ 7.7.7.7.i.i.e.7.7.e.i.p.p.p.i.i.i.i.i.i.p.p.p.p.p.i.p.a.s.a.s.h.p.p.p.p.p.i.i.i.i.i.i.p.p.i.i.p.p.i.i.e.7.7._ _ 7._ _ _ _ _ ) _ ) ) ) _ _ ( ( ( _ ^ S.P , ( ! ! ( ^ ^ ^ ^ ^ ^ ^ ^ ^ ^ ^ ^ ^ ^ ^ ^ ^ ^ ^ ! ! ^ ^ E ! ^ ^ E E E ! ! ^ ^ ^ ^ ! E E ! ! ^ ^ ^ ^ ^ ^ ^ ^ ^ ^ ^ ^ ^ ! ^ ! ! ! ^ ^ ^ ^ ! ! ! ^ ^ ^ ( ( ! ! ! ^ ^ ( ( ( ^ ^ ^ ^ ^ ^ ^ ^ ^ ( ( ( ( ( ( ( ( ( ( ^ ( M.J ( 7._ _ 7.7._ ) _ 7._ _ ) _ 7.7.7.i.i.i.i.i.i.p.p.p.p.p.p.p.p.s.s.h.h.s.s.h.h.h.h.k.k.h.h.z.x.z.x.k.k.x.x.k.x.x.k.l.x.c.c.c.c.c.c.c.c.c.x.k.c.N.k.x.h.g.h.h.a.a.h.h.k.k.h.g.a.h.h.h.h.k.k.h.k.k.x.c.x.c.N.M.A.V.S.V.M.S.H.S.S.H.S.D.S.V.M.N.N.c.k.k.a.l.! 6 k.k.h.a.h.h.a.p.p.p.p.i.7.^ E L L O     L s.i.s.p.s.i.% $ &.=.&.{ . @ ` n.d.p.r.e.e.p.r.e.7.e.e.e.r.U , S 8 9 9 3 3 9 8 8 ,     6 0 3 s.+   + 8 + + 6 +       B 8 , 8 6 O     6 J 6 0 q       + , 8 0 (   O 9 ! E 9 S B N O ( I X 6   0 0 6 + 8     O   8 0 + 8 3 O   O O 6 +   + 3     , 8 o   O , ,   O 8 6 + o o 0 ",
"+ @ + +       6 q + + + o     o +   o +       o +     o o     + o O   O + .   6   w o I 6 O + , , + J E O + 6 B   + O     o +       6     o 6         6 6 6 6   X     3 + 0 8 O J 6     O , 3 , + + + 3 + 8 8 + E ! ^ ^ ^ ^ ( ^ ^ ^ ^ ` ( ( i.K . # ..=.&.O.# 7 ^ ^ ( ) ( s._ , O 8 P I ^ ^ _ _ 7.7.7.7.7.7.e.e.e.e.k.8 9 7.( ( 7.7.e.e.e.p.p.s.p.p.p.p.p.a.s.h.p.s.s.p.p.p.p.p.i.p.i.i.e.i.i.7.7.7.7.7.7.7.7.7.7.7.7.7._ _ _ 7.7.7.7.7.i.i.7.7.i.i.i.i.i.i.i.p.p.i.i.i.i.p.p.p.s.p.i.i.i.i.p.p.p.p.p.p.p.p.p.p.a.p.p.i.i.7.7.i.i.i.e.7.7.7.7.7.7._ _ _ _ ( ( ( ( ( ( ( ( ( ( ( ) ^ S.I 3 ( ^ ^ ^ ^ ^ ^ ^ ^ ^ ^ ^ ^ ^ ^ ^ ^ ! ! ! ! E E E E E E E ! ! ! E E E ! E E E E ! ^ ^ ^ ! ! ! ^ ^ ! ! ! ^ ^ ^ ^ ^ ^ ^ ^ ^ ! ! ! ! ! ! E ^ ^ ^ ^ ^ ^ ^ ^ ( ^ ^ ^ ^ ^ ^ ^ ^ ( ( ( ( ( ^ ^ ( ( ( ( ( ( ( ( ( ( ( ^ ( M.L ) 7._ _ _ _ _ _ _ _ _ _ _ _ 7.7.7.7.7.7.7.e.i.i.i.i.p.p.p.s.s.s.s.z.h.h.h.h.h.h.h.h.k.z.k.k.k.k.x.z.k.z.k.k.z.x.z.x.x.c.x.h.h.x.M.x.x.c.c.c.x.x.x.x.x.k.k.k.h.h.g.h.k.k.k.h.g.h.h.h.h.k.h.h.h.k.k.c.x.c.c.M.M.M.M.H.S.D.D.A.S.J.S.S.A.C.C.M.c.c.M.c.k.x.( 3 k.h.h.h.k.k.h.a.a.a.p.i.7.^ E L L O   O L h.p.s.p.p.i.* $ &.=.&.{ . + ^ d.d.d.p.r.r.p.r.e.e.i.e.e.p.E 3 L 8 9 9 3 3 8 8 8 ,     6 0 , p.6 6 8 O     + 8 o O o 0   o O q +   O 0 6     6 6     o 8 o 6 )   O 9 ! ! 9 S B B O ^ I   6 O J O     8 6     6 6       q 3   , J 3     + 6 0 8 6 6 O     + 8 8 q q +       O ",
"+   o o       + + o o 6 o     + o     + +   o w         + o 6 +         8 o X 8   w o I 6 O + + , + J E O + 3 0 3 6 O     O 6 6 @ + 6     . 6 +     + o     X +     o 3 O 8 q + J 6     O , 6 6 , , , 3 + 8 8 + E ^ ^ ^ ^ ^ ( ( ! ^ ^ ( ( ( i.J . # o.@.&.O.# 7 ^ ^ ( ) ( s._ ,   8 L L ! ^ ) _ 7.7.7.7.7.e.e.e.e.e.l.8 9 7.( ( 7.7.7.i.i.p.p.p.s.s.a.a.p.s.s.s.a.s.s.a.p.p.p.i.i.i.i.e.e.e.i.e.e.7._ 7.7.7.7._ 7.7.7._ _ _ 7.7.7.7.e.e.7.7.7.e.i.i.i.e.i.i.i.p.p.i.i.i.i.i.i.i.p.p.p.p.i.p.p.i.p.p.p.p.i.i.i.p.p.p.p.i.i.i.i.i.i.e.7.7.7.e.i.i.7.7._ _ _ ) ( ( _ ) ( ( ( ( ) ) ( ! S.I 6 ( ^ ^ ^ ^ ^ ^ ^ ^ ^ ( ^ ^ ^ ^ ^ ! ! ! ^ ^ ^ ! E E E E E ! ! ! E E E ! ^ ^ E E E E E ! ! ! ! ! ^ ^ ^ ^ ^ ^ ^ ^ ^ ^ ^ ^ ^ ^ ^ ^ ^ ^ ^ ! ^ ^ ! ! ! ! ! ! ^ ^ ^ ^ ^ ^ ^ ! ^ ^ ^ ^ ^ ^ ^ ^ ^ ( ( ( ( ( ( ( ( ^ ( ^ ( M.L ) 7.7._ ( ) _ 7._ _ _ _ 7.7.7.7.7.7.7.7.e.i.i.p.p.p.p.p.a.s.s.s.s.h.h.h.h.h.h.h.s.k.k.h.h.k.k.k.k.x.l.k.l.k.x.c.c.c.c.x.x.x.x.x.x.k.x.x.c.c.x.k.x.c.c.x.h.h.k.k.h.h.h.k.k.h.h.h.h.h.h.h.h.h.h.k.x.c.x.N.M.M.V.V.S.D.S.S.D.D.D.S.S.D.S.S.S.M.N.c.M.c.k.x.( 3 h.h.k.h.h.h.h.a.p.p.p.e.7.( E L J     O J k.p.g.g.p.d.* $ &.@.&.... o ^ d.i.s.g.r.r.p.e.e.r.i.e.7.i.E , J 8 8 9 8 8 8 8 8 ,     6 9 , s.6 6 0         6 8 , B o       + 0 8 0 q         q 8 o 0 6   6 ) X O 9 ( ! 9 S B B O ( I   6 O 0       + 0 o q 0 o O     6 0 6 8 q   + ,   , q 6 6 6 O     , 0 + O + 8 O   + B ",
"      o @   X X       + @ . + +       + 6 + w 6       o + + 8 w       O 6 o X 8   w o I 6 O + + , + J E O + , 0 , , O       + 0 q + o       o 6 6 o 6         + X + 3 +   6 q + J 3     O , 6 3 , 6 , , o 8 8 O E E ! E E ^ ^ ! ' ^ ^ ( ^ ^ i.c . # o.o.o.X.. 0 ^ ^ ^ ( ( a.( ,   6 L L ! ! ( ) ) 7.7.7.7.7.e.e.e.p.x.8 9 8.( ( _ 7.7.e.i.p.p.p.s.s.s.p.p.p.p.p.p.a.a.p.p.p.i.i.i.i.e.7.7.7.7.7.e.7.7._ 7._ _ _ _ _ _ _ _ _ 7.7.7.7.7.7.7.7.7.e.7.e.i.i.i.i.i.i.i.i.i.i.i.i.p.i.i.p.p.p.p.a.a.p.p.i.i.i.i.i.i.i.i.i.p.p.p.p.p.p.i.i.7.7.7.7.7.7.7._ _ _ _ _ ) _ _ ) ( ( ( ( ( ( ( E S.I 6 ( ! ^ ^ ^ ^ ^ ^ ^ ^ ^ ^ ^ ^ ^ ^ ^ ^ ^ ^ ^ ^ ^ ^ ! ^ ^ E E E E E E E E ^ ^ E E E E E E E ! ! ^ ^ ^ ^ ^ ! ! ! ! ^ ^ E E ^ ^ ! ^ ^ ^ ^ ^ ! ! ! ! ! ! ^ ^ ! ! ! ! ^ ^ ^ ^ ^ ^ ^ ^ ^ ^ ^ ^ ^ ^ ^ ^ ^ ^ ^ ( ^ ^ ^ ^ ( M.J ) 7.7._ ) ) _ _ _ ( ) _ 7.7.7.7.7.7.i.i.i.p.p.p.p.a.p.p.p.p.p.s.h.a.a.s.s.h.h.h.s.k.k.s.a.k.k.k.k.x.l.z.z.k.z.c.x.x.k.h.k.x.x.k.h.x.M.N.x.x.c.x.x.c.c.x.h.h.h.k.k.h.h.h.h.h.h.h.h.h.h.h.h.h.h.k.x.x.x.M.M.M.A.V.S.V.A.C.A.D.D.A.S.S.D.S.N.c.M.c.h.z.h.l.! 3 a.k.k.g.g.a.a.a.p.p.i.7._ ( E L S     O 0 k.p.s.h.p.d.- $ &.=.&.X.. O ^ s.i.p.p.r.r.e.e.e.r.e.7.) e.P O S 8 8 9 9 9 9 8 8 ,     6 9 , s., O 8 +       0 0 6 J + O O o 6 0 6 0 q o O     q q + 0 3   6 (   O 9 ! ! 9 B B B O ( I   6 o 6   @     B 6 B 6 O +     O q 6 6 8 o     + 0 O   O 6 + o , 0 ,     + 8 + 6 J q ",
"      : 6 o 6 o       o + + 6 X       @ + o + +       6 +     +       , @     w   w O I 6 O + + , O S E O + + q   , ,     O o 6   + 6       + +     6 .       6 + + , o   6 0 + B ,     O , , , , 3 , , o 8 8 O I E E E E ! ^ ! ! ^ ^ ^ ^ ^ i.J   . X.o.:.X.. 6 ! ^ ! ^ ( p.( ,   8 L P ^ ^ ( ) ) ) ) 7.7.7.7.7.e.i.x.8 8 ) ! ) ( _ 7.7.7.i.p.p.p.p.p.p.p.p.p.p.p.p.p.p.p.p.p.p.e.7.7.7.7.7.7.7.7.7.7._ _ _ _ _ _ _ _ _ _ _ _ _ _ 7.7.7.7.7.7.e.7.7.e.i.i.i.e.7.e.e.e.i.i.p.p.i.p.p.i.7.7.i.p.p.p.i.i.i.i.i.i.i.i.i.p.p.p.p.i.e.i.e.7.7.7.7.7._ _ ) ) _ _ ( ( ( ( ( ( ( ( ( ( ^ ( E A.I 6 ( E ^ E ! ! ^ ^ ^ ^ ^ ^ ! ! ! ! ! ^ ^ E E E E E E E E E E E E E E E E E E E E E ^ ^ ^ ! ! E ! ^ ^ ^ ^ E ! ! ! ! E E E E E E E E ! ! E ^ ^ ^ ! ! ! ^ ^ ^ ^ ^ ^ ^ ^ ^ ! ^ ^ ^ ^ ^ ^ ^ ^ ^ ^ ^ ^ ^ ^ ^ ^ ^ ^ ^ ^ ( M.J ( 7._ _ _ _ ) ( _ ( ) _ _ _ 7.7.7.7.7.7.i.i.i.i.i.p.p.p.p.p.p.a.s.a.a.s.s.h.h.h.h.s.k.h.h.h.h.h.z.z.k.z.x.k.k.k.h.k.k.k.k.k.k.x.c.k.c.x.h.k.x.k.k.h.k.x.x.k.h.g.h.h.a.a.a.h.h.h.a.h.h.h.h.h.h.h.h.k.k.c.x.c.M.M.V.V.S.V.M.A.A.V.S.V.S.V.c.c.M.c.h.l.h.k.( 3 a.h.h.g.a.a.a.a.a.p.i.7._ ^ E L S       8 h.p.p.g.p.p.+ $ :.&.o.X.. O ! a.i.i.p.p.r.e.r.e.e.e.e.7.p.P O S 8 8 8 9 8 8 8 8 ,     6 9 , 7.,   + 8   O 8 8       8 O   o 0 O   O 6 ,     8 8     O 6   + ^   O 9 ! E 9 S B B O ( I   , O q +     + q +   o 6 O     8 ,     6 8 O + 0 8   O   6 , + q J   o O o 8 8 6 8 o ",
"  .   + + o 8 + .     + +   o + X o     .       o o   6         6 o o 6       w   + O I 6 O + + , O B I O + , q   o 6 + , 6 o       6 + + + 6       + o     @ 6   X + +   6 8 + 0 +     O , , , , , + , + 8 8 O I E E E E ^ ^ ! ^ ^ ^ ( ^ ( i.J   . l | X.k   4 E ^ ^ ( ( p.^ ,   8 L P ! ! ( ( ) ) ) 7.7.7.7.7.7.e.x.8 8 ) ( ) ^ ) 7.7.7.i.i.p.p.p.p.p.p.p.p.p.p.i.i.i.p.i.i.i.7.7.7.7.7.7.7.7._ _ _ _ _ _ _ _ _ _ _ _ _ ) ) ) _ _ 7.7.7.7.7.7.7.7.7.e.e.e.e.e.i.i.i.i.i.i.i.i.p.i.i.7.e.i.p.i.i.i.i.i.i.i.i.i.i.i.e.e.i.i.7.7.7.7.7.7.7.7.7._ _ _ ) ) ) ( ( ( ( ( ( ( ( ( ^ ^ ( E A.I 6 ( E ^ E ! ! ^ ^ ^ ^ ^ E E E E E ! ! ^ E E E E E E E E E E E E E E E E E E E E E E E E ! ! E E E E E E ! ! ! ! ! ! E E E E E E E ! ! ! ^ ^ ^ ! ! E E E E E E E ! ^ ^ ! ^ ^ ^ ^ ^ ^ ^ ^ ^ ^ ^ ^ ^ ^ ( ( ^ ^ ( ^ ( M.J ( 7.) ) 7.7.( ( _ _ _ _ _ _ _ 7._ 7.7.7.7.e.i.i.i.i.i.p.p.a.a.s.s.a.a.s.s.s.s.h.h.a.h.h.h.k.k.h.k.k.k.z.x.x.x.x.l.x.x.x.c.c.x.x.c.k.k.k.k.x.k.h.k.h.h.k.x.k.g.g.h.h.a.p.p.g.h.h.a.a.a.a.h.h.h.h.h.k.k.x.x.c.M.N.M.M.S.V.V.S.S.C.S.V.V.V.V.M.c.c.c.k.h.k.( 6 a.h.h.h.a.a.a.a.p.i.e.7._ ^ E L S     O 0 h.a.a.a.s.i.O % X...X.i   > E p.q.i.i.p.p.e.e.e.e.e.e.e.p.P O S 8 8 8 8 8 8 8 8 ,     6 9 , ` 3   O B 6 8 B O   +   8 0 6 0 6   O   o 0 6 6 8 o       6 + 6 E   O 9 ! E 9 S B B O ) I   , O 0 8 + q 8 o     O 6 , , 0 q         8 B 6 6 3   o   8 6   o 8 o +     q 6   O 8 ",
"        .   o o     o +       6 6 o + +         + o : +         6 + o , o     6   + O I 8 O + + , O B I O + , 0     + , 1 6     X   + 6 8 8 6       . + + 6 6 o     o 3   3 8 + 0 ,     O , , , , + + 3 + 8 6 O I E E ! ! ^ ^ ! ^ ^ ^ ( ( ( i.S     t t t $   9 ! ( ^ ( ) p.! ,   6 L L E E ^ ^ ) ) 7.7.7.7.e.e.e.e.x.8 9 7.( ( ( _ 7.7.e.i.p.i.s.p.p.p.p.p.p.i.p.i.i.i.i.i.i.i.e.7.7.e.7.7._ 7._ _ _ _ _ 7._ ) _ _ _ _ _ _ _ _ _ _ 7.7.7.7.7.7.e.7.7.e.e.i.i.i.i.i.i.i.i.i.i.i.i.i.i.p.p.p.i.i.7.7.e.i.i.i.i.7.i.e.7.i.i.e.e.i.7.7.7.7.7.7.7._ _ _ ) _ _ ( ( ( ( ( ( ( ( ( ( ( ( E A.I 6 ( E ^ ! ^ ^ ^ ^ ^ ^ ! E E E ! ! ! ! ! E E E E E E E E E E E E ^ ^ E E E E E E E E E E ! E E E E E E ^ E ! ! ! ! E E E E E E E ! ^ ^ ^ ^ ^ E E E E E E E E E E E ^ ^ ^ E E ! ^ ^ ^ ^ ! ^ ^ ^ ^ ^ ^ ( ( ^ ^ ( ( ( M.J ( _ ) ( _ _ ) ) _ _ _ ) _ _ 7._ _ 7.7.7.7.e.i.i.p.i.i.p.a.s.s.s.s.p.a.a.a.a.s.s.s.h.h.a.h.x.x.k.h.k.k.l.c.x.x.c.x.k.h.k.x.c.c.k.h.c.x.x.c.c.c.x.x.k.k.h.h.h.h.h.k.g.a.a.a.a.g.a.a.a.p.a.h.k.h.h.k.k.k.c.c.N.V.M.M.M.V.V.S.D.D.S.A.S.V.V.A.M.c.c.N.k.h.h.( 8 a.k.h.h.a.p.a.a.p.e.7.7._ ^ E L J     O 0 s.s.s.p.h.i.X . e r r $   > W a.i.i.i.p.p.e.e.e.7.7.e.e.p.L X S 8 8 9 8 8 9 8 8 ,     , 8 , _ ,   + 0 8 8 8     o   6 0 6 8 6   O   + U 0 6 6 O O O O 6 8 8 !   O 8 ! E 9 S N N   ) E   ,   8 q 6 q 0     +   + 8 6 J +     O o 8 +   + S o O + 8 +     + 0   , q +     O 6 ",
"o   6 o       o 6 + 6 o       o +   6 6   .   + +   o o o     o O       8     3   + O I 8 O + + , O S I O + 3 0   O 6     6 +       o o     w         q + 6 6   X     6 + 8 8 O B ,     O , , , , + + 6 + 8 6 + I E ! ! ^ ^ ^ E ! ! Q ( ( ^ 7.S     . # # .   8 ! ( ^ ^ ( p.! 6   8 L P ! E ^ ( ) 8.7.7.e.e.e.e.e.e.k.8 9 7.! ! _ 7.7.7.i.p.p.i.p.p.p.p.p.p.p.p.p.i.i.p.p.p.p.p.e.7.7.i.e.7._ _ 7.7._ _ _ 7._ ( ( ) ) ) _ _ 7.7.7.7.7.7.i.i.7.7.7.e.i.i.i.i.i.i.i.i.i.i.i.i.i.i.a.i.i.i.p.i.e.i.e.i.i.p.p.p.i.e.p.i.i.a.a.i.7.e.7.7.7.7.7._ _ _ ( ( ( ( ) ( ( ) ( ( ( ( ( ( ( ( ) E A.I 6 ^ E ^ ^ ^ ^ ^ ^ ^ ^ ! ! ^ ^ ^ ^ ^ ^ ^ E E E E E E E E E E E ^ ^ ^ ^ ! E E E E E E ^ ^ E E E E ^ ^ ^ ^ E E E E E E E E E E E E E ! ! E E E E E E E ! ! ^ ! ! ! ^ ^ ^ ! ! ^ ^ ^ ^ ^ ^ ^ ^ ^ ^ ^ ^ ^ ^ ( ( ( ( ( ( M.J ( ( ) ) ( ( _ _ ) _ ) ( _ 7.7.7._ 7.7.7.7.7.i.i.p.i.i.i.p.p.p.p.p.p.a.s.s.s.s.s.h.h.h.h.h.k.k.k.x.c.z.z.x.k.k.k.k.k.k.x.x.k.k.x.c.k.k.k.k.h.x.c.h.h.k.h.h.k.x.k.a.a.a.a.a.a.a.a.a.k.h.h.h.k.h.h.k.x.x.c.c.M.V.N.c.V.V.M.V.S.S.A.V.M.M.M.c.N.M.c.k.k.h.h.( 8 p.h.a.h.a.a.a.g.p.i.e.7._ ^ E P L       0 p.s.p.i.h.r.X   . # # .   > W a.i.i.i.p.i.e.r.e.e.7.7.7.e.J X S 8 8 9 8 6 9 8 8 ,     , 8 , _ +   q 6     o 8     + J + O   0     o , ,   O 8 ,       0 3 , ^   O 8 ! ! 9 B B 0   ( E   , O q w     8 +       0 8 O O 8 +   o 8 O   O + 8 6 + 0 6   + O + 0 + 6 0 +   + O + ",
"w + + o         +   6 o         o     6 @ . + +       . 6 o : +         + 6 o 3   , O U 6   + + , + J I O o , 0   8 o .     + + O o ,       + ,   O O +     + +     + 3   6 8 O J ,     O + , , , 6 6 + o 6 8 O I I E E ! ! ! ! ^ ^ ^ ( ^ E _ S   ! ` Y ` ` ^ E ! ^ ^ E ^ p.! 3 O 6 P L E E E ^ ) ( ) 7.7.7.7.i.7.7.z.8 8 ( ! ( _ ) 7.p.p.7.7.i.p.a.p.p.a.a.p.p.p.p.p.p.i.i.p.p.p.i.i.i.e.7.7.7._ _ _ _ _ _ _ _ _ _ ( ) _ _ ) ( _ _ 7.7.7._ 7.i.e.7.7.7.i.e.e.e.7.7.i.i.i.i.i.i.e.i.p.p.i.i.i.p.i.i.i.i.i.i.i.i.i.i.e.i.i.i.e.7.7.7._ _ _ _ _ _ 7._ _ _ _ ) ( ( ( ( ( ( ( ( ( ( ( E S.L 8 ^ E ! ! ^ ^ E E E E E ^ ! E E E E ^ ! ! E E E E E E E E E E E E E E E E E E E E E E E E E E E E E E E E E E E E E E E E E E E E ! ^ ^ ! ! E E E E E E E E E ^ ^ ! E E ! ^ ^ ^ ^ ^ ^ ^ ( ( ( ( ( ( ( ( ( ( ( ^ ( M.J ( _ _ ) ( ( ) ) ) _ 7.7._ _ _ _ 7.7.7.7.7.7.7.e.p.p.p.i.i.p.s.a.p.p.p.p.p.p.p.s.s.h.s.h.h.s.h.k.z.z.x.x.z.z.z.z.x.x.x.x.x.x.x.z.k.z.z.z.z.z.z.z.x.z.h.h.h.h.h.h.g.g.g.h.h.h.g.s.s.a.h.h.h.k.h.h.x.x.c.M.V.M.M.V.S.S.A.V.A.S.S.S.D.S.S.A.M.N.c.c.M.h.a.h.( 8 a.g.h.h.a.a.h.h.i.e.i.7._ ^ E L B O   O B a.a.p.p.a.h.) 7.` ` ` _ 6 X ^ s.i.p.p.p.i.e.i.e.7.7.7.7.e.L + J 6 8 9 9 0 8 8 8 ,     , 8 + p.+ q 8         8 8 6 B O       , q , 8 6       + 8 , + 8 6   8 ( O X 8 ! P 8 B B 9   ( E   , o 0     o + , + O q 8     O 8 6   8 8 O + O   q +   + , +   8 6 O     , , +   3 S ",
"      +       6 +     6 +     +       + @ + + o       + 6 o + 6 o     o +     8   , O U 6   + + , O S I O + w 0 o 6 o       6 8 6 8 , o     + 6 6 , +       o 8 6 , 6 +   8 8 O S ,     O + , , 3 6 6 , + 6 9 O E E E ^ ^ ^ ^ ^ ^ ( ( ( ) 7.d.0   ^ p.p.h.s.7.) ^ ^ ( ^ ( p.^ 6 X 6 L L E E ^ ( _ ) _ 7.7.7.7.7.i.i.z.8 0 _ ( _ 7.7.7.7.7.i.p.p.i.p.p.i.p.p.p.a.p.p.p.p.p.i.i.e.i.7.7.7.7.7.7.7._ _ _ _ _ _ _ _ _ _ ) ) _ _ _ _ 7.7.7.7.7._ 7.i.7.7.7.e.e.7.e.i.e.i.i.i.i.i.i.i.i.i.i.i.i.i.i.i.p.p.i.i.i.i.i.i.i.i.i.i.i.e.7.7.e.7.7.7._ _ _ _ 7._ _ ) ) ( ( ( ( ( ( ( ( ( ( ( ( E S.L 8 ^ E ! ^ ( ( ^ ^ ^ ^ ! ! ! ! ! ^ E E E ! E E E E E E E E E E E E E E E E E E E E E E E E E E E E E E E E E E E E E E E E E E E E E E E ! ! E E E E E E ^ ^ ! E E E E ! ^ ^ ^ ^ ^ ^ ^ ( ^ ^ ^ ^ ^ ^ ^ ^ ^ ^ ^ ^ ^ v.B ( _ ) ) ( ( ) ) ) ( ) _ _ _ _ _ _ 7.7.7.7.7._ 7.7.i.i.i.p.p.p.p.p.s.p.p.p.s.h.h.s.s.a.h.z.h.h.z.k.x.z.z.z.z.h.h.z.h.k.z.z.x.z.z.k.z.z.k.h.h.h.z.z.c.x.x.z.x.x.z.k.g.g.s.s.s.s.s.s.k.h.p.p.a.a.g.h.c.x.c.x.x.x.M.V.c.N.V.S.A.V.S.J.D.V.M.M.M.c.x.h.x.h.k.! , p.h.h.g.g.h.h.g.p.p.i.7.) ^ I L B O   O B a.a.p.p.p.p.N.M.V.A.A.M.B   E s.p.p.p.p.e.7.e.e.7.7.7.7.r.L + L 8 9 9 8 0 9 8 8 ,     , 6 + d.3 O ,   O     J 0 8 8 , o O   0 8 , 8 8 + o     B J + B +   8 ^ O X 8 ! E 9 S B 0   ( I   w o q     .   q J 8 0   o O   O J 6 8 q 8 + + q q   O   + 8 + 0 S         8 , 8 6 6 ",
"    o + o @ o o       + + + : +       + o + O +       + o     o o   o o       ,   , O I 6   + + , O S I O + w 0             + ,   O 6       + , + + 6 O       0 + + 8 O   0 6   B ,     O + , , , 3 , , + 6 8 O I I E E E E E E ! ( ^ ^ ( _ i.q   J I L I E E E ^ ^ ( ( ( a.^ 3 O 8 L L E ! ^ ( ) ) _ _ 7.7.7.7.e.e.z.8 9 _ ( _ ) 7.7._ 7.i.p.e.i.p.p.i.p.p.p.s.p.p.i.i.p.p.i.e.e.7.7.e.7.7.7.7._ _ _ _ _ _ _ _ _ _ _ _ _ _ 7.7.7.7.7.7.7.7.7.7.e.e.i.i.i.e.i.p.e.e.e.e.e.e.i.i.p.i.i.i.i.i.i.i.p.i.i.i.i.i.i.i.p.p.i.i.i.i.e.7.e.7.7.7.7.7._ _ _ _ ) ( ( ( ( ( ( ( ( ( ( ( ( ( ( E S.L 8 ^ E ! ^ ^ ^ ^ ^ ^ ^ ^ E ! ^ ^ ^ ! E E E E E E E E E E E E E I E E E E E E E E E E E E E E E E E E E E E E E E ! E E E E E E E E E E E E E E E E E E E ^ ^ ^ E E E ! ! ^ ^ ^ ^ ^ ^ ^ ^ ^ ^ ^ ^ ^ ^ ^ ^ ( ( ( ( ( M.S ( ( ) ) _ ) ) ) ) ( ) _ _ _ _ _ 7.e.7.e.i.i.7.7.e.i.i.p.p.p.p.p.a.a.p.p.s.s.h.s.a.s.s.h.z.h.h.h.h.z.h.s.k.z.h.h.z.z.z.z.z.z.z.z.z.x.x.z.z.z.z.x.x.c.x.z.z.z.z.k.h.h.h.g.s.a.a.s.s.h.h.a.a.h.h.h.h.c.x.c.N.c.c.M.M.S.A.S.S.V.N.c.M.S.M.c.M.A.V.c.x.k.g.k.! , p.g.a.a.a.a.p.p.a.p.e.7.) ^ E L B O   O B a.s.p.p.p.p.) 7.7.7.7.p.8 O E s.p.a.p.i.e.e.e.e.e.e.7.7.r.L O L 8 9 8 8 9 8 8 8 ,     , 6 + i.3   6 , o   q 6     + 6     8 0 O   O , 8 O   8 q     O 8   6 ^ X X 8 ! E 9 S B 0   ( U   3 O 6       6 J 6 + 6 +       8 B 6 + 6 8   O q 6       6 q     q 3     6 J   + , 0 ",
"        + 8 8 +       o o + + o     . o   o   + + o + +         + o 6 +       +   , O I 6   + + , O B I O + w 0     6 + o , +       6 o +   6 o     6 ,     o 6     + o   8 6   0 +     O + , , , , + , + 3 8 O E E ^ ^ ^ ^ ^ ^ ! ! E ^ ! E ` 0   L E E E E E ^ ! ^ ( ( ( p.! , O 8 P L E E ^ ( ( ( ) _ 7.7.7.7.7.7.h.8 8 ( ! ( ( 7.7.7.7.i.i.7.e.p.p.p.p.p.i.p.p.p.i.i.i.i.i.i.e.e.e.e.e.7.7.7._ _ _ _ _ ) _ _ _ _ _ _ ) ) _ _ 7.7._ _ 7.7.7._ 7._ 7.7.7.7.7.7.7.7.7.7.7.7.7.7.i.i.e.e.i.i.i.i.i.e.e.i.i.i.i.i.i.i.i.e.e.e.7.7.7.7.7.7.7.7._ _ _ ) ( ( ( ( ( ( ( ( ( ( ( ( ( ^ ( E S.L 6 ^ E E E ! ^ ! ! ! ^ ^ E ! ^ ^ ^ E E E E E E E E E E E E E E E E E E E E E E E E E E E E E ! E E E E E E E E E ! E E E E E E E E E E E E E E E ! ! ! ^ E E ^ ^ ^ ^ ^ E ^ ^ ^ ^ ^ ^ ^ ^ ^ ^ ^ ^ ^ ^ ^ ^ ( ( ( ( ( M.J ( ( ) _ _ _ _ _ _ _ _ _ 7.7.7._ _ _ _ 7.7.7.7.7.7.e.i.p.p.p.p.p.a.p.p.a.s.s.p.p.s.h.s.s.h.s.s.s.s.h.s.s.h.z.h.z.z.x.x.z.z.z.z.z.z.k.k.k.h.h.h.z.z.z.k.h.h.h.h.h.g.h.h.h.g.s.s.s.g.a.h.h.k.k.k.h.x.k.x.c.V.V.V.M.M.c.c.N.V.S.D.D.S.V.V.M.M.c.x.k.h.a.a.k.! 3 a.g.p.a.a.p.p.p.p.p.7.7._ ^ E L B O   O B p.s.a.s.s.s.a.h.g.p.i.p.8 o ^ s.p.p.p.i.e.e.e.e.e.e.7.7.e.L O J 8 8 8 8 8 8 8 8 ,     , 6 + ` 8   o q 8 q 0     o   6 8 6 0 6   o   O 6 + 8 B O   O   6 6 6 ! O X 8 ! P 8 B B B O ^ U   3   ] 6     8 6   o o 8 O O + B +   O , 6     , 6 8 + 6 6 O O   , B + O 6 8     O 6 ",
"o     +       + o     + o     +   o +     X   o + @ + o   X     +   o 6 +     ,   , O U 6   + + , O B I O + w 0     6 + + 6 +   O   o 6 , 8 ,         6 + + 6         , O , 8 O 8 +     O + , + , , , 3 , 6 8 O I E ^ ^ ^ ^ ^ ^ ^ ^ ^ ( ^ ! _ B   S E ! ^ E E ^ E ! ^ ^ ^ p.E ,   6 L L E E ! ^ ( ( ) _ _ 7.7.7.7.7.h.8 9 ( E ( _ 7.7.7.7.7.i.p.7.i.i.i.i.i.7.i.e.i.i.e.7.7.7.i.7.7.7.7.7.7._ _ _ _ _ _ _ ) ) _ _ _ _ ) ( ( ( ) _ ) ( ( _ _ _ ) 7.7._ 7.7.7.7.7.7.7.e.i.i.i.e.7.7.7.i.i.e.e.i.i.7.7.e.i.i.i.i.i.7.7.7.7.7.7.7.7.7._ _ _ _ _ _ ) ) ( ( ( ( ( ( ( ( ( ^ ^ ( ( ^ ^ ( E S.L 6 ^ E E E E ! ! ! ! ^ ^ E E E E E E E E E E E E E E E E E E E E E E E E E E E E E E E E E E E E E E E E E E E E E E E E E E E E E E E E E E E E E ! ! ! E E ^ ^ ^ ^ ! E E ! ! ^ ^ ^ ^ ^ ^ ^ ^ ^ ^ ^ ^ ^ ! ^ ^ ^ ( M.S ^ ( ( ( ( ( ) _ _ _ _ ) ) ) _ _ _ _ _ 7.7.7.7.7.7.e.7.e.i.i.i.p.p.a.p.p.s.s.s.a.s.s.p.a.s.s.s.h.h.h.h.h.h.h.h.h.h.z.z.h.h.h.h.h.h.h.h.h.h.h.h.k.z.z.z.h.h.h.h.h.h.s.s.s.g.h.h.h.h.a.h.g.g.h.h.h.x.k.h.x.c.c.N.M.M.V.V.V.M.M.V.M.c.M.V.V.c.x.x.x.h.k.h.k.E , p.g.a.h.a.p.a.a.p.e.e.7.) ^ I L S O O O B p.a.a.a.p.p.i.e.e.i.p.h.q   ^ s.i.p.p.p.e.e.e.e.e.7.7.7.e.P , L 8 8 9 8 9 8 8 8 ,     , 6 + ` +   + 0 , + 8 O       q 0 6 8 8       + 0 + 6 8 + O O   6 q 6 E   X 8 ! P 8 B 0 B O ( U   3   8 3 6 J 0       O , q 8 8 , O     , o     o 8 q + 8 6   O   + B 8 6 6 +   O + 6 ",
"    @ o     X 6 +   + o       o o o + +       o       + o o   6       o o X   +   + O U 6 O o o , O B I O + w 0   o o     o +       + o O O +         6 + o 8         6 + + 8 O 8 +     O + , + , , , , + 6 8   L I E E E E ! E E ^ ^ ^ ( _ i.q   B I I I I ! ^ E E ! E ^ p.E ,   6 L L E ^ ^ ( ( ) _ _ _ 7.7._ 7._ h.8 0 ( E ( ( ( _ 7.7.7.e.p.i.i.e.e.i.i.i.p.7.e.i.i.i.e.7.7.e.e.e.7.7.7._ _ _ _ ) _ _ ( ( ) ( ( ( ( ) ) ) ) _ _ _ _ _ 7.7._ i.7.7.e.i.i.e.e.7.7.e.i.i.i.i.e.7.7.i.i.e.7.e.i.i.i.i.i.i.i.i.e.7.7.7.7.7.e.7.7.7.7._ _ _ ) ( ( ) ( ( ( ( ( ( ( ^ ^ ^ ^ ( ( ( ( ( E S.L 6 ^ E E E E E ! E E E ^ E E E E E E E E E E E E E E E E E E E E E E E I I I I I E E E E E E E E E E E E E E E E E E E E E E E E E E E E E E E E E E E E ^ ^ E E E E E E E E E E ! ! ! ! ! ! ! ! ^ ^ ^ ^ E E ^ ^ ^ v.B ^ ( ( ( ( ( ( ) ) ) ( ( ( ) _ _ _ 7.7.7.7.7.e.e.7.i.7.7.7.i.p.p.p.a.i.e.p.s.s.s.a.s.p.s.h.h.h.h.s.s.h.h.s.s.h.h.h.s.h.h.k.z.k.h.h.h.k.z.z.z.z.z.z.z.z.z.k.h.h.h.h.s.s.s.g.g.s.s.s.a.a.p.a.h.k.h.h.k.h.k.x.c.c.M.M.c.M.V.M.M.V.V.V.M.M.M.c.c.M.M.x.g.p.h.E , p.a.p.h.a.p.a.p.i.e.e.) ( ! I L S O O O B p.p.p.p.i.i.i.i.e.e.i.a.8   E a.i.p.p.p.e.7.7.7.7.7.7.7.e.P , L 8 8 9 8 9 8 8 8 ,     , 6 + ^ +   q +     3 6     , q     + 8 O   O 8 q     6 6     O 0 O , P   X 8 E P 9 B 0 0 O ( U   w   8 q + + 6   O o   8 8 6 6 8   O   6 + O O 6 8 O   O 3 o   O 6 6   O + O     + 0 ",
"+ 6 + o         o o 6 o         +   . 8 o     6       + 8 + : 8         + 6 + ,   +   U 6 O o o , O B I   o w q o 6         1 +   O 6   O   , ,     + + O   + ,       3 O 6 8   8 +     O + , + + , , + + 6 8   I ! ^ ^ ! ^ ( ^ E ^ ! ^ ( ) 7.8   S ! ^ ^ ! ^ E E ^ ^ ^ ^ p.E ,   6 L L E ^ ^ ( ( ) _ ) _ _ 7._ _ _ h.8 9 ( E ( ^ ( _ 7.e.7.7.7.p.p.i.i.p.p.i.p.i.i.i.p.i.i.i.i.i.i.i.7.7.7._ _ _ ) _ _ _ ( ( ( ( ( ( ) _ _ _ _ _ _ 7._ 7.7.7.7.7._ _ 7.7.7.7.7.7.7.7.e.i.i.i.e.e.i.i.i.i.e.i.i.e.e.e.i.i.i.i.e.7.7.i.i.i.i.e.7.7.7._ _ ) ) ) ( ( ( ( ( ( ( ( ( ^ ^ ( ( ( ( ( ( ( E S.L 6 ^ E E E E E E E E E ^ E E E E E E E E E E E E E E E E E E E E E E E I I I I E E E E E E E E E E E E E E E E E E E E E E E E E E E E E E E E E E E E E ^ ^ E E E E E E E E E E ! ! ! ! ! ! ! ! ^ ^ ^ ^ ^ ^ ^ ^ ^ v.S ( ( ( ( ( _ _ _ ( ) ( ( ) _ _ _ _ ( _ _ _ _ 7.7._ i.e.e.i.p.p.p.p.p.i.i.p.a.p.p.a.s.p.s.h.h.h.h.s.s.a.s.s.h.h.h.h.h.h.h.z.z.z.z.h.h.h.h.h.h.h.h.h.z.z.z.k.h.h.h.h.g.g.g.g.s.s.p.p.p.p.p.g.x.x.h.h.k.k.c.M.N.M.M.M.N.M.M.V.V.V.V.S.S.M.c.c.c.c.k.h.a.p.h.! , p.a.p.p.a.a.p.p.p.e.e._ ) ^ I L S O O O B p.p.p.p.i.i.7.e.p.p.p.a.8   E a.i.p.p.p.e.e.7.7.7.7.e.7.e.L , L 8 8 8 8 9 8 8 8 ,     , 6 + I 6 q 6   O . . 0 q q B ,       + q 6 8 q O   O   + 6 6 J ,   + P   X 8 E P 8 B 9 9 X ( I   w   w w     6 8     + B O     J       6 0 6 + 0 8   o   + q , 0 B         q 8 6 0 0 ",
"o     + @     o o     + o     o X     :   o 6 6         +   + o         + +   ,   +   U 6 O + o , O B I   o w q + 6     O   + 6 6 6 o     o + , , , +     o   q o + , O   8 8   8 +     O , , + + 6 3 , , 8 9 X I E ^ ! E ^ ^ ^ ( ( ^ ( ^ E ` 0   B E E E ! ( E ^ ( ( ( ( p.E ,   6 L J I E ! ( ( ( ) ) _ 7.7._ 7._ h.8 9 ( E ( 7._ _ _ 7.i.i.e.p.p.i.i.p.p.7.e.p.i.e.7.e.i.i.i.e.e.7._ _ _ _ ( _ ) _ _ _ ( ( ( ( ( ( _ 7.7._ ) ) _ _ _ 7.7.7.7.7.7.e.i.e.7.e.i.7.7.7.7.e.i.i.i.p.i.i.i.i.i.i.i.7.7.7.e.i.i.i.e.7.7.i.i.i.e.7.7.7.7._ _ _ _ _ _ ( ( ( ( ( ( ( ( ( ( ( ( ( ( ( ( ( E S.L 6 ^ E E ^ ! ! ^ ^ ^ ^ ^ E E ^ ^ ! E E E E E E E E E E E E E I I E E E E E E E E E E I I E E E E E E E E E E E E E ! E E E E E E E E E E E E E E ! ! E E E E E ! ! ! E E E E ! ! ! ! ! ^ ^ ^ ^ ^ ^ ^ ^ ^ ^ ^ ^ ! ^ v.B ( ) ( ( ) _ 7._ ( ) ) ) _ _ _ _ _ ) _ _ _ 7.i.i.7.7.7.e.i.p.p.p.p.p.p.s.h.p.i.p.s.p.i.p.h.h.h.h.h.z.h.s.z.z.k.h.z.z.z.k.h.h.h.h.h.z.z.z.z.z.z.z.z.h.h.z.h.h.h.s.s.s.s.s.s.s.s.s.s.g.g.a.a.h.h.k.c.x.k.x.c.c.N.V.V.S.M.N.S.S.V.M.V.S.M.M.V.V.c.x.x.x.g.h.! , i.a.h.p.a.g.p.p.p.p.e.7.7.( E L J X X O 0 p.a.g.h.g.g.h.g.p.i.p.s.8   ! s.i.i.e.i.p.p.e.e.e.e.e.7.7.S , L 9 9 8 8 9 8 8 8 ,     , 6 + 7.  , 8 + o   @ 8 + o 0 +   o   + 0 o 6 0       O 6 q 6 , 3 O , P X O 8 E P 8 0 0 9   ( U   w X 0       o 0 + + L +       q 6     o J 6 O 8 +       6 J + 6 8 O O     J 6 + 8 + ",
"      + +   o 6       o +   + 6       o o     o o   + 6       X + . o +     O 6   + o L 3 O o + , O B I O + 3 0       o   O 8 O   + +       o 6 + 6 +   o     8 8 6 3 O   8 8   6 6     O + + 6 + 6 , + 6 S , , ^ E E E ^ ^ ^ E ^ ^ ( ^ ^ ^ _ 0   B E ^ ! E E ^ ! E ! ( ^ p.P 6 O 6 J I I E ^ ( ( _ 7.7._ _ 7.i.i.e.h.8 8 ) ^ ( _ _ _ _ 7.7.7.e.p.p.i.e.7.7.e.i.p.e.e.p.p.i.7.e.7.7.7.7._ _ _ _ _ _ _ ( ) _ _ ( ( ( ( ( _ _ _ _ 7._ _ _ _ 7.7.i.7.7.7.7.7.i.i.i.7.7.7.e.i.7.7.i.i.7.7.7.i.i.e.7.i.i.i.i.i.i.e.e.7.7.7.7.e.e.7.7.) _ _ _ ) ( ( ( ( ( ( ( ( ( ( ( ( ( ( ( ( ^ ^ ( ( E A.J 6 ( E E E E E E ^ ^ ^ ^ ^ ^ E E E E E E E E E E E E E E E E I I I I E E E E E E E E E E ! E E E E E E E E E E I I E E E E E E E E E E E E E E E E E E E E E E E E E E E E E ! ^ ! ! ^ ^ E E E E E ! ^ ^ ( ( ^ ^ ! x.B ( _ ( ( ( ) ) _ _ ) ) ) ) ) ) ) _ _ _ 7.7.7.7.7.7.7.7.e.i.e.7.i.p.i.i.i.p.p.p.p.s.s.s.s.s.s.s.h.x.h.k.z.k.h.h.h.s.z.h.h.h.h.h.h.h.z.h.h.z.z.h.s.h.h.z.z.h.h.h.s.s.g.p.p.p.p.a.s.s.p.a.g.h.k.k.k.k.k.x.c.N.M.M.M.M.S.V.S.S.S.S.S.S.S.V.V.M.N.x.c.M.x.h.h.! , e.g.p.a.p.p.p.e.e.p.e.7.) ^ I L B   O + 0 i.p.i.p.p.i.i.i.p.p.i.p.8   ^ s.p.p.p.e.e.e.7.7.e.e.7.7.7.7.O 8 ^ , , B 6 9 8 6 ,     + 6 + _ O   o 8     q 8       8 O O 6 J O     6 +     q +       8 O + I X X 8 E L 8 B 0 9 O ^ L   w o 6       O q 8 B 8     O O   8 6 B 0         q     6 0       6 ,     + 0     O 6 ",
".       + + +         o + + 6 +       o       + 6 o o + o   o o 6 6 6 +     o +   , o L 3 O o + , O B I O + 3 0     + + O , ,       6 + o   + o O   + ,     + +     + +   6 8 O 8 +     + , + + + + + O J 6 + P E E E E E ^ ^ ^ ^ ^ ( ^ ^ ^ _ q   S ! E E E E E ! ^ ^ ( ^ p.I 6 O 6 J I E E ^ ( ) _ _ _ _ _ _ 7.7.7.h.6 8 ) ^ ( ^ ( _ _ 7.7.7.7._ 7.7.e.e.e.i.i.7.7.7.i.e.7.7.7.7.7.7._ _ _ _ ) _ _ _ ) ) _ ) ( ( ( ) ) _ _ _ _ ) ) _ _ _ _ _ _ _ 7.7.7.7.e.e.7.e.7.7.i.i.7.7.7.7.7.i.i.7.7.7.7.i.i.i.i.i.7.7.7.7.7.i.i.i.i.7.7.7.7._ _ ) ( ( ( ) ( ( ( ( ( ( ( ( ( ( ( ( ^ ^ ( ^ E A.J 6 ( E E ! ! E E E E E E ! ! E E E E E E E E E E E E E E E E E E E E E E I E E E E E E E E E E E E E E E E E E E E E E E E E E E E E E E E E E E E E E E E E E E E E E E E ^ ^ ^ ^ ! ^ ^ ^ ^ ! ! ^ ^ ^ ^ ( ^ ^ ^ ^ v.S ) _ ( ( ( ( ( ( ( ( ) _ _ _ _ ) ) _ _ _ _ 7.7.7._ i.e.e.i.i.i.i.p.p.p.p.p.p.p.s.h.p.p.a.h.s.s.s.h.h.h.h.h.h.h.h.h.h.h.h.h.h.h.h.h.h.h.h.h.h.h.h.h.h.h.h.h.h.h.g.s.s.s.s.s.s.g.g.h.p.a.a.g.h.h.k.k.k.k.x.x.x.c.M.M.c.M.M.N.N.V.A.V.V.V.M.N.c.x.k.h.x.g.h.! , e.g.p.p.p.a.h.a.p.e.7.7.( ! I J B X O O 0 p.s.p.p.p.i.a.p.a.p.i.p.8   E s.p.p.p.i.e.e.e.e.e.7.7.7.7.e.^   B P 6 , B 9 8 3 ,     + 6 o _     + 6 6 0 q O   O   8 8 6 8 6 O   + + q + 0 J o   o   6 + , E X X 8 E L 8 B 0 9 O ^ L   + o q X .   6 8 o   + 6 O     0 B + 8 6 O       , 8 J 0 + +       3 6 6 8 o     o + ",
"      o + o @ +       o + o @ +       @ o   o + o     @       o + o o o @     3   , o L , O O o , O B I O + w 0   . 8 + + 8 ,   o   o 6 8 8 8         6 + o :         3 o 6 8   8 +     O + , , 6 + O J 0   J ^ I E E E E E ! ^ ^ ^ ( ^ ^ ^ ` 8   J ^ E E E ^ E ! ^ ^ ^ ^ p.I 3 X 6 J I E E ^ ( ( ( ( ) _ _ _ _ _ 7.k.6 8 _ ^ ( ^ ( _ 7.7.7.7.7.7.e.i.i.i.i.e.i.i.e.i.i.i.7.7.i.7.7._ _ _ _ _ ( _ ) ) _ ) ( ( ( ( ( ( ) _ _ _ _ _ _ 7.7.7.7.7.7.7.7.7.7.7.7.7.7.i.7.7.7.e.7.7.7.7.i.i.i.7.7.7.i.7.7.e.i.i.e.7.7.i.7.7.7.7.7.7.7.7.7._ _ _ _ _ _ ) ( ( ( ( ( ( ( ( ( ^ ( ( ^ ^ ^ ^ E A.L 6 ^ E E E E E E E E E E E E E E E E E E E E E E E E E E E E E E E E E E E E E E E E E E E E I I E E E I E E E E E E E E E E E E E E E E E E E E E E E E E E E E E E E E E ^ ! ! E E ! ^ ^ ^ ^ ^ ^ ^ ^ ^ ^ ^ ^ ^ ^ v.S ( ) ( ( ( ( ( ( _ ( ( ) _ _ _ ) ) _ _ 7.7.7.7.7.7.p.i.7.e.i.i.i.i.p.p.p.p.p.p.p.s.p.p.a.h.h.s.s.h.h.h.h.s.s.h.h.h.h.h.k.h.h.k.z.z.h.z.z.z.h.z.k.s.h.h.h.h.h.h.g.g.p.p.p.p.p.p.s.s.a.a.a.a.a.g.h.k.k.k.x.x.x.c.c.c.c.V.V.M.M.V.S.V.V.V.M.x.x.c.x.k.h.a.h.^ , i.h.a.p.a.h.h.p.i.r.e._ ( E I J B X O O 0 p.s.p.p.p.p.7.7.e.e.e.p.8   E s.i.p.i.e.e.e.r.e.7.7.) ) 7.7.e.L   E B , 8 0 8 6 +     + , + (     6 8 6 6 8 o       0 0 6 8 o       + J q , q o     O 8 0 q I X X 8 E L 8 0 0 8 O ^ L   + o 0 6 + + 6 3 O O o 6 +   + 0 6 O   0 o     o 0 0 + 6 3   O   , B + 3 8         8 ",
"    o o   .   + +     o       +       o + + o +       + o     w       o 6     6   + o L , O O o , O B I   o + q     +     , + O     + + o o w         6 6 + 6   O O   , + 6 0   8 +       + 6 6 ,   B 0   0 L E I E ! ! E E ! ^ ^ ^ ^ ^ ^ ^ ` 8   J E E E E ^ E ! ^ ^ ^ ^ p.P ,   6 J I E E ^ ^ ^ ( ( ( _ _ _ _ _ 7.z.6 8 ) ^ ( _ _ 7.7.7.7.7.7.p.p.p.i.i.7.7.i.p.i.i.i.i.7.7.e.7._ _ _ _ _ _ ( ( ( ( _ ) ( ( ) ( ( ( ( ( ( ( ( ) ) ( ) _ _ 7.7.e.7._ 7.7._ 7.e.7.7.7.7.7.7.7.7.i.i.i.e.i.i.e.7.7.7.7.7.e.e.7.7.i.7._ _ _ _ 7.7.7._ ) ( ) _ ) ( ( ( ( ( ( ( ( ( ( ^ ^ ^ ^ ^ ^ ^ ! I A.L 6 ^ E E E E E E E ^ ^ ^ E E E E E E E E E E E E E E I I I I I E E E E E E E E E E E E E E E E E E E E I E E E E E E E E E E E E E E E E E E E E E E E E E E E E E E E E E E E E E E E E E E E E ! ! ^ ^ ! E ^ ^ ^ c.B ( ) ( ( ( ( ( ( ) ) ( ( ( ( ( ) _ _ _ 7.7.7.7.7.7.i.7.7.7.e.i.i.e.p.p.p.p.i.i.i.p.s.a.a.s.h.h.h.h.s.s.h.h.h.h.h.s.s.h.k.h.s.k.z.k.h.z.z.h.h.h.h.s.h.h.g.g.g.s.s.g.s.s.a.p.p.p.s.h.g.a.a.a.a.a.h.h.h.k.x.c.c.c.c.c.N.c.N.M.M.M.c.c.S.V.c.x.x.c.c.x.h.a.h.( 3 p.h.a.h.a.a.p.e.i.p.p.7.) ^ I L B   O O 0 i.p.p.p.s.s.p.p.p.p.i.p.8   E s.i.i.e.e.e.e.e.e.e.7.7.7.) ) ( i.3 O E B , 8 6 8 ,     + , + ( + O 6 ,     + ,     + 6 +   o B o     q +     + ,     O + , O P   X 8 E L 8 9 0 8 X ! J   + o w 8 8 0 0 +     O + 8 + 0 6       6 o   o 6 q     + 0   O o 0 6   O + , +   + 8 ",
"o o 6     o   . + + 6 @       o + o o + + o X o       o 6 + o +   .     + + + +   + O L , O O o , O B I   o + q o +         + +   + +       o +   . o 6     6 o       6 O , 0   6 +       , 6 +   8 J   6 ^ I I E E E ^ ^ ^ ! ! ! ! ^ ^ ^ ^ ` 8   B I E ^ E E ! ! ^ ^ ^ ! p.L ,   6 S P I E ^ ^ ^ ( ( ) ) _ _ 7.( 7.k.6 8 ( ^ ^ _ _ _ _ 7.7.7.7.7.7.7.7.7.7.i.i.e.7.7.7.7.7._ _ ) _ _ _ _ _ _ _ ( ( ( _ ) ( ( ) ( ( ( ( ( ( ( ( ( ( ( ( ( _ _ 7.7.7._ 7.7._ 7.7.7.7.e.7._ _ 7.7.7.7.7.7.7.7.7.7.7.7.7.7.7.7.7.7._ 7.7.7.7.7.7._ _ ) ( ( ( ( ( ^ ( ( ^ ^ ^ ( ( ( ^ ^ ^ ^ ^ ! ! ^ E I A.J 6 ^ E E ^ ^ ^ E E E E E E E E E E E E E I I I I I I I I I I I E E I I I I I I I I E E E E E E E E E E E E I I I I E E E I I I E E E E E I E E E E E E E E E E E E E E E E E E E E E E E E E E E E E E E E E ^ ^ ^ x.0 ^ _ ( ( ( ( ( ( ( ( ( ( ( ( ( ) ) ( ) _ _ 7.7.7.7.7.7.7.7.7.e.e.7.7.e.i.i.i.i.p.s.p.i.i.p.p.p.p.p.s.s.s.h.h.h.s.s.p.h.h.s.s.h.h.s.a.p.p.s.s.s.s.h.g.g.s.s.s.s.s.s.a.s.a.p.p.p.a.g.a.a.a.a.a.a.a.h.h.h.k.k.x.c.M.M.M.N.M.V.S.V.M.N.M.N.c.c.c.k.h.h.h.a.h.( , e.a.p.h.a.a.a.p.p.p.7.7.) ^ I L B   X O 9 i.p.i.p.a.s.p.p.i.i.i.p.8   I p.e.i.e.e.e.e.e.e.e.e.7.7.7.) ( _ ( + 6 L 9 6 , 9 ,     , , O _ + 6 8     o   8 6 8 q o       6 8 + J 8     + o 8 6 8 S 3   + J   X 8 E L 8 9 0 8 X ! J   w o 0 8 o o + O     O 6 q O 8 8     O   B 8 8 L +   O O 3 8 , 0 8     O   8 3 3 0 + ",
"o o + @       o o o + o         + + + + @     + @     @ o     o X       + o O +   + O J , O O + , O B I O + w 0 + 6         , 6 6 + o   o o + + o + o       o 6 O + + +   3 8   3 o     o 6 +   6 J   3 ` I I E E E E E ^ ^ ! E E E ^ ^ ^ ( ` 8   0 I E ^ E E ^ ! ! ! ^ ^ p.L ,   6 S P I E ^ ^ ^ ( ) _ ) ) _ _ ( ) h.6 8 ( E ^ ^ ( ( _ 7.7.7.7.) _ 7.7.e.e.7.7.7.7._ 7.7.7.7._ ( _ _ _ _ ) _ _ ) ( ) _ ) ( ( ) ( ( ( ( ( ( ( ( _ _ _ 7.7.7._ _ _ _ 7.7.7.7._ _ _ 7.7.7._ _ 7.7._ 7.7.7.7.7.7.i.7.7.7.7.7.7.7.7._ _ 7.7.7.7._ _ ( ( ( ( ) ) ( ( ( ( ( ^ ^ ^ ^ ^ ^ ^ ! ^ ^ ! ! ^ ! I A.J 6 ^ E E E E E E E E E E E E E E E E E E I I I I E E E E I I E E E E I I I I I I E E E E I I I I E E E E I I I I I I E E I I I I E E E E E E E E E E E E E E E E E E E E E E E E E E E E E E E E ^ ^ E E E E ^ ^ ^ c.B ^ ( ^ ^ ( ( ( ( ( ( ( ( ( _ _ ) ( ( ) _ _ _ _ _ _ _ 7.7.7.7.i.i.i.e.7.e.i.i.i.i.p.s.s.s.h.k.h.h.s.s.a.p.a.s.s.s.s.s.s.s.s.s.h.s.a.s.a.a.h.h.s.h.z.s.s.s.s.s.s.s.s.p.p.p.p.p.p.i.i.p.p.p.p.a.a.a.g.h.h.k.x.x.c.c.c.x.c.c.x.c.V.M.c.M.c.c.c.c.k.h.k.g.p.a.! , i.a.p.g.p.p.a.p.p.i.7._ ( E P J B   X O 8 i.p.p.p.p.p.7.7.7.7.7.p.8   J i.7.p.p.i.e.e.7.7.7.7.7.7.7.7.( 7.( (   9 J 8 , 8 3     , ,   ( + + 6 o       0 , , q 6   O   O 8 , 6 6 + +     6 + + 8 ,   + S   X 8 E L 8 9 0 8 X ! L   w o 6 X   o + 6 +   6 8 o     8 +   o   8 + O 8 o       6 8 + 3 8         0 + + 8 , ",
"      + o     8       + o     +     o o       + + o + w       o +     + @     3   + O L , O O + , O B I O + 3 0           O o +     +       + +   + o   o @ . 6 6 , + +   6 8   6 +     + + + , 0   o I I I 0 E E E E E ! ^ ! E ! E ^ ^ ^ ( ( 6   B I E ^ ! ^ E ^ E E ( ^ i.L ,   6 J P I E ^ ^ ^ ( ( ) _ _ _ _ ( ( s.6 8 ( E ^ ! ^ ( _ _ 7.7.7.7.7.7.e.e.7.7.7.7.7.7.7.7.7.7.7._ _ _ _ _ _ ) ( ( ) ( ( ( ) ( ( ( ( ( ( ( ( ( ( ( ) _ _ _ _ ) ( ( _ 7.7.7.7.7._ 7.7.7._ _ 7.7.7.7.7.7.7.7.7.7.i.7.7.7.7.7.7.7.7.7._ _ ) _ _ _ _ ( ( ( _ _ _ _ _ ( ( ( ( ( ( ^ ^ ^ ^ ^ ^ ^ ! ^ ^ ^ I A.J 6 ^ E I I E E E E E E ! E E E E E E E I E E E E E E E E I E E E E E E I I I E E E E E E E I I I E E E I I I I I I I E E I I I I E I E E E E E E E E E I E E E E E E E E E E E E ^ ^ ^ E E E E ! ! ! E E E E ^ ^ ^ c.B ^ ^ ^ ^ ( ( ( ( ( ( ( ( ( _ _ ) ( ) _ _ _ 7.7.7.7._ 7.7.7.7.i.i.i.i.i.e.i.i.i.e.i.i.i.p.s.s.a.p.p.s.p.p.s.s.s.s.s.s.s.s.h.h.h.s.s.h.h.h.h.h.h.h.h.g.g.g.g.g.s.s.s.a.a.a.s.s.s.p.p.p.p.p.a.a.a.g.h.h.h.k.x.x.x.x.x.c.M.M.c.M.A.V.M.N.c.c.c.c.x.x.x.a.r.p.! , p.h.p.g.p.p.p.p.p.p.7._ ( E P J B   O O 9 i.a.p.p.p.i.a.p.p.i.i.p.6   J i.7.i.p.i.e.e.7.7.7.8.7.7.7.) ) 7.( 7.E O J B 8 , +     + ,   ! O   + q O   6 6     O q     O q       8 +     , 8 +     8 O + J   X 8 E L 8 9 0 8 X ^ L   w o q         8 q 8 q ,       , 6 + + q +       8 +   O 0 +     6 , O   + 6 O   O 8 ",
"      + 6 + 6 +       o + + 8 6       @ o       8 o o 6 @       + o 6 6     O +   , o U 3 O O + , O B I O + 3 0   @ 6 o , 8 o       6 +     6 o     6 6     o +     + +   3 6 o 6 +     O   + B ,   U E L I ( I I E E E ! ! E E ^ ! ^ ^ ^ ( ( 6   J E E ! ^ ^ E ^ E E ( ( i.L 6 X 6 S P I E ^ ( ^ ^ ^ ( _ 7._ _ _ ) s.8 0 ( E ^ ( ( ) _ _ 7.7.7.7.7.7.7.7.7.7.7.7.e.i.7.7._ _ _ _ _ _ _ _ _ ( ( ( ( ( ( ( ) ( ^ ( ( ( ( ( ( ( ( ) ( ( ( ( ) _ _ ( _ _ _ _ 7.7.7.7.7._ _ _ 7.7._ 7._ _ _ e.i.7.7.7.7.7.7.7.7._ _ 7.7.7.7.7.7._ _ ( ) ) ) ( ( ( ( ( ( ( ( ( ( ( ^ ^ ^ ^ ^ ^ ^ ^ ^ ^ I A.J 6 ^ I I E E E E E E E E E E E E E E E I E E E E E I I I I I E E E E I I I I I I E E E I E E E E E I I I E I I I I I E E I I I I E E E E I I E E E E E E E E E E E E E E E E E E E ^ E E E E E E E E E E ! E ^ ^ ^ x.B ^ _ ) ( ) ( ( ( ( ( ( ^ ( ( _ ) ( ( ) _ _ 7.7.7.7._ 7.7._ 7.e.i.7.i.i.e.p.p.p.p.p.p.p.p.p.p.p.a.p.s.p.a.h.h.h.h.h.s.a.s.h.h.h.s.a.i.a.s.s.s.h.s.p.h.h.h.h.h.g.s.s.s.p.p.i.p.p.p.p.p.a.a.a.a.g.h.h.h.h.h.k.k.x.c.M.c.c.M.M.M.c.c.c.x.c.M.N.c.c.k.a.h.p.a.! , p.a.i.p.p.a.a.p.p.i.7.7.( ! I L B X O O 0 i.p.p.p.p.p.p.p.e.r.i.p.8   I d.7.e.e.e.e.i.e.e.e.e.e.7.7.) _ ( 7._ i.S + L B , O     + , O ^ O + o 6 , q J   o     q + 6 8 +       o 0 o q 8     O   0 , 6 L   X 8 E L 9 0 9 8 O ^ L   w o 0   o     8 6   , O     O + J + 6 8 o   o   , q 6 3 + O O O + 0 3 , 0     O   + ",
"      o o o 6 o       o + X 6 o       o       w       +       + +     o +     +   , O L ,   + + 3 o 0 L O + + 0     8 6 o 6 +     . @ 6 + 8 +         + o o 6     .   * @ + 8   6 6     o   J 6 O L ^ P P E E I I E ^ ! E E E ! ^ ! E E E ( _ 8   J ^ ^ ! E E E ( ( ^ ( ( i.J 3 X 6 J P I E E ! ( ( ( ( ( ( ( ) ) ( p.8 0 ( ^ ) ( ) _ _ ) ) _ 7._ _ 7.i.i.7.7.e.7.7._ 7.7.7.7.7.) _ ( ^ ^ ( ( ^ ( ( ( ( ( ^ ( ( ( ( ( ( ( ( ( ( ( ( ) _ _ _ _ _ _ ) ( ) _ 7.7.7.7._ ) _ 7._ _ 7.7.7.7.i.7.) _ 7.7.7.7.7.7._ 7.i.7.7.7.7._ _ _ _ 7._ _ _ _ _ _ _ ( ( ( ( ^ ! ! ! ^ ^ ^ ^ ^ ^ ^ ^ ^ E A.L 6 ^ L E ! ! E E I E E ^ E E E E E E E E E E E E E E E E I I I I I I I E I I I I I I I I E E E I I I I I I I I E E E I I E E E E E E I I E E E I I I I I E E E E E E E E E E E E E E E E E ^ ! E E E E E E E E E ^ x.B ^ ) ^ ( ( ^ ^ ( ( ( ( ( ( ( ( ( ) _ _ _ _ _ _ _ _ 7.7.7.7.7.e.i.7.i.i.i.p.i.i.i.i.p.p.s.h.s.s.s.h.s.s.s.p.a.s.h.s.a.s.s.a.a.h.h.s.s.s.s.h.k.z.h.s.h.a.p.p.a.a.a.p.p.p.a.s.s.a.p.p.a.p.p.a.s.a.a.a.a.h.k.k.z.c.M.v.M.M.c.k.x.M.V.V.V.c.k.x.x.k.k.k.h.a.i.E 4 r.a.a.a.p.p.p.a.a.p.e.7.` ! P J B     O 8 e.p.p.p.p.p.p.i.7.7.e.p.6   ^ d.7.i.i.7.7.i.e.e.e.7.7.7.7.7.( e.7.) e.( B , L 9   X   + 3   ^ O   , 6 6 o 8     o   , 8 6 6 ,   O   o B , 8 8     O   6 0 8 I     8 E L 8 9 9 8   E J   w   q +   o 6 +     + 8       8 o     6 o o     8 6 o + +   o   + q 6 o 6 O   o   , ",
"o   o +       +       6 +     +         + 6 +         o + o o o   .     o o + +   + O L 3 O + + , o 0 L O + + 0 O + :   @   6 o     + +   X + o       + 6 8 8   .     6 o 8 8   8 +       J q   B L I I E P P ^ E E E E E ^ ^ ^ ^ ^ ( ^ ^ ( ` 6   B E E E ! E ^ ^ ^ ! ^ ( i.L 6 X 6 J P I E ! ^ ( ( ( ( ) ) _ 7.7._ s.8 0 ^ E ( ( ) 7.7.7.7.7.7.7.i.i.7.7.i.i.7.7.7.7.7.7.7.7.7.7._ _ _ _ ) ( ( ( ( ( ( ( ^ ^ ( ( ( ( ( ( ( ( ( ( ( ( ( ( ( _ _ 7._ _ _ _ _ _ _ 7._ _ 7.7.7.7.7._ 7.7.7.7.7.7.7._ _ 7.7.7._ _ 7.e.7._ _ _ _ _ ( _ ) ( ( ( ( ( ( ( ( ( ( ( ( ^ ^ ^ ^ ^ ^ ^ ^ ^ ^ ^ E A.L 6 ^ I ! E E ! E E E E E E E E E E E E E E E E E E E E E I I I I I E E E I I I E E E E E E E E E E E E E I E E E E I I I I I I I I I I I I I I E E E E E E E E E E E E E E E E E E E E E E ^ ^ E E ! ! E E E ^ ^ ^ x.B ( ( ( ( _ ( ( ( ( ( ( ( ( ( ) ) ) _ ) ) ) _ _ _ _ 7.7.7.7.7.i.i.e.i.e.i.i.i.e.i.p.p.p.p.s.s.a.p.a.s.h.s.s.a.s.s.a.h.h.s.s.s.h.h.h.s.h.h.s.a.s.h.h.k.h.s.a.s.h.s.a.p.p.p.p.p.i.e.e.r.e.i.a.a.a.a.h.k.h.h.l.x.l.x.M.c.v.v.c.M.V.V.V.M.V.v.v.v.c.c.x.h.a.p.! , e.h.a.a.g.g.a.p.e.e.e.7.` ! P L B   O + 0 p.s.a.p.p.p.p.p.i.i.i.a.6   I a.p.p.p.i.i.i.e.e.e.7.7.7.7.) p.^ ) 7.( e.) , , B 9     , + O ( + 6 q O     o 8     6 0     + 8     + 8 ,     o +     6 6   + I   X 8 E L 8 9 9 8   E J   3   8 0 8 q 8 O   + , 6 , + B 6 O     O + + + q 8     + q +   o 6 +     , 8   O , J ",
"6 o 6 o       o o + w w X     o       o + o o +       o 6 6 w +       X + 6 3 6   + O L 3 O + + + O 0 L O + + q o q o   .   + 6 o + +       + +     + @   o o +     o 6   8 6   6 +     O B   0 E I P E E P P ^ E E I E ! ^ ^ ^ E ^ ( ( ^ ^ ` 8   0 E E E ! ^ ( ^ ^ ! ^ ( i.L 6   6 J P I E ! ^ ^ ^ ^ ( ( ) _ 7._ _ a.8 0 ( ! ( ^ ( _ 7.7.7.7.7.7.e.7._ 7.e.e.7.i.7.7.7._ _ _ _ _ ( ( _ _ ( ( ( ( ( ( ( ( ^ ^ ( ( ( ( ( ( ( ( ( ( ( ( ( ( ( ) _ _ _ _ _ _ _ _ _ 7._ _ 7.7.7._ 7._ 7.7.7._ 7.7.7._ _ 7.7.7._ _ _ 7._ ) ) _ _ _ ( _ ) ( ( ( ( ( ( ( ( ^ ^ ( ( ^ ! ^ ^ ^ ^ ^ ^ ^ ^ ^ I V.P 6 ^ E E E E E E E E E E E E E E I E E E E E E E E E E E I I I I E E E E I I I I I I I I E E E E E I I I E E E E I I I I I I E E E I I I I I I E E E E E E E E E E E E E E E E E E E E E E E E E E ! ^ ! E E ^ ^ ^ x.B ( ( ^ ( ) ( ( ( ( ( ( ( ( ( ) ( ( _ _ ) ) _ _ 7.7.7.7.7.7.7.e.7.7.e.7.e.i.i.i.i.p.p.p.p.p.s.a.p.p.p.a.a.p.p.s.s.s.h.s.a.a.a.a.s.h.h.s.s.s.h.h.h.s.k.h.a.a.a.a.a.a.s.a.p.p.a.p.p.p.r.r.p.a.p.p.a.s.k.h.h.l.z.k.z.c.z.x.c.v.v.c.v.M.x.c.x.z.l.k.z.h.h.a.a.^ , e.h.a.p.a.a.a.p.e.e.e.7.( ! P J B   O O 0 p.s.p.p.p.p.p.p.i.i.p.a.6   L s.p.p.i.p.i.7.e.7.7.7.7.7.7.7.7.) 7.8.) e.e.E + 6 9     + o + E , 8 8   O o   , q q 8 6       + 8 q B 8     o   8 8 8 0 6   + I   X 8 ! L 8 9 9 8   E J   3 X 0 q o : q +       q 8 8 6 6   o o   6 0 8 q ,   O   8 q 0 0 q         0 8 0 q 0 ",
"+ o +       @ @ o o w @       o o   o + X     6       X X X o o         +     ,   + O L 6 O + + + O 0 L O + + q   8 o     X o + + 6 w       + 6 o + 6 X       6     + o   6 6 O , 6     +   + ^ I I I I E E E I ! E E E ! ^ ^ E E E ^ E E ^ ( 8   B E E E ! ^ ^ ^ ^ ! ^ ^ i.J 6   6 J P I E ! ^ ^ ^ ^ ( ( ( ) _ _ _ a.8 0 ( E ( ( ( ( ( ( ) _ 7.7._ ) 7.7.7.7.7.7.7._ _ _ _ ) ) ( ( ( ( ( ( ( ( ( ( ( ( ( ( ^ ( ( ( ^ ^ ^ ^ ^ ^ ( ( ( ( ( ( _ _ ( ) _ _ _ _ _ _ 7._ _ _ _ ) ( ) 7._ _ 7._ ( ) 7.7._ ) _ _ _ _ _ _ _ _ _ _ ) _ _ _ ) ( ( ( ( ( ( ( ( ^ ^ ^ ^ ! E E ! ^ ^ ^ ^ ^ ^ ( I M.I 3 ! E E E E E I I I E E E E E E E E I I E I I I I I E E I I I I I E E E I I I I I I I I E E I I I I I I E E I I I I I I I I E E E E I I I I I I I I E E I I I E E I E E E E E E E E E E E E E E E E ^ E E E ^ ^ ! x.B ( ) ^ ^ ( ^ ^ ( ( ( ( ( ( ( ( ( ^ ) ) ) ) _ _ 7.7.7.7.7.7.7.7._ _ i.e.e.e.e.7.e.i.i.i.p.p.p.p.p.p.i.p.p.p.a.s.s.s.s.p.p.a.a.p.p.s.s.s.a.s.h.k.h.p.h.a.p.p.p.p.p.i.p.p.r.p.p.p.p.p.p.p.p.a.p.p.p.a.a.h.k.k.k.z.x.x.v.M.V.V.v.c.M.V.V.V.c.c.x.x.x.l.a.p.a.^ O i.x.p.a.p.p.p.p.p.e.7.7.` ! P J B     O 8 e.p.i.p.p.p.a.p.i.i.i.p.6   J p.i.e.7.e.i.7.e.e.e.e.e.7.7.7.( e.8.) e.) ( a.I O O     O + O ( O O 6 o       8 , o + 8       + 8 + 6 6 O o     6 6 6 3 ,   + I   X 8 E L 8 9 8 8   E J   w O q O     6 6 O   , 8   O O 0 o     6 8 O   6 ,   o   , + o O 6 +       8 + , + 6 ",
"      + o   o 6       o o     + + + + o     .   @ + + o     . o +     o o     +   + O L 3 O + + + O 0 L O + + q     6       + o   o +       o 6 o o 6 @     . 6 +   6 +   6 6 + 6 +       + E U L I E I I E E I E E E E E E E E ( ^ ! E E ! ^ 6   0 E E E ! E ! ! ! E ^ ^ e.J 3   6 S L I E E ! ^ ( ( ( ( ( ) _ 7._ s.6 8 ^ E E ( ( ( ( ( ) _ _ 7._ _ 7.7.7.7.7.7._ _ ) ) ) ( ( ( ) ( ( ( ) ( ( ( ^ ^ ( ( ( ( ( ( ( ( ( ( ( ( ( ( ( ( ( ( ( ( ( ) _ _ _ ) ( ( ( _ ) ) _ _ ) ( ( _ ( ( _ _ _ _ 7._ ( ( ( _ _ _ _ _ _ _ _ ) ( ( ) ( ( ( ( ( ( ( ( ( ( ( ^ ^ ^ ^ ^ ! ^ ^ ^ ^ ^ ^ ^ ( I M.I 3 E E I E E E I I I E E I E E E E I I I I I I I I I I E I I I I I I I I E E I I I I I I I I I I I I I I I I I I I I I I I I I I I I I I I I I I I I I I I I I I E E E E E E E E E E E E E E E E E E E E E E ! E E x.B ( _ ^ ^ ( ^ ^ ( ( ( ( ( ( ^ ( ( ( ( ( ( ( _ _ _ ) 7._ _ 7.7._ _ _ e.7.7.7.7.7.7.i.i.i.p.p.p.p.p.p.p.p.p.a.a.a.a.a.s.p.p.s.s.p.p.s.s.s.s.p.p.p.s.h.a.p.p.p.p.p.p.r.e.e.e.e.r.e.e.r.r.e.e.p.p.a.a.s.a.h.k.k.k.x.x.x.x.c.c.c.x.z.c.M.M.c.k.k.l.h.h.h.g.p.a.! O e.k.i.a.p.i.p.p.i.7.8.7.) ! P J B   O + 8 7.p.p.p.p.p.s.a.p.i.i.p.6   L i.i.i.i.e.e.i.e.e.e.e.7.7.7.8.r.) ( 7.) ) ) 7.i.L O O   O +   ! +   , 6     8 6       8 +   + q O     , ,     6 6     + 6   , I   X 8 E L 8 9 8 8   E J   w O 6   o     q 6 6 J o     o 6 8 o , B o     o 6 o   , 8 O     + +     8 ,       6 ",
"      + +   : +       o + o + +       o         + + + + o     @ + 6 + o o   O +   + O L 3   + + + O 0 L O + + 0     8 o   + +       o o o o + o     o         + o   + +   6 6 O , O     O I ^ J I L I E I I E E I E E E E E E ! ^ E E E ! ! ^ 6   0 E E E ^ E E E E E ^ ^ e.J 6   6 S L I I E E ! ^ ^ ^ ( ( ) ) _ _ p.6 8 ^ E E ^ ^ ( ) _ _ _ _ _ 7.7._ _ 7.7._ 7._ _ _ _ ) ) ( ) _ _ ( ( _ ) ( ( ^ ^ ( ( ( ( ( ( ( ( ( ( ( ( ( ^ ^ ( ( ( ( ( ( ( ) _ _ ) ) ) ) ) ) ) _ _ _ _ _ ) 7.7.) ) 7._ ( ) ( ( _ 7._ _ _ 7._ ( ( ) ) ( ^ ( ( ( ( ( ( ( ( ^ ^ ( ^ ^ ^ ^ ( ^ ^ ^ ^ ^ ^ ^ E ^ I v.P 6 E E E I I E E E E E I I E E E E I I I I I I I I I I I I I I I I I I I I I I I I I I I P P I I I I E E I I I I I I I I I I I I I I I I I I I I E E E E I I I I E E E E I E E E E E E E E E E E E E E E E E E E E x.B ( ( ^ ^ ( ( ( ( ^ ( ( ( ^ ^ ( ( ( ( ( ( ) _ _ _ ( _ _ _ 7.7.7.7.7.7._ _ 7.7.7.7.7.7.i.i.i.i.i.p.p.p.p.p.p.p.p.p.p.p.p.p.p.p.p.p.p.p.s.s.p.p.p.p.p.p.p.i.p.p.p.p.p.p.r.i.p.p.i.r.i.r.e.e.e.p.a.a.a.s.a.h.z.x.k.k.c.c.c.c.c.c.c.v.M.M.c.k.c.c.k.k.h.h.a.a.! > 7.g.e.e.i.p.p.i.e.e.e.) ( ! P L B   O O 8 7.p.a.p.i.7.e.i.i.i.i.p.6   J e.7.p.p.i.7.i.7.7.7.7.7.7.7.7.e.( ) 7.( 7.e.! ( p.B     + + O J 6   O 8 B 0 0     +   + 8 8 B ,   O   + 8 , 8 8 +     O 8 6 6 U   X 8 E L 8 9 8 8   E J   w O q       O 0 6 + 6 O       , q 6 6 8     +   6 B q 8 +       6 B 8 + q +   O   , ",
"    .   o + +         o + + 6 o       + o   . : X     o @         o o @   .   +   , O L 3   + o + O 0 L O + , 0     + 6   : +       o 6 w 6 +       o +     + + .     w   6 6   + o     , ^ J U E L I E I I E E I E E E E E ^ ^ E E E ! ! ^ ^ 6   0 E E E ^ E E E ! ! ^ ^ e.J 6   6 J L I I E E E ^ ^ ^ ^ ( ( ( ( ( p.6 9 ( ! ^ ^ ^ ( ) _ _ _ _ _ 7.7._ _ 7.7._ 7._ _ _ _ _ ( ( ( ( ( ( ( ( ( ^ ( ^ ^ ( ( ( ^ ^ ^ ^ ^ ^ ^ ( ( ( ^ ^ ( ( ( ( ( ( ( ( ( ( _ _ _ _ ) ) _ _ 7.7.7._ _ 7.7._ ) 7._ ( ) ) _ _ 7._ _ _ _ ) ( ( _ _ ( ^ ( ( ( ( ( ( ( ( ^ ^ ^ ^ ^ ^ ^ ^ ^ ^ ^ ^ ^ ! ! E ! E x.L 8 E I E I I E E E E E I E E E E E E I I I I I I I I I I I I I I I I I I I I I I I I I I L P P I I I I I I I I I I I I I I I I I I I I I I I I I E E E E I I I I I I I I I E E E E E E E E E E E E E E E E E E E E x.B ( ( ! ^ ( ^ ^ ^ ! ^ ^ ^ ^ ( ( ( ^ ( ( ) _ _ _ _ _ ) ( _ 7.7.7.7.7.7._ _ 7.7.7.7.7.7.i.i.i.i.p.p.i.i.i.i.p.p.p.p.a.p.p.p.p.p.p.p.p.p.p.p.p.s.s.p.i.p.p.p.p.p.p.i.i.p.r.e.r.e.e.e.e.e.e.e.r.p.p.p.p.s.a.s.k.z.k.k.x.z.x.x.x.x.c.c.x.c.c.x.c.x.k.k.h.h.a.a.! , 7.a.p.e.i.p.p.p.r.r.r.) ( E P J B     O 8 7.p.p.p.r.r.7.7.e.i.i.p.6   J i.7.p.p.i.7.7.) 8.7.7.7.7.7.7.) 7.7.) ) 7.7.7.E p.I     , O o I +   , q + o 6 +       8 6 , 6 o       + 0 6 , w     O   6 8 6 U   X 8 P S 8 9 9 8   E J   w X q o     6 8 o     +       B 6     , +     + q +   O 6 + O   , 0 + + 6 6       8 ",
".   X o       +   X   + +   o o       o + + 6 6     . + + o o 6       o + .   6   , O L ,   + o + O 0 L O + , 0   O +       8       o 8 o : o         8 8 6 6         6 o 6 8   6 o     o U I L I L E E I E E P E E E E E ^ ^ ^ ^ ^ ^ ^ ! ! ( 8   0 E E E ! E E ^ ^ ^ ^ ^ e.J 6 X 6 J L I I E E ^ ( ( ( ( ( ) ) _ _ p.6 9 ( E E ( ( ( ) _ _ 7.7.7._ _ 7.7._ 7.i._ _ _ _ _ ) ( ( ^ ^ ^ ( ) ( ( ( ( ^ ^ ( ( ( ^ ^ ^ ^ ^ ^ ^ ^ ^ ^ ( ( ( ( ( ) _ _ ) ( ( ( ) _ ) ( ) ) _ _ _ _ _ ( ( ( ( _ 7._ _ _ ) ( ( ( ( ( ( _ ( ( _ _ _ _ ) _ ( ( ( ( ( ( ^ ^ ( ^ ^ ^ ^ ^ ! E E E ! ^ ^ ^ ^ ^ ! E x.L 8 E I I E E I I E E E E E E E E E E I I I I I I I I I I I I I I E E E E I I I I I I I I I I I I I I I I I I I I I I I P P P I I I I I I I I I I I I I I I I I I I E I I E E I I I E E E E I E E ! E E E E E E E E x.B ( _ ^ ^ ^ ^ ( ( ( ( ( ^ ( _ _ ( ^ ( ( ( ) _ _ _ _ ) ( ) _ 7.7.7.7.7.7.7.e.i.e.7.7.7.7.i.i.p.s.p.p.p.p.p.s.s.a.s.s.p.a.a.p.p.s.s.a.p.a.s.p.p.p.s.s.a.a.a.a.p.p.r.e.p.i.r.i.i.r.e.i.e.r.p.p.i.p.p.a.a.s.h.h.h.z.x.x.c.c.c.x.c.M.c.x.c.M.c.z.k.k.k.s.p.p.p.! 3 7.g.h.g.a.p.p.p.p.e.7._ ( ! P L B     O 9 7.p.p.p.p.p.s.s.p.p.i.i.3   I p.e.i.i.i.e.7.7.7.7.7.7.7.8.) 7.) ) 7.) ( ) ) 7.( I X X + O O I + o 0 3     o 6 +   , 8       8 O   o 6 +     + 6     , 8   + U   X 8 P S 3 9 9 8   E J   3   + 0 o 8 B     + o 8 6 o 6 6 O   O   6 , o 0 0       6 o O , 0 +       8   O + 0 ",
"6 + 8 +         + + 6 +   @   o       + + o + 8         o 8 + X   o     6 6 o 6 O , o J ,   + + + + 0 U O O , 0 6 8   .     + + o o 8 o     +       o 8 o o 8         : + 6 q   , o     + L I L E I P P I I E I ! E I E E ^ ! E E E E E ! ! ^ 8   0 E I E E E ^ ( ! E ^ ( i.B 6   8 J L L I E ! ^ ( ( ( ( ) ( ( _ _ p.6 8 ^ E ^ ( ) ) ) _ _ 7.7.7.7.7.7.7.7.7._ 7.7.7._ _ ) ) ) _ _ ) ( ( ( ( ( ( ( ^ ^ ^ ^ ^ ( ! ^ ( ( ( ^ ( ( ( ( ( ( ( ( ( ( ( ( _ _ _ _ _ _ _ _ 7._ _ _ _ 7.7.7.e.7._ ( ) _ _ _ _ _ _ _ _ _ 7._ _ _ _ ( ( ( ( ( ( ( ( ( ^ ^ ( ^ ^ ^ ^ ^ ^ ^ ! ! ! ^ ! ^ ! E ( E M.J 6 E I I E E E E E E E I E E E I I I I I E I I I I I I P I I I I I I I I E E E E E E E E I I E E E I I I I I I I I P P P I I I I I I I I E I I I I I I P I I I E E E E E I I I I I E E E E E E E E E E E ! ! E ! E z.B ( ( ^ ( ( ^ ^ ( ^ ^ ^ ^ ^ ^ ( ( ( _ _ ) ( ( _ _ 7._ _ _ 7.e.i.e.7.7.7.7.7.7.i.i.i.p.p.p.p.p.p.p.p.p.s.p.p.p.s.s.p.p.i.p.p.p.i.i.p.s.s.s.s.s.s.s.s.s.a.p.a.a.a.p.p.e.r.r.r.p.p.p.p.p.p.p.p.p.p.p.p.h.a.h.k.l.k.k.c.x.x.z.x.c.c.c.c.M.v.v.c.c.k.k.z.h.p.p.E 8 7.p.p.7.e.p.a.a.p.7.7.7.^ ^ L J B O O + 8 e.s.g.p.i.p.a.p.i.i.i.p.6   L i.e.i.e.e.i.i.7.7.7.7.7.7.7.7.7.) ) 7.7.) ) 7._ 7.J     + O O E + 0 6         0 8 8 q     O   6 0 6 8 8     O   6 q 8 B o   , I     8 E S 3 0 B 8   I J   +   8 8 8 + 6 O   o   6 B 8 8 6     O   q 8 q 0     o   , B q B 0     o   8 q 8 J + ",
"o   o o         +   X w       + +     o o . . o       6 o     + o     o +     +   + + J 6   o o + o 0 L O O , 0   6 o       w 6 6 + +       + 6 + o + @     o 6     + +   + q   , O     + U I L I I E I I I E E E E E E E ! ! E ^ ^ ^ ! ^ ^ ^ 8   B E E E E E ^ ^ E E ! ^ i.B 3 O , B I E I E ^ ! ^ ^ ( ( ( ( ( _ ) p.6 8 ^ E ^ ( ( ( ) _ _ 7.7.7.7.7.7.7.7.7.7.7.7.7._ _ ) ( ( _ ) ( ( ( ^ ^ ^ ( ( ^ ^ ^ ^ ^ ^ ^ ( ( ( ^ ^ ^ ( ^ ( ( ( ( ( ( ( ( ( ( ( ( ) ) _ ) _ _ _ ) _ _ _ _ 7.7.7._ _ _ _ ( ( ) ) ) _ ( ( _ ) ) _ ) ( ( ( ( ( ( ( ( ( ( ^ ( ^ ^ ^ ^ ^ ^ ^ ^ ^ ! ! ^ E E E ( I M.L 6 E E E I I I E E E E E I I I I I I I I I I I I I I I I I I I I I I I I E E E I I I I I I I I I I I I I I I I I I I P P I I I I I I E E I E E E I I I I I I I I E E E E I I I I I E E E E E E E E E E I E E I E E z.B ( ( ^ ^ ( ^ ^ ( ( ( ( ^ ^ ( ( ( ( ^ ( ( ) ( ( _ _ _ _ _ _ 7.7.7._ _ 7.7.7.7.7.7.7.e.e.i.i.i.i.i.i.i.p.i.e.i.p.p.i.p.p.p.a.a.p.p.s.p.p.a.a.s.s.p.p.i.e.r.e.e.e.e.p.e.r.i.e.e.e.e.r.e.e.e.i.p.p.p.p.k.h.h.k.x.l.x.x.c.x.x.c.c.M.M.V.c.c.c.c.z.k.k.k.h.p.a.E 3 7.p.p.i.p.p.p.e.e.e.e.e.! E P L B   O + 8 7.p.p.p.i.p.p.p.i.i.i.p.6   U i.7.i.i.i.i.i.r.e.e.7.7.7.7.8.7.) ) ) ) ) ) ) _ 7.J     O O O ^ +   6         q o O 8 6 o     B 0 + 6 6     O o J q O 6 o   6 I O   8 E J 3 0 0 8 X I J   + o J       6 +     + 0       0       8 8     6 6     o q   O   8 o O   O 8 +   + 0 ",
"      + + o + o       +       + w + + + o     o o @ o 6       o +   + 6     o o   + + J 6   o O + o q L O O , 8   o +       + + X + +   .   o q 6 6 6         6 + 6 6 o   + 0   + O     + U I U I I I E E E E E E E E E E E E E ^ ^ ^ ! ^ ! ^ 8   B E E E E E ^ E ! ^ ! ^ p.B ,   8 L L I E E E ^ ^ ( ( ( ( ( ( ) ) p.8 0 ( ^ ( ^ ( ( _ _ _ _ 7.7.7.7._ ) _ 7.7.7.7._ _ ) ( ( ( ( ( ( ^ ^ ^ ^ ^ ^ ^ ^ ^ ! ! ^ ^ ( ^ ^ ^ ^ ^ ^ ^ ^ ^ ( ( ( ( ( ( _ ) ( ( ( ) _ _ ) ) ) ) ( ) _ _ _ _ _ _ _ _ _ _ ) ) ( ( ( ( _ ) ( ( ( ) ) ( ( ( ( ( ( ( ( ^ ^ ^ ^ ^ ^ ! ^ ^ ^ ^ ^ ^ ^ ^ ! ! E E ^ I M.L 8 E E E I I I I E E E E E I I I I I I I I I E I I P I I I I I I I I I I I I I I I I I I I I I I I I I I I I I I I I P P I I I I I I I I I E E E I I I I I I I I I E E E E E E I I E E E E E E E E E E E E E E E E z.B ( ( ^ ^ ^ ^ ^ ( ( ( ( ( ( ( ( ( ( ^ ( ) ) ( ( ( _ _ ) ) ) _ _ _ _ _ 7.7.7.7.7.7.7.7.7.i.i.i.i.i.i.i.p.p.i.i.p.p.i.p.i.i.p.p.p.p.s.p.p.p.p.p.p.p.p.p.p.e.e.e.e.e.e.e.e.e.e.7.7.e.e.e.e.e.e.e.e.i.p.p.p.p.a.h.h.h.h.z.k.k.k.k.z.x.c.c.c.c.c.x.k.k.k.a.p.g.E 3 7.p.p.p.p.p.p.p.e.e.7.) ( ( P J B O   + 9 e.p.p.p.p.i.p.p.p.i.i.a.6   U d.7.i.i.i.e.7.e.e.7.7.7.7.7.7.7.7.7.) ) ) ) ) ) 7.J     O O   U 6   , + + o q +     + 6 o o + 8 O     , + o o 8 8     6 3   + U O X 3 E L 6 9 9 8 O I B   w + q       + 6 8 3 q +       , 8 + 6 q o O     8 6 + q 6       o 8 o O 8 ,     O B ",
"      + 6 o w +       + o o : +   o + o       X 6 + o o       o + + 8 6     o o O , o J ,   O o + o q L O O + 8     + 6 + + o       +       o 6   o o         + + + + o   6 0   + O     + L I L I P L I E E E I I E E E E E E ! ^ ^ ! E ! E ^ 8   B E E E E E ^ E E ! E ^ p.B ,   8 J L L I E E ! ^ ( ( ( ( ( ) ^ ^ i.3 8 ^ E ! ^ ( ( ) _ _ _ _ _ _ _ ( ( ) _ _ _ _ ) ( ( ( ( ( ( ( ^ ^ ^ ^ ^ ^ ^ ^ ^ ! ^ ^ ^ ^ ^ ! E E ^ ^ ^ ^ ^ ^ ^ ( ( ( ( ( ) ) ) ( ( ) ) _ _ _ _ _ ) ) ( ( _ _ ) _ _ _ ) ( _ _ ( ( ( ( _ _ ( ( ( ( ( ( ( ( ( ( ( ^ ^ ^ ^ ^ ^ ^ ! E ! ! ! ! ^ ^ ^ ^ ! ! E E ^ I M.L 6 E I E E E E E E E E E E E E I I I I I I I I I P P P I I I I I I I I E I I I I I E E E I I I I I I I I I I I I I I P I I I I I I I P P I I E I I I I I I I I I I I I I E E I I I I E E E E E E E E E E E ! E E E x.B ( ( ^ ^ ^ ^ ^ ( ( ^ ^ ^ ^ ^ ^ ( ( ( ( ( ( ^ ^ ( ) _ ) ) ) _ _ _ 7._ 7.7.7.7.7.7.7.7.e.e.i.i.i.i.i.i.p.p.p.i.p.p.p.p.i.i.i.i.i.i.p.p.p.p.p.p.p.p.p.a.p.e.p.p.p.e.7.e.e.e.e.7.7.7.e.e.e.e.e.e.e.e.p.r.p.p.p.s.k.k.s.x.z.z.z.l.k.x.c.c.c.x.x.k.h.s.a.p.p.g.E , 7.p.p.p.a.a.a.p.e.7.7.( ( ( P S 9 O   O 9 i.p.p.a.p.r.p.a.p.p.i.a.6   U i.7.i.i.i.e.7.7.7.7.7.7.7.7.7.7.7.7.) ) 8.) ) ( 7.J     O O   J 6   o 0 8 q J o       6 6 8 0         + 8 q 0 q o   O O , , 6 L O X 3 P L 8 8 9 8 O I B   w + 3   o   O 6 0 q 0 O   +   O B 6 8 6   o O   8 q 6 0 , O   O o 0 8 0 J o       , ",
"      + o   + +       o o + 6             . .   @     o o     + o     +       , O + O J ,   O o + O q U O o + 8 O   o + + + o       o   o + 6 .     o o .   + +     o +   + 0 O +       + L U L I P P I E E I I I E E E E E E ^ E E E E ! E ^ 8   0 E I E E E E E E E I E i.B , O X , S I L I ^ I E ^ ^ ( ( _ _ ( ( p.6 8 ^ E ! ^ ^ ( ( ) _ _ _ _ _ 7._ _ _ _ _ ( ( ( ( ( ( ( ( ^ ^ ^ ^ ^ ^ ! ! ^ ^ ! ^ ^ ^ ^ ^ ! E E ! ^ ^ ^ ^ ^ ^ ^ ^ ( ( ( ( ( ( ( ( ( ( ( ( ( ( _ _ _ ) ( ( ) ( ( ) _ _ _ ( ( ( ( ( ( ( ( ( ( ( ( ( ( ( ( ( ( ( ^ ^ ^ ^ ^ ^ ^ ^ ^ ^ ^ ^ ^ ^ ! E E E ! ^ ! ! ! I M.L 6 E I I E E E I I I E E E E I I I I I I I I P P I I I P I I I I I I I I I I I I I I E E I I I I I I I I I I I I I I I I E E E E I I I I I I I I I I I P I I I I I I I I I I I I I I E E I I I I E E E E I E E E E z.B ( ( ^ ^ ^ ^ ^ ( ^ ! ! ^ ^ ^ ^ ^ ^ ( ( ^ ^ ( ( _ _ _ _ _ ) _ _ 7.7.) _ _ _ _ 7.7.7.7.7.7.7.7.e.i.i.7.i.i.i.e.i.i.i.p.p.i.p.p.i.i.p.p.p.p.p.p.p.p.p.e.e.e.e.r.e.7.7.e.e.e.7.7.7.7.7.e.e.e.e.e.7.e.p.r.p.p.p.s.k.k.h.h.h.h.k.k.k.k.x.c.c.z.l.k.k.k.s.p.p.h.E 3 e.p.p.a.p.p.e.e.7.7.7.e.! P P J ,   O O 8 e.p.p.a.p.i.p.p.p.i.i.p.6   J i.7.i.e.7.e.i.e.7.7.7.7.7.7.) ) 8.) ( ( ) ) ( ( _ J     O O   I +   + J + o 8 +       8 6 6 , , O     o 8 6 + 6 o       3 6 + J O X 3 P L 8 8 9 8   I J   + O q X     6 +   O o 8     O 8 +     6 +     6 8 O   + 8       8 6   o + O     + J ",
"o @ o + @     o       6       o       o 6 6 w +     . o 6 + + +         6 + o 6   o O J 6   o O O O 8 U O o + 8   + o     o +       + + o + 6         8 6 : q         + o 6 q   o       o J U L L I E E I I I E I E E E E E E E E E E E ^ ! ^ 8   0 I I E E E E E E E E ! i.B 6 X   X 8 L I I E E E ^ ^ ^ ( ( ( _ ) p.8 0 ( ! ^ ! ^ ( ( ) _ _ 7._ _ 7._ 7.7._ ( ( ( ( ( ( ( ( ( ^ ^ ^ ^ ^ ^ ! ! ^ ^ ^ ^ ! ! ! ! ^ ^ ^ ^ ^ ^ ^ ! ^ ^ ^ ^ ^ ( ( ( ( ( ( ( ( ( ( ( ( ( ( ( ) ) ( ( ( ( ( ( _ _ _ ( ^ ( ( ) ) ( ( ^ ( ( ( ( ^ ( ( ( ( ^ ^ ^ ^ ^ ^ ^ ^ ^ ^ ^ ^ ^ ^ ! E E E E ! ^ ^ ^ E L v.J 6 E I I E I I I I I I I I I I I I I I I I I P I I I I I I I I I I I I P I I I P I I I I I I I I I I I I I I I I I I I I P P I I I I I I I I P I I I I P I I I I I I I I I I I I I I E E I I I I I I E E I E I I E z.B ( ( ^ ^ ( ^ ^ ^ ! E E ! ! ^ ^ ^ ^ ^ ^ ^ ( ( ( ( ( ) ) _ ) ( ) _ _ ) _ _ _ 7.7.7.7.7.7.7.7.7.7.7.7.e.i.i.i.i.i.i.i.p.i.i.p.p.p.p.p.i.i.p.p.p.p.i.i.e.e.e.e.7._ 7.e.e.7.7._ 7.7.7.7.7.7._ 7.e.e.e.p.e.r.i.i.a.s.h.s.k.k.z.x.c.x.x.c.x.z.k.k.x.x.z.k.a.p.h.E 3 e.p.p.i.i.e.e.e.e.7.7.) ( E S 8     + + 8 7.i.p.p.p.p.i.i.i.i.i.p.6   J i.7.i.e.7.7.i.7.7.7.7.7.7.7.7.) ) ) ) ) ) ) ( ( 7.J     O     J 6 o 8 +     o ,   o 6 8       6 o   , 8 +     o +     6 6     S   X 3 P S 6 8 9 6   I J   +   q 6 6 w q +       8 + 6 8 6       + 6 + 6 0 ,       6 6 + 6 0 O       8 8 + 6 q ",
"+ o 6 +         + + 6 q       6       O + + + :         6 8 6 o         + 6 6 ,   + o J 6 O O O o O q U O O + 8   6 o       +       6 + o   +         w + : w   o     + + 8 q   o       + L I U L I E E I I E E E E E E E E E E E ! ! ^ ^ ! ^ 8   0 I I E E E E E E E E ^ p.B 6   O + + 8 L E L ! ^ ^ ^ ^ ( ^ ! ( ( i., 8 ^ E E E ^ ( ( _ _ _ _ _ _ _ _ 7.7._ ( ( ( ) ) ) ( ( ( ^ ^ ^ ^ ^ ^ ! ! ! ! ! ! ! E E E ! ! ^ ^ ! ! ! ! ^ ^ ^ ^ ^ ( ( ( ( ( ( ( ( ( ( ( ( ( ( ( ( ( ( ( ( ( ( ) _ _ ) ( ( ( ) _ _ _ ( ( ( ( ( ( ( ( ( ( ^ ^ ^ ^ ^ ^ ^ ^ ^ ! ! ! ! ! ! E ! E E E E ! ^ ^ ^ L c.S 6 E I I I I I I I I I I I I I I I I I I I I I I I I I I I I I I I I I P I I I I P P P P I I I I I I I I P P I I I I I I L L P P I I P P I I I I I I I I I I E E I I I I I I I E E E I I I I I E E E E E I E E E E x.B ( ( ^ ^ ^ ^ ^ ^ E ! ! ^ ^ ^ ^ ^ ^ ( ( ( ( ( ( ^ ^ ( ( ( ( ( ( _ _ _ _ 7.7.7.7.7.7.7.7.7.7.7.e.i.i.i.i.i.i.i.i.p.p.i.i.i.i.i.i.p.i.i.i.i.p.p.i.i.i.p.p.p.i.e.7.7.e.7.7.7.7.7.7.7.7.7._ _ 7.e.e.e.e.r.r.i.p.a.s.h.k.h.h.h.k.x.z.k.k.k.k.k.k.k.k.h.s.g.p.a.E 8 7.p.p.e.r.i.p.p.e.7.7.! ` P 8 O   O O + 8 _ p.p.p.p.p.i.e.e.p.p.p.6   J i.7.i.e.7.7.7.7.7.7.7.7.7.7.7.7.) ) 8.7.) ) ) ) 7.J     O O   S 6 q 8         8 , 6 B 6     o o 6 8 B 0     o   + 6 8 B +   3 J   X 6 P S 3 8 9 8   E J   +   8 6 0 8 8 o   o   + B 0 8 + o   O o 8 0 0 8 + O     , J 6 q 8 O     O q 0 8 0 6 ",
"    + X         o   o o   o   o X   O +     . + @     @ +     +       o o .   + O , + J 3   O o + + 0 L     + 8 + 6     @   + o : + +   X   o +     6 o       8     o + o 6 0   o       + L I U I L L P E ! E I E E E E E E E E E ! ! ^ ^ ! ^ 6   B E I E E E E E I I E ^ i.B 6 O + + O + 0 I ^ E ! ^ ^ ( ( ( ^ ) ( p.6 0 ( E ! ! ^ ( _ _ _ ) ( _ _ ) _ 7.7._ ( ( ( ( ( ( ( ( ( ^ ^ ^ ^ ^ ^ ! ! E E E E E E E E E E E E E E E ^ E ! ^ ^ ( ( ^ ^ ( ( ( ( ( ( ( ( _ _ ( ( ( ( ( ( ( ( ( ) ) ( ( ( ( ( ( ( ( ( ( ( ( ( ( ( ( ( ( ^ ! ! ^ ^ ^ ^ ^ ^ ^ ^ ^ ^ ^ ^ ^ ! ! E E E E ! ! ! ( P c.B 6 E I P I E E E E E E E E E I I I I I I P I I I I P I I L L I I I I I I I I I I I I I I P I I I I I I I P P P P I I I I I I I I I I I I P I I I I I I I I I E E I I I I I I E E E E I I I I E E E E E E E ! E E E z.B ^ ( ^ ! ^ ^ ^ ^ ! ^ ^ ^ ^ ^ ^ ^ ^ ^ ( ( ( ^ ( ( ( ( ( ( ( ( ) _ _ ( _ _ _ _ 7.7._ 7.7.7.7.7.e.i.i.i.7.7.7.i.i.i.i.i.i.i.i.i.i.i.i.i.i.i.i.i.i.i.i.e.7._ e.i.r.7.) ) 7.7.e.7._ 7.7.e.7.7.e.e.e.7.7.e.e.e.i.p.a.s.k.s.s.h.z.c.c.c.c.x.c.M.c.x.k.k.s.p.e.p.E 4 7.p.p.p.p.e.7.7.7.7.7._ ! 8 O + , +   + 8 7.a.a.p.p.p.p.i.i.p.p.p.3   L i.7.i.i.e.7.7.e.e.7.7.7.7.7.7.7.) ) 7.7.) ) ) ) 7.J X   O O   E O 6 6 o       q + + 6 O O O   6 q O , 8 O     o o 6 + , o + O J   X 8 E S 3 9 8 8 X E J   + X ]     o ,         , O     0 O     6 8     6 8       0 ,     8 O o   o 6 o   o 6 ",
"      @ +     +     .   o     6 + + + o       o + o 6 6       + 3 + + + O O   6 O 6 O L 3   , O + o B J o O o 0     +       6 , 6 8 O   O     6 8 6 6         + +   o + o 8 0   O       + L I I I I I I E E E E E E E E E E E E ! E E E E E ^ 6   B E I I E E ^ E ! ! ! ! p.S 3 +   + + + + + ^ ! ( ! E ! ^ ! ( ) ( h.3 8 ) P ! ( ( E ^ ) I J I _ _ _ ( ( ( ( ) ) ( ( ( ( ( ( ! ^ ! ! E E E E E ! ! ! ! ! ! ! ! ! ! ! ! ! ! ! ! ^ ^ ( ( ^ ( ( ( ( ( ) ) ) ( ( ( ( ( ( ( ( ( ( ( ( ` ` ` ( ( ( ( ( ( ( ^ ( ( ( ! ( ( ( ( ^ ^ ^ ^ ^ ^ ^ ^ ^ ^ ^ ^ I ^ ^ ^ E E Q ^ E E E I I I E ! ! I z.J 6 ^ E I E E E E E E E E I I I I P I I I I I I I I I I I I I I I I I P P I I I I I I I I I I I I I I I I I I I I I I I I U I I I I I I I I E E I I E E E E E E E E E E I E E W E E E E E E E E E E E W W ! E ! P I k.S ! ` ^ E E ^ ! ! ( ^ ^ ! E ^ ^ ^ ( ( ^ ^ ^ ^ ( ( _ ( ( ` ) ) ) ) ) 7._ ) ) _ 7.7.7.e.7.7.7.7.7.e.p.e.7.7.e.i.e.e.i.p.e.e.e.i.e.e.e.i.e.e.p.e.7.7.p.p.e.e.7.7.7.7.7.7.7.7.7.7.7.) ) ) ) ) 8.7.e.7.7.p.p.p.r.r.g.h.p.h.k.k.k.x.c.x.x.s.^ ( h.z.h.h.s.k.i.p.E 6 _ i.i.p.p.7.7.i.7.7.( _ 6 X + 3 X   3 O 8 e.g.r.g.a.p.i.a.i.7.e.p.6   I 7.7._ 7.7.i.i.7.e.e.7.) 7.7.7.) ) ) ) 7.7.7.7._ 7.J   O O O   U w + + o o   6 8     o +       8       6 + . o 0 8     O ,     L   X 8 E S 3 9 8 8 O L J   , O q     X + + + + B     +   + 6 O 6 0       O 6 o + 6 6       + 6 o 6 q         + ",
"      o 8 8 6 6       o 6 + o + 6 + + + @     @ 6 + 6 6 o     + 6   + 8       6 , O + I + O   + , o q U o   + 0     6 6   + 6     + + O     O 8 o + 6 o     O 8 0 0 6 O   3 6   , O     + L P L I I I I E E E E E E E E E E E E E E E E E E ^ 8   B ! E E E E ! ^ E ! ^ ) e.S 8 q 8   + 6 O + 6 ! P ! ) ! ^ ) ^ _ ) h.3 8 ) P ! ( ( ( ( ! 8 O 6 ( ( ) _ _ _ _ _ ) ( ( ( ( ( ( ( ( ^ ! ! ! ! ! ! ! ! ! ! ! ! ! ! ! E ! ! ! E E ! ^ ^ ^ ^ ^ ^ ( ( ^ ^ ( ( ( ( ( ( ) ` ( ( ( ( ( ( ! ^ ( ( ( ( ` ) ^ ( ` ( ( ( ( ( ( ( ( ( ^ ^ ^ ( ^ ^ ^ ^ ^ E ^ ^ ^ ^ ^ ^ ^ Q Y Y ^ E E ! ^ ^ I U ^ E x.J 6 ^ I I I I I I I I I I I I I I I P I I I I I I I I I I I I I I I I I I I I P P P P P P P P P P P P I I U U U U U U U U I I I I I I I I I I I I I I I I P P I I I I I I E E W W W W E E E E E E E E E E E I E E ! z.S ^ 7.I E ` ! ! ( ! ! ! ! ^ ^ ^ ^ ! ( ( ^ ^ ^ ( ( ( ^ ( ( ( ( ` ) ) ) ) ) ) ) _ _ _ 7.7.7.7.7.7.7.7.i.e.7.7.7.7.7.7.e.7.7.7.e.e.e.e.e.p.p.e.e.p.p.e.e.7.7.7.7.7.7.7.7.7.7.7.7.7.) ) 7.8.) ) ) 8.8.8.7.7.e.e.e.p.a.p.p.h.h.h.z.x.x.c.! 6 8 _ h.h.h.h.s.p.s.I , _ p.i.p.7.p.7.e.p.( _ S   3 O O   9 3 3 , r.p.r.r.7.h.g.g.i.i.p.p.,   I e.i.7.e.7.7._ 7.e.e.7.7.7.7.7.7.) ) ) ) ) ) ) ) i.L           q 0     6 0 6 J         + 8 q 0 o       o q 6 8 8         , 6 J L O X 8 I B 8 3 0 8   I P   + + U +       6 0 J B o +   O o 0 0 0 6   + +   , B 0 q   o   o   8 6 q 0       o w ",
"        o o           o 6 6 + o       o       o   X     o     o O + O O ,     8 O 6   I 6 O   + + o U J   , o q   8 O , 6 8 +       o +   o + +     + o     o ,   6 + + S 8   O O       + L I L I I I I I E E E E E E E E E E E ! ! ! E ^ ^ ( 8   S ^ ^ E E E ! ! ! E U ! k.B 8 B q 6 O + ,   o 9 P ! ! ! ` ` ! ) ( s.3 8 ` E ( E ^ ( _ _ I L ^ ( ) _ _ ) ( ( ( ( ( ( ^ ^ ^ ( ( ^ ^ ^ ! ^ ^ ! ! ^ ^ ! ! ^ ^ ! ! E E E ^ ^ E E ! ^ ^ ( ( ( ( ( ( ^ ^ ( ( ( ( ( ( _ ) ( ( ( ( ( ( ( ( ( ( ( ( ( ( ! ^ ` ^ ^ ^ ( ` ^ ^ ^ ^ ^ ^ ^ ^ ^ ^ ^ ^ ^ ^ ^ ^ ^ ^ Q Q / / Y I ^ ^ I ^ ^ ^ ^ I ^ E x.J 6 E I I I I E E E I I I I I I I I I I I I I I I I I I I I I I I I I I I I I I P P I I I I I I I I I I I I I I I I I I I I I I I I I I I I I I I I I I I I I I I I I I I I I I I I I I I I E E E E E E E E I E E E k.J ( ^ E ! ^ ! ^ ( ^ ^ ^ ^ ^ ^ ^ ^ ^ ^ ^ ^ ^ ^ ^ ^ ^ ( ( ( ( ( ( ) ) _ ) ( ) _ _ _ _ 7.7.7.7.7.7.7.7.7.7.7.7.7.7.e.i.p.i.i.i.i.i.p.p.i.p.i.e.i.p.i.7.i.i.7.7.7.7.7.7.7._ _ _ _ _ _ ) 7.7.7.7.) 7.7.7.7.7.e.p.e.p.a.a.a.h.h.h.h.z.z.c.h.) _ h.z.h.h.h.p.p.h.I + e.s.p.i.p.7.p.i.7.7.S O O 3 6 X 0 B 9 O 9 7.h.r.r.p.7.p.p.i.p.h.h.6   I 7.i.e.i.7.7.7.7.7.7.7.7.7.7.) 7.8.8.) ) ) ) ) ) i.L             6 0 8 I 6 B 6         6 8 6 8 6       + q + + 8   O O   + 7.6 I +   3 ( L 8 9 0 , O I J   , + +       6 6 O   O +       8 6 O O 6 ,     + 8 +   + +       , 0 +   + 8       q ",
"  . +         +       o     o o       o o + + :         +   + 6 O       + o 8 O   , O I ,   , O + + q J +   o 0 8 o 0 6   6 ,       o 6 , 8 8       o 6 , + 6 o       + q 3   O     X O O J I E I I I I I E E E E E E E E E E E E ! E E ^ E ^ 8   S E E I E E ! P P E ! P x.B 8 J B S + o 6   3   S E I ! ( ! ( ( ( a.3 8 ( I ( ^ ^ ^ ( 7.7.7.p._ _ ) ( ( ^ ^ ^ ( ( ^ ^ ^ ! ! ! ^ ! ! E ! E E E E E E E ! E E E E E E ! ^ ! ^ ^ ^ ^ ^ ( ( ^ ^ ^ ( ( ( ( ( ( ( ( ( ( ( ( ( ( ( ( _ ) ( ( ( ( ^ ^ ^ ^ ^ ^ ^ ^ ^ ^ ^ ^ ^ ^ ^ ^ ^ ^ ^ ^ ^ ^ ^ ^ ^ ^ ^ Y I I ^ / ^ I Y ^ ^ I E ^ ` i.^ I x.J 6 E I E E E E E E E I I I I I I P P P P I U I I I I I I I I I I I I I I E I I I I I I I I I I I I I I I I I I I I I I I I I I I I I I I I I I I I P I I I I I I I I I I I I I I I I I I E E E E E E E I ^ E E E E h.B ( ( s.i.! ^ ^ E ( ^ ^ ^ ^ ^ ^ ^ ^ ^ ^ ^ ^ ^ ^ ^ ^ ( ( ( ( ( ( ) ) ` ( ( ( ) _ _ _ 7.7._ ) ) 7.7.7.7.7.7.7.7.7.7.e.7.7.7.7.7.7.7.i.i.7.7.i.i.7.7.7.i.e.7.7.7.7.7._ _ _ _ _ _ _ _ ) 8.8.7.7.7.7.e.i.p.e.e.p.e.e.p.a.p.s.s.a.s.h.h.z.v.v.M.v.h.s.h.h.i.i.a.L O 7.s.i.p.i.p.7.e.e.L + O 3 3   9 S 9 8 B S 7.g.h.g.h.i.7.p.i.7.e.h.9   L 7.7.7.7.e.i.e.7.7.7.7.7.7.8.) 8.) ) ) ) ) ) 8.) e.J     O O     o 6 B 8   O , ,     + 6       6 o   + 8 + .   , o     , L 6 6 E   , 8 ! 9 8 8 , 9   L E   6 O 6 8 o + 6 o       q , , 8 B O     O 6 + + 8 6   O o 8 o + + 6       o q o + 8 8 ",
"+ o + X       o + o 6 6       @ @     @ 6 6 + o       o 6 o + 6       O 6 , 8   ,   0 I     + o ,   q I   + + 8 J B 6 o     8       + + O + 6 O     O , 6 6 6 + +   3 8     O       O O O B L I I I I I I E E E E E E E E E E E I E E E E E ! 6 X B E P I E E E P P E ! ! K.S.3 L I B 9 3 + 6 , + X 9 ^ ! E ^ ` ! ( p.3 8 ! I ! ^ ( ( ( ) 7._ ( ) ( ( ( ( ( ( ( ( ^ ^ ^ ^ ^ Q E ^ ^ E E E E E E E E E ! ! ! E E ! I I E E E E ^ ! ^ ^ ^ ^ ^ ^ ^ ( ( ^ ^ ^ ^ ^ ^ ^ ^ ^ ^ ^ ^ ^ ^ ^ ^ ^ ^ ^ ^ ^ ^ ^ ^ ^ ^ ^ ^ ^ ^ ^ ^ / ^ / ^ ^ ^ Q Q Q ^ ^ ^ ^ Y ^ Q Y Q R R / Q I Q ^ Q Y ^ ` _ ^ U b.J 6 Q I E I I I I I I I U I U U U U U U U L J U U U U U U I U I U I U I I I I I P P P P P I I I I I I P I P P I I I I I I I I I I I I I I U U U U L L U U U U U U U U U I I I I I I I I I I I I I E E E I ^ I I I I s.0 ^ I i._ E ^ ( E ^ ^ ^ ^ ^ ^ ^ ^ ^ E E E ^ ^ ^ ^ ^ ^ ^ ^ ^ ^ ^ ^ ^ ^ ^ ^ ^ ` ` ` ` _ _ ) ( ( _ 7._ ) _ _ 7._ _ _ _ _ 7.7.7.7.7.7.7.7.7.7.i.e.7.7.7.7._ _ _ ) ) ) ) _ _ ) _ _ _ _ ) ( ) _ _ _ _ 7.i.i.7.7.i.i.e.i.i.p.s.a.p.s.h.k.z.h.h.h.h.s.s.h.a.s.p.p.L + 7.p.i.7.a.i.) _ L O + 3 3 O O J L 8 B S a.H.) a.i.g.r.i.p.e.) ( p.8   L 7.7.7.7.7.e.e.7.7.7.7.7.8.8.7.) ) ) ) ) ) ) ) ) 7.J   O O o     O O 6 8 +   8 q 6 8 8 O       + 8 6 8 6 O O   O 8 3 6 L 8 , ( 3 X O 8 p.L 3 3 3 3   6 ^ 0   +   8 q ] ] O     O 8 q , 0 +   O O   6 q q q +   o   O 0 6 0 q o o   O 8 + 8 0 6 ",
"o   + o         + @ w 8                 X     +   .   o o     o       O 8 +   + O B J 6     o O + O B s.+ + + + 6 ^ ,   6   + ,   o + O     + o     o o   o + ,   w 0 6 O       + O     O J L L I I I I I E E E I I I I E E E E I I E E E E ^ 8   B I I E E E I ! E E I I V.vXM.J 0 J L 8 + + + 3 X + S E ! ! ^ ! ( r.3 9 ( E ! ! ( _ ( ( _ _ ( ( ( ( ( ( ( ( ^ ( ^ Q ^ ^ ^ ^ Q ^ ^ E E Q Q Q E E E E ! ^ ^ E E ^ E I E E I E ! ^ ^ ^ ^ ( ( ^ ^ ( ^ ^ ( ( ( ( ( ^ ^ ^ ^ ^ ^ ^ ^ ^ ^ ^ ^ ^ ^ ^ ^ ^ ^ ^ ^ ^ ^ ^ ^ ^ ^ ^ ^ / / ^ ^ ^ ^ ^ Q ^ ^ Y I ^ / / / / R / / / ^ ^ Q Y I J J ^ I b.J 6 E I I I I I I I I I U U U U U U U U U U U U U U U U U U U U U U U U U I I I U I U I U I U I U I U I U P U I U I U I I I U I U I U I U U U U I U U U U U U U U U U U U I I I I I I I I I I I I E E E E L L I E E h.0 ^ J 0 J E ^ ^ ( ^ E E ^ ^ ^ ^ ^ ^ ^ ^ ^ ^ ^ ^ ^ ^ ^ ^ ^ ^ ^ ^ ^ ^ ( ^ ( ( ` ` ` ` ) ) ) ) _ _ _ ( ( ( ) 7.7.e.e.7.7.7.i.e.i.i.i.e._ i.i.e.7.7.e.7._ _ _ _ _ _ _ _ _ _ _ _ _ _ _ ( ( ) _ _ _ _ _ _ 7._ 7.i.i.i.i.e.p.s.s.p.s.h.h.h.h.s.s.s.h.s.a.s.a.e.p.I , e.s.p.i.p.7.i.L X 3 6 3 3 3 P S L 9 I l.hXK.p.g.r.p.7.i.e.i.p.e.i.6   J _ 7.7.e.7.7.7.7.7.7.7.) ) ) 7.7.7.7.) 8.8.8.) ) 7.L   O X o +     O + J J + O q + 6 q +       , 6 + 8 6         8 6 J 3 o _ 6   O 3 P V.B 8 8 8 O O , 0 7.0 O   o O w q o       , +   O + +     , 6 o o 6 6     O 8 8     , o O   + 8 +   o 6 ",
"    X +     + 6 X     + o   X +   o + o     . + + X + o @     o 3   O 6 O O + + 6 ^ ,   o + + O + ,   n.s.O + + + + I B   O o 8 , 6 ,       o , + + 6 O   O O 8 + 0 6         o + O     + L I L P I I E E E I I I I I I E E E E E E E E ! E ^ 8   B E E E E E E ! P ! ` ! P sXcXc.J L P B 0 + , + 6 + O S ^ ^ ^ ( ( e., 0 ^ E E ! ^ ( ^ E ^ ( ^ ^ ( ( ( ( ( ^ ! ^ ^ ^ ^ ^ ^ ^ ^ E E E E ^ E E I I I E E ^ E E I E I I Q E I I E ! ! ^ ^ ^ ^ ^ ^ ^ ^ ^ ^ ^ ^ ^ ^ ^ ^ ^ ^ ^ ^ ^ ^ ^ ^ ^ ^ ^ ^ ^ ^ ^ Q ^ ^ ^ ^ / / ^ ^ ^ ^ / / ^ Y ^ ^ / Q R / R Y Q Q R / R R / / ^ / R R R U K g ` U z.J 7 I U U U U U U I I U U U U U J J U U U U U U U U I I I U U U U U U U U U U I U I U U U U U U U U U I U U U U U U U U U U U U U U U I U U U U U U U U U U U U U U U U U I I I I I I I I I U U U I I I I L U E I I h.B ^ ^ J U ( ^ ^ ^ I I ^ ^ ^ / ^ ^ I ^ ^ ^ ^ ^ ^ ^ ^ ^ ^ ^ ^ ^ ^ ^ ^ ^ ^ ^ ( ` ` ` ` ( ( ( ` _ ` ( ( _ _ _ _ _ 7._ ( _ _ _ _ _ 7.7._ _ 7.q._ _ 7.7._ _ _ _ _ _ _ _ ` ` ` ( ` ` ` ( ( ` ` ` ` ` ` ` ( _ ` _ e.i.i.i.i.7.p.p.i.p.i.i.p.s.s.s.s.h.a.p.s.7.) 7.J O _ p.e.p.^ i.E + , 6 8 X , S L L 0 ! c.cXfXe.l.x.a.p.h.e.7.i.h.p.i.6   J _ 7.7.i.e.e.7.7.) ) 7.8.) ) ) 7.7.7.7.7.) 8.8._ 7.L O + X O + +     +   B 0 o 1     , 8 O   O 8     O 1 ,   + 6 8 , q 6 e.B   , 8 ^ A.0 6 6 8 , 8   6 + S i.6 , +   o 0 0 + o 6 ,   O   0 q   + 6 o       6 ,   + 6   O o 8 6   6 0 o     O 6 ",
"      o + @ 6 o       o o   6 0 8 + o           +   + o       o 0 8 , + O 3 o q ^ 3   O O 8 + o +   ,   A.d.  + + + + I q 6 J     + O         6 + o +     O   8 ] o   o     + O     O + , L P L P I I E E E I I E E E E E E E E E E E E E E E 3   B E I E E E E P ! ! P _ E ! aXbXz.8 J P J B O , , , + , L _ ( ( ( 7., 8 ^ I E E I E ( ( ^ ( ^ ! ! E ! ^ ( ^ ^ E ^ ^ ^ ^ E I E I I I I I I I I I I I I I I I I U U I I E I I I I I I E ^ ^ ^ E ! ! ! ! ^ ^ E E E E E E ^ ^ ^ ^ Q E I E ^ ^ ^ E Q Q ^ ^ ^ I Q / ^ Q Q ^ ^ ^ I U I I Y Y Y R / Y Y Y Y Y R / / / Y Y R R / / ` ` ` U n.g 7 I K U U U U U U U U U U J J J J U U U J J J J U U U U U U U U U U U U J K K U U U K J K J K K K K K J K J K J K K K J K K U U U U U U U J J J J J J J J U U U U U U U U U U U U I I I I I U U I I U L I I E U U h.B ^ ^ ^ ^ ^ ^ ^ E ^ ^ I I I I Y Y I U U I I ^ ^ ^ Q I E ^ ^ ^ ^ ^ ^ ^ ^ ^ ^ ^ ^ ^ ^ ^ ^ E ^ ( ( ( ` ` ( ^ ^ ` _ ` ^ _ _ ` ` ` _ _ ( _ ` ( _ _ ` ` _ _ ` ` ( ( ^ ^ ^ ^ ^ ^ ^ ( ` ( ( ^ ^ ^ ^ ( ( ( ( ( ( ` ( ^ ` 7.i.7.p.p.p.p.p.p.a.i.a.p.e.p.s.p.i.e.7.p.L O _ p.7.( p.P O , 8 6 + + P J S B E k.zXzXp.k.g.p.p.e.e.p.i.i.i._ i.8   L 7.i.7.e.7.7.7.7.7.) 7.e.7.7.7.) ) ) ) ) ) ) ) _ 7.L , 6 +     o o O   o o B 0   +     , 6 , 8 O   O   O 0 + 6 6   , + _ 0   8 6 0 v.L 6 6 8 6 , 6 8 O , O J i.3 + +   6 S q q B         O q , , 8         6 6 6 0 O     o   8 8 , 6         B ",
"8 6 6 6 6 8 8 q 6 6 8 8 8 8 8 6 q 8 6 6 : 6 6 8 6 6 6 6 6 6 6 8 0 , O o + + q E 6     + + O O O + o 6 o   F._   6   , o ^ J L J q q 8 6 6 8 q 0 0 q q q 8 6 6 q + o       + +   O O O O + L I L I I I I I I I I I I I I I I I I ! E E E ! ! ^ 8   8 L E E I I ( E E E ! ^ ^ ^ ^ aXvXS.S S L L B + , 6 + O , E ) ^ ( 7.3 , ( ^ _ _ _ _ _ _ _ _ _ _ _ 7.7.7._ _ 7._ _ _ _ ` ` ` ` ( ` ` ( ^ ^ ( _ ( ( ( ^ ^ ^ ^ ^ ` ` ( ^ ^ ^ ( ` ^ ( ( ` ` _ _ _ _ _ _ _ ` _ _ 7.7._ _ _ ` ` ` _ ` ` ( ( ( ` ` _ ` ` ` ` ` _ _ _ ` ` _ ` ` ` ` >.` >.>.>.>.` ` ` ` ` ` ` ` ` ` ` ` ` ` ` ` ` ` >.` Y A.q 7 ` ^ ^ ^ ^ ^ ^ ^ ^ ^ ^ ^ ^ I I I I ^ ^ Q ^ ^ ^ I I ^ ^ ^ ^ ^ ^ ^ ^ ^ ^ R Y Y Q Y Y Y / / R / R Y Y Y Y / R Y Y Y Y Y Y / Y Y Q Y Y Y R ^ ^ ^ ^ ^ ^ ^ ^ ^ ^ I Q ^ Y Y I ^ ^ ^ ^ ^ ^ ^ ^ ^ ^ ^ ^ ^ ^ ^ ^ ` ( ^ ^ I d.8 ^ 7.7.7._ _ ` ` ` _ ` ` ` ^ ` ` _ _ _ _ ` ` ` _ _ i.7._ _ _ _ 7.7.i.i.i.q._ _ 7.i.i.i.i.i.i.i.i.i.i.i.i.i.7.7.i.i.i.i.i.d.d.d.d.d.p.s.s.p.d.d.d.d.p.d.i.i.i.d.d.d.i.i.i.i.7.7.i.i.s.p.d.i.i.d.p.s.p.s.s.s.p.p.s.s.s.a.s.s.s.s.s.h.x.z.h.h.s.s.s.s.h.s.s.J O i._ 7.7.L + + 8 6 + , L L S S L k.zXjXg.k.x.h.a.p.a.a.p._ s.7.7._ , O L i.7.7.7.7.i.7.7.8.) 8.7.7.7.) ( ) ) ) ) ) ) ) ) 7.L + 6 , + O + + o O     , B B 6 , 0 Z J L ^ B B 0 B B J L L L U 0 U B   , 0 6 A.J , 8 8 8 , 6 , 3 6 o   3 U i.O + ,   6 6 6 L B 8 8 8 0 0 0 J J B 0 0 B J J L U L B 8 q B J J J 0 8 8 0 0 0 ",
"+ + + + + w w 6 o + + + o o @   o o o + + + + + o + + + + + + + O       O 0 L 6 O     O o + + o 6 + o + o 6 U._ O 8   + O 6 6 0 6 8 8 q 8 8 8 6 6 8 q 8 6 6 6 8 X       O O O O o + + O , L I I I I I I I I I I I I I E E E E E E E E E E E E 6 + O 9 I I I ! E ^ ^ ^ ^ ^ ^ ^ ( ! aXxXD.E B S ! 8 , + 8 +   X + + O 3 O + 9 6 8 0 9 8 8 8 8 8 0 0 B B B S J J J B B J J J J B B J J J J J J J B J J J J J J J J B J J J B 0 q q B B J J J J J J B S J J J J J J J J J J J J J J J J J J J J J J J J J J J J J J J J J J g g g c J J J J c c c J g J c c c c c c J c c c J g g J g 7 U 6 7 g g 0 q 0 0 0 0 0 0 c J J J J c c 0 0 ] J J c g 0 J J J J J J J J J J J c c K K c c K K K K K K K K K K K K U K K K K U K K K K c c J J J J J J J J J J ] c J J J J J J J J J J J J J J J 0 0 0 0 0 0 0 J 0 0 0 J + 0 0 0 B B Z J J J 0 J J J J J J J 0 J J J J J J J J J J J J J L U J J J J J L L U J J J J L L U I U U U U U L L L L L L L L J J L L U U J J J J J J J J J B B J J J J J J J J J J J J L L J J J J J J L L L L U U I P P L L J J L S B S J J B 0 0 0 8 B 6   8 , 3 6 + + 6 3 O , P ! L 9 ! M.jXxXk.x.k.h.g.h.h.a.e.p.h.) i.e.8 3 , L 7.7.i.e.7.7.7.7.8.) ) 7.7.7.) 7.7.7.) ) ( ( ( ) 7.L + 6 , , + O O o +       6 8 0 B 0 8 6 6 8 8 8 0 B B B 0 8 J B 8 3   8 q 6 I.E + 0 8 , 6 , e.L 6 , , O O + U 7.8 + 6   o   6 6 8 q 0 0 0 8 , 6 6 8 8 8 6 6 O , 8 8 6 6 6 6 + 6 8 0 q 6 , o ",
"6 6 6 6 6 6 6 6 6 8 8 8 8 8 8 6 8 8 8 8 8 8 8 6 6 8 q q q 8 8 8 6 q 8 6 0 J 8       o o o 6 6 + 8 8 , + ,   q K.L 6 o   0 , 0 8 8 q q 8 8 8 8 q q 8 8 q J J q +       O o O O + + + + O , L I I I I I I I I I I E E E E E E E E E E E ^ ! E ! 8 , + , 0 I E E E E ^ ^ ^ ^ ^ ( ) ) P sXcXM.P B P E 0   , + , + O O + O O + , , + , , , , , , , , 6 1 , , , , , , 3 , 3 6 6 6 6 6 6 6 , , , + , + , , , , + + + + 3 6 3 3 6 6 6 6 , , , , , , , 3 3 6 6 6 3 , , 3 , + + , , , , 6 , , , , , , + + : w + + + + * * + + * 1 1 6 7 8 7 7 * * * * : : * : * * : * * * * * * * * + + * : + . 6 + + o + o + + + + + + + + + + + + + + + 6 6 : + + * 6 6 + + + + + + + + : * * * : * * * : * * * * * * * * * * * * * * * * * * * * * * * * : 6 6 6 6 : : 6 6 6 6 : + : 6 , , 6 6 6 , , , + + + + + , 6 6 + 6 + , 6 + + 6 + , , , , , 1 6 , , 6 6 , + + + + 6 6 6 6 + + + + , 6 6 6 , 6 6 , , , , , , 6 6 3 6 6 6 3 , 3 6 6 6 6 6 6 6 6 3 6 6 6 6 6 , 6 6 6 6 3 , , , , , 6 6 8 8 6 6 6 6 6 6 6 6 6 3 , , + , 6 6 6 , , , + , 1 1 1 , 6 6 6 6 6 6 6 6 6 8 6 6 3 3 6 3 3 6 6 + , 8 , O + + O + 3 , O + 0 L L P E a.vXzXe.g.x.k.h.h.h.h.g.p.p.i.7.7.J , 8 8 J _ _ i.e.7.7.7.7.7.7.7.7.7.7.7.7.7.8.) ) ) ) ) ) 7.L + 6 6 6 3 + O o + o     O 8 Z L J B B B B J J J J J Z Z Z S 6 U X 0 S 8 S.i.+ 8 8 6 B J + O O + 6 6 + + , + I U q q 0 B S 8 q 0 0 0 0 0 0 J J J J J J J J J L L L J Z B 0 B B B 0 B B B B ",
"8 6 6 6 6 6 6 8 6 6 8 8 8 q q q q 8 8 6 6 6 6 6 6 6 6 6 6 6 8 q 6 q 6 q J 6   .   o + o o 6 6 + 6 6   +   O + 0 S.q 6 0 6 8 6 q q 8 6 6 6 6 8 8 8 q q 8 , +           o o O o + + + + O , L E I I I E E E I I I I I I E E E E E E E E I I I ^ 8 , 8 , + B E E E E E E ! ^ ^ ( ( ) ^ ! I.cXD.L S B L 0 6 + 6 8 , , 6 + + + O 6 1 6 6 6 6 6 8 8 8 1 1 , 1 6 6 8 8 6 6 6 6 6 6 6 6 8 8 6 6 6 6 6 8 8 8 6 6 3 3 6 6 8 6 6 , , , 3 6 8 8 8 6 6 6 6 6 8 6 6 3 3 3 6 6 8 8 6 6 6 6 6 8 8 8 8 8 8 8 8 8 8 6 6 6 6 6 6 7 8 8 6 6 6 6 7 7 q q 7 7 7 7 q q q q 7 7 : : 7 7 q 7 7 : : : 7 7 8 7 6 7 + 8 + 8 8 8 8 8 6 6 6 6 6 7 6 : : 6 6 6 6 + + + , + , + 8 6 6 6 6 6 8 6 7 : * * * : : : 7 : * + * * * + 7 6 7 : 1 : 7 6 7 : 1 : 1 : 7 6 : 6 6 6 6 * 6 : + + + + + + + + 6 6 6 6 6 6 6 6 8 6 6 6 6 6 6 6 8 8 6 6 6 + 8 8 8 8 8 6 6 6 6 6 6 6 6 6 , , 6 6 8 8 6 6 6 6 8 8 8 6 6 6 6 6 6 6 8 8 6 6 6 6 6 6 8 8 6 6 6 6 3 3 6 6 3 , 3 6 6 6 6 6 6 6 6 6 8 8 9 8 8 8 8 9 9 8 8 6 3 3 6 8 6 6 6 6 , , , 6 6 8 q 8 8 8 8 8 q 0 B 0 q 8 8 8 8 8 8 8 8 8 6 6 6 8 q 8 6 3 3 6 6 8 8 6 , , , O 8 , 8 3 , + 3 L ! I S ( l.jXzXk.k.h.a.a.a.a.a.p.p.p.s.7.i.L + 0 B 6 L 7._ i.7.7.7.7.7.7.7.7.7.7.7.7.) ) ) ) ) ) 7.7.) 7.L + 6 6 6 6 6 , O O + o     + , 8 0 0 B Z L J B B 0 8 0 B B 6 U 0 0 0 + h.s.X , 0 , 3 , B 8 8 8 q q 6 + o O + O I L 8 J J J U L J J 0 B J J L J J B B J J L L J B 0 B B Z J L J J J J L L L ",
"  .     . .             .     .           .         .         o o   o 6 o     o . .         o   + o ,   o 6 O   8 z.O       o                                       O     O + + + + + O + L I I I I I I I I I I I I I I I I E E I E E I I E ^ 3 3 , 6 , + B E I E E E ! ^ ^ ! E E ) ( P wXbXV.L I I B +                 X     O               X                                                                     O O + O X   O O O         X           X O O       O O                       .   . .     . @                         . . . . . . . . . . . . . . . .   .               @                                             X   O                           .   .           .                                                                                                                                                                     O X                                       O O O O O X       X X X O     X O O O O O O X O O O O O + O O   X O + + + O O O X X     O O     X O O O               X                                     O       O   O   X , 6 0 J B E V.xXjXh.g.h.p.h.g.p.a.g.g.p.r.p.h.P 6 8 0 B 6 J 7.7.i.7.7.7.7.7.7.7.8.) ) ) ) ) ) ) ) ( ( ( ( ( 7.L + 6 3 6 3 6 , O     + o                                   ,     O   a.p.  6 6 + 3 ,   1 1 6 , + o + + + O +   + 8 +   o O                                             X X                 ",
"+ o + + + + o o + + + + + + + + + + + + + + + + 6 + : + + + + + o + +     X o + 6 + : 6 6 + 6 6 , + + 8 + + + 8 + B B 0 B 8 0 q 8 8 8 8 q 8 8 8 0 6 + 8 0 8 +     O O   O + , + + + + O + L I I P P I I I I I I I I I I I I I I I E ! E E ^ ^ , , , 6 6 , 3 B E E E E E ^ ( ^ E ) E ( ( E wXbXD.L J E s.H.S.F.H.F.S.D.D.F.H.A.A.A.A.A.F.H.H.F.D.F.F.F.F.D.S.D.D.A.A.S.S.S.S.A.A.M.A.F.F.F.D.A.V.M.A.A.A.A.V.M.v.x.x.x.v.v.M.v.v.x.z.z.z.x.x.x.z.x.x.x.x.x.x.z.z.z.z.z.x.x.x.x.x.z.z.z.z.z.x.x.x.s.s.s.n.z.z.z.z.s.s.s.n.z.b.b.b.s.n.n.z.z.z.z.z.n.n.z.z.b.b.b.b.n.z.b.b.b.b.x.b.c.c.b.v.A.M.v.x.z.z.x.c.c.v.v.v.c.v.v.A.A.A.A.A.M.M.V.A.S.S.S.S.A.A.S.S.F.D.S.S.S.D.H.H.K.K.H.F.D.D.D.F.H.H.H.H.H.H.K.K.P.P.K.K.S.S.F.F.H.H.K.H.K.K.K.K.K.K.H.F.F.F.F.K.K.U.K.K.S.D.F.F.F.F.F.D.A.A.S.F.F.F.F.F.D.A.S.H.F.K.S.S.V.V.A.A.S.S.S.S.S.S.S.S.D.S.S.A.v.v.M.A.A.V.v.v.A.V.A.S.D.F.S.A.M.M.M.A.A.A.V.M.v.v.v.v.M.M.M.M.M.M.M.V.A.V.M.M.M.v.c.v.M.M.v.v.x.x.x.x.x.x.x.x.s.z.v.v.x.z.z.x.z.x.v.M.M.V.M.M.M.M.V.A.S.S.A.M.v.M.A.S.F.H.H.H.F.F.F.F.F.H.H.F.S.F.F.F.H.H.F.F.S.A.F.A.D.F.D.S.S.D.F.A.x.p.( P V.jXjXa.M.a.h.h.h.h.h.h.h.g.a.a.e.^ , 8 S 8 B 8 B _ _ 7.7.i.i.7.7.7.7.7.8.) ) ) ) ) ) ) ( ( ( ( ( _ L + 6 6 8 6 , 6 1 O   o o     6 0 0 0 J J B 8 q 0 0 0 0 0 0 0 0 0 S 8 S 8 8 8 0 9 0 0 J 0 8 8 0 B B 0 0 0 0 6 6 O 6 8 , 8 6 8 8 q 0 0 0 0 q 8 q q q q 8 8 8 0 0 0 B 0 0 8 8 B 0 0 8 8 8 0 B ",
"o X @ o o o @ @           @ @ @   X o o @       X X @   o X       +       + o + o   X o X X o o o o o   + + +   o     o + + o , + + o o o + + +   o , 6 6 +     O O O + + , , + + + + O + L I I I I I I I I I I I I I I I I E E I I I I E I E , , 8 3 3 8 , 3 L I I I E ^ ^ ^ ^ E ( ! 7.( 8.qXbXBXVXCXGXLXHXKXJXKXJXJXKXKXJXKXHXGXGXHXLXKXKXLXGXGXHXHXLXLXLXKXJXKXKXKXKXKXKXKXKXHXLXLXKXKXLXHXGXGXGXGXGXGXDXSXZXZXZXCXCXVXVXVXVXBXmXmXmXmXmXmXbXbXbXbXbXbXbXvXvXcXcXcXcXcXcXcXcXcXcXcXvXvXvXvXvXvXvXvXbXbXbXbXbXvXvXvXbXbXbXvXvXbXbXbXbXbXbXbXbXbXbXbXIXIXIXIXIXIXBXBXAXAXAXAXAXCXCXVXZXZXCXZXCXVXVXCXCXCXZXZXCXZXZXZXSXGXGXGXGXGXGXGXGXHXHXGXGXGXHXHXLXLXLXHXHXGXHXLXKXKXKXLXLXHXHXLXKXKXKXKXKXLXLXKXKXKXKXKXLXHXLXLXKXKXKXJXJXKXKXKXKXKXKXKXKXLXLXLXLXLXLXLXHXHXHXLXLXLXLXLXHXHXHXHXHXHXHXGXGXGXGXGXHXHXHXGXGXDXDXDXDXGXDXDXSXSXSXDXGXDXSXZXZXZXZXZXZXZXCXCXVXBXBXBXBXBXBXBXMXmXmXMXMXMXmXbXbXbXbXbXbXbXbXbXbXbXbXbXbXbXbXbXbXvXvXvXvXvXvXvXvXvXvXvXbXbXbXbXbXbXBXVXCXCXVXVXVXVXVXZXSXGXGXGXHXGXHXLXKXKXKXKXKXHXLXKXJXJXJXJXJXJXJXJXJXJXJXKXLXLXLXLXLXLXKXKXLXKXKXKXLXKXKXKXKXHXLXKXLXLXGXZXVXmXhXa.h.a.h.k.e.p.a.s.h.a.i.p.a.( , 6 B 9 B B 8 J _ ) 7.7.7.e.7.e.7.7.7.7.7.8.) ) ) ) ) ) ) ) ) ( 7.L + 6 3 8 6 , 6 6 , + o o o   + 6 6 , , , + , + + + + , , 3 , + O , 6   6 , O , + + , , X 8 , + + + , 6 6 , 3   + + O , 3 + + + + + + + + + , + + + + + + , + O + + , , , , + + + , , , O O ",
"                                                                      o                     .                       O                                       O O o   O + 3 , + + + + + O , L I I I I I I I I I I I I I I E E E E ! E E ^ ^ E ( B , , 6 8 , , 6 , I E E E E E ! ! E ( ! E ) ! ^ M.U.jXjXjXsXsXaXI.UXaXaXhXhXfXfXjXjXjXhXfXfXfXsXsXkXfXhXfXfXsXsXfXfXgXsXaXaXaXaXaXtXI.I.L.P.P.P.P.P.K.K.H.H.F.D.D.D.D.D.S.S.V.v.c.v.x.x.x.x.x.h.s.p.p.p.p.p.a.a.a.p.p.a.a.a.i.e.e.e.e.p.a.s.a.p.p.p.s.s.s.s.s.s.d.s.s.d.d.s.s.s.s.s.s.n.n.n.n.z.z.n.n.n.b.b.b.b.b.m.v.v.b.b.v.v.c.v.x.x.M.b.v.A.A.S.S.A.S.S.S.A.A.S.S.S.S.S.S.S.D.F.H.H.H.H.H.H.J.H.H.K.K.K.K.H.H.K.P.P.L.K.L.P.L.I.I.qXqXqXI.wXwXqXqXqXqXwXI.P.P.P.P.P.P.L.K.H.H.K.K.K.K.K.K.H.F.K.L.U.U.K.K.K.H.K.K.K.K.K.K.K.L.U.I.I.I.P.I.P.L.H.K.H.H.K.D.D.S.D.D.S.S.S.V.M.v.v.v.v.M.M.M.M.v.M.v.v.x.x.x.x.x.x.x.k.h.a.p.p.i.a.a.p.p.p.p.p.p.h.s.s.h.k.k.h.h.s.h.k.k.h.h.h.h.h.k.x.x.x.k.k.x.x.c.N.M.V.V.V.S.D.D.S.D.H.K.K.K.P.P.I.I.P.K.H.H.K.K.L.L.L.I.aXsXfXfXhXhXfXfXsXsXsXgXhXjXjXlXlXjXlXxXlXlXlXlXlXlXjXlXlXlXlXjXjXjXjXjXjXxXvXxXxXxXtX7.k.h.h.h.h.k.k.h.a.s.s.a.e.e.J 8 B B 9 S 0 6 ) p.7.i.e._ 7.7.7.7.7.8.7.7.8.) ) ) ) ) ) ) 7.7.) 7.P + 3 3 8 6 8 3 , 1 6 o O O o                                   X           X     O O   O                         O                                         X                               ",
"                                                                              X                       O             O O     o   O O O     O O O O O O O O O O O o + + + , + + , + + + O , P E I I I L L I I I I E E E I I I I I E E E E E E ! ^ 6 8 , 6 0 6 , + 8 E ^ E ! ^ ! ^ ^ ( ( ^ ^ ( ^ ^ P L L P I E E I ! E E E I I I I E E E E E ^ ^ ^ 7.( ! ^ ^ E E ! E I E E E P P P E E P P P P U L L L L L L J J J L 0 L 0 L 6 X 8 B B B B B B 0 0 B B 0 0 0 0 0 0 B B 0 0 0 0 0 0 0 0 0 0 0 0 0 0 0 0 Z 0 0 g g g c h K K c c h K J K g c v f v K T K A K v v v v k k c K g 7 q q g Z Z g g 7 q 0 0 0 0 0 0 9 8 8 8 8 8 8 8 8 8 8 0 9 9 9 8 8 8 8 8 8 8 8 0 0 0 0 0 0 0 0 B 0 0 0 B 0 B 0 B 0 0 0 0 0 B 0 B B B B B B B B B B B B B B B 0 B S B 0 B B B B B B 0 0 B 0 0 0 0 0 0 0 0 0 0 0 0 0 0 0 0 0 0 0 0 0 0 0 0 0 0 0 0 B 0 0 0 0 0 0 0 0 0 9 B B B B B B B B 0 0 B B B B B B B B B B B B B B B B B B B B B B B B B B B B B B S S J J J J S B J J L J J J L L L 8 3 E ^ L ! E ! E E E ! ^ ( ) ) ) ) 7.7.) ) ) ) ) ) 7.) ) 7.p.h.e.e.p.7.7.p.p.p.a.a.a.a.p.p.p.a.g.a.h.a.h.p.a.p.p.p.a.a.p.e.7.h.g.h.k.k.h.h.k.k.h.h.h.p.e.e.9 , B N 8 S B 9 E e.e.i.r.r.e.7.7.7.7.7.7.7.) 8.7.8.) ) 7.7.) ) 7._ 7.P + 6 6 3 6 6 6 8 , , 6 , O O O O O O O O O O O O O O O O O + O   O + O O O X O O O + O O X O O O O O O O   O     O o O   O O O   O         O O O O       O O O O O O       O O O O O O O O ",
"o o o o o o o o o o o o o o o o O O O O O O O O O O O O O O O O o                       O O O O o + O O   O 6 6 O O O + + o O + + + o o o o o + + + + + + + + + + + , , , , + + + + + O , P E I I I I I I I E E I I I I I I E E E E E E E E E E I , 8 6 + 8 6 6 6 8 I ^ I I ^ E ! ^ ^ ^ ^ ( ( ( 7.7.7.7.7.e.e.e.i.i.i.e.7.7.7.7.e.i.i.i.i.e.7.7.i.7.7.i.i.7.7.i.e.e.7.e.e.7.7.7.7._ _ ) ) ) ) ` ) ( ( ( ( ( ^ ^ ^ ( I E P 7.sXM.I I I I I I I I I I P P P P L L L L L L L L L L L L L L L L L L U I I U U U Y Y Y T Y T T R R R Y R R R ;.R ;.T ;.;.;.;.;.;.;.-.;.-.R ;.R R R R / / Q Y Y Y I I I I I I P P L L I I I I P P P P I I P P P P P P I E ^ ! E I I E I I I I I I I I I I I I I I I U I I I E E E E E Q Q Q E E E Q E ^ E E ( ( E E ^ E E E E E E E E E E E E E E E E I I I I I I I I I I I I I I I I I I I I I I I I E E E E E E E E P P P P P P I I I I I I I I P L I I I I I I I I I I I E E E E E I I E E E E E E E E E E E E E E E E E E E ! ! ! E hXU.^ 7.7.( 7.7.7.7.7.7.e.e.i.a.a.a.h.h.g.a.a.k.h.h.k.x.l.x.x.x.h.x.M.c.x.c.x.x.x.c.c.c.x.x.c.x.c.N.V.M.V.M.M.V.M.c.x.x.x.x.x.k.k.h.g.g.h.h.h.h.g.h.a.e.a.B , B 8 9 B 9 9 P 7.7.7.7.7.e.e.e.e.7.7.7.8.7.7.7.7.7.7.7.7.7.8.8.7._ 7.P + 6 6 6 6 , 6 6 6 3 , 6 6 , , , , , , , , , , , , , , , , , , , , O , 6 + 0 3 O X + , , , + + + + + + o O O O O O + + + + + + + + + + + + + + + + + + + + + + + , + + + + + + + + + + + + ",
"o o o o o o o o o o o o o o o o + + + + + + + + + + + + + + o o o o X     . .   O O O o o o o o o o O O + 6 J J O + O o 3 + o , + + + + + + + + + + + + + + + + + + , + O o +   + + + O + L E I I I I I I I I E I I I I I I I I E E E E E E I I I I 6 6 8 , 8 6 6 , 0 E E E ! E ^ ^ ^ ! ^ ^ ( ( ( ( ( ( ( ) ) _ 7.7.7.7.7.7.7.7._ _ _ _ _ _ ) ) 7.7._ 7.7._ _ _ _ ) ` ` ( ( ( ( ` ` ( ( ( ( ( ( ( ^ ^ ^ ! ! ! E I E E E L E v.( L L L L L L L L L L L L L L L L L L L J J J L L J J J J J J J L L U U K K U U U K T T T T -.T T R T T T T T ;.;.T T X.X.;.;.-.;.-.-.-.-.-.-.T T R T Y T K U U P U U L L L L L L J J L L L L L L L L L L L L L L L P I I I P P I I U U U U I U U I U I U U U U L P P P I I I I E P P P P P P P I E L L ! ^ I P E E I I I I I I I I I I I I I I I P P P L L P P I I I I I I I I I P P P P P I I I L L L L L L L J L L L L L L L L P P L L L L L L L L L L L L L L L L L L L P P I P P P P I I P I I I I I I I I I E E I E E E E I E x.p.E ^ ) _ ^ ) ) ) ) 7.7.7.7.e.7.e.i.i.i.p.p.a.p.p.p.g.h.h.a.k.a.h.k.h.x.c.k.k.x.x.x.x.x.x.c.x.x.x.x.c.x.c.x.k.x.x.x.c.x.x.k.k.k.h.a.a.h.k.h.k.a.a.r.p.B 8 8 B B B N 9 L 7.e.i.i.r.e.e.7.7.7.7.7.8.) ) ) ) 7.) ) ) ( ( ) ) ) _ 7.P + 6 6 6 8 , 8 , 6 8 , 6 8 6 6 6 6 6 6 6 6 6 6 3 3 6 6 6 6 6 , 6 8 , , 6 , ) I 9 , , , , + , + + , + + + O o O O O + , , + 3 3 3 3 3 6 6 6 6 6 3 3 3 3 3 3 3 3 6 6 6 6 6 6 6 6 6 6 3 3 6 3 ",
"o o + o + + + + + + + o + + + + + + + + + + + + + + + + + + o o @ o             O o o o o + + + O + O o O O , + O + + o o + + , + + + + + + + + + + + + + + + + + o + + + 8 J B + + + O + L I I I I I L L L I E I I I I I I I I E E I I E E I I I E L 6 6 8 , 6 6 6 3 0 E ^ I ! ^ ^ ^ ! ! ^ ^ ( ( ( ( ( ( ( ( ) ( ( ( ( ( ( ( ( _ _ ) ) ) _ 7.7._ ) ( ^ ^ ( ( ^ ) ` ( ( ( ( ! ! ! ! ! ! ! ! ! ! E E E I I I I I E L E L P 8 O 6 L L L L J J J J J J J J J J J J L J J S J J J J J J J J J J J J J L J J K K U U Y T -.-.X.-.-.;.-.-.X.-.R T T -.;.-.X.O.;.X.X.:.;.;.:.-.X.-.-.-.R Y T Y U U I I L L L J L L L L L L L L L L L L J J J J J J J J J S B B J L L L L J J J J L J J L L J J L L L L L L L L L L L L I I I I I I I I L L J J J L L L L L L L L L L L L L L L L L L L L L L L L L L L L L L L L L L L L L L L L L L L P L L L P P P L L L L L L L L L L L L L L L L L L L L L L L L P L L L L L L L L L L L L L L L L L L L L L I I I E E I E E E I I L B 9 I ( ^ ) 7.( ( ( ) ) ) 8.8.e.7.7.7.7.7.e.p.i.p.p.r.i.p.g.h.h.a.p.p.p.g.k.g.k.k.k.k.k.k.k.x.c.x.x.h.x.h.x.x.x.x.k.h.g.h.h.h.k.k.k.k.k.x.x.k.h.h.r.a.L , 9 S 9 S N 8 L 7.e.7.7.7.7.7.7.7.7.7.7.7.8.) ) ) ) ) ) 8.) ) ) 7.7.) _ 7.P + 6 6 3 6 L L , , 8 , 6 3 6 6 6 6 6 6 6 6 6 6 6 6 6 6 6 6 6 , , 6 3 , 6 , , , + O + , , 6 , + , , , + + O O + O O O + , + , , 3 3 3 3 3 3 6 6 6 6 6 6 6 6 6 3 6 6 6 6 6 6 6 6 6 6 6 6 6 6 ",
"o o o o o o o o o o o o o o o o + + + + + + + + o o o o o o o O                 O O o o o + + + O + + + O   O   + O + + O o + + + + + + + + + + + + + + + + + + + o , , + 0 L J + + + + + L I I I I P P I I I I I I I I I I I I E I I I I E E I ! P E J , 3 6 6 3 8 , , B I E ! E E E ! ^ ^ ( ( ^ ( ( ( ( ( ( ( ) ) ) _ _ _ _ _ _ ) ( ( ( ( ( ) ) _ ) ( ( _ _ ) ) ) ( ( ( ( ( ! ( ^ ! ! ! ! ! ! ^ ! E E E E E E E I I I I J J J P P L L L L L L L L L L L L L L L J J J J J J L J J J J J J J L L U J K K U I I Y T -.-.-.;.;.-.:.:.:.-.-.;.-.-.-.-.o.<.<.<.:.:.:.-.O.:.:.-.;.>.T Y Y K J J L L P P L L L L L L J J J J J J J J L L L L L L L L I I L L L P P L L L L L L L U L L L L L U P P L U U L L P P P P L L L L L L L L I E I J J I E I P P P P I P P L P L L L P P L L L L L L L L L P L L L L L L L L L L L L L L L P L L L L L L L L L L L L L L L L L L L L L L L L L L L L L P I I I P L L L L L P P P L L L P I I P L L L P I I I E E E E E E E E S I I E ! ! ^ ( ) ) ( ( ) 8.7.7.e.7.7.7.7.e.i.p.e.e.r.e.e.p.a.a.a.g.h.h.h.x.x.h.k.k.k.k.k.k.x.x.c.x.c.x.c.x.c.c.x.c.x.k.k.x.x.x.k.k.k.x.x.h.h.h.p.p.a.E , N 9 B S 9 8 D ) e.7.p.e.7.7.7.7.7.7.7.7.) ) ) ) ) 8.8.) ) ) ( ) 8.7.) _ 7.P + 6 6 , , h.p.B + , , 8 6 6 6 6 6 6 6 3 3 6 6 6 3 , 3 3 3 , 6 6 , 3 6 3 3 , 3 6 6 , , , , 3 3 3 3 3 , + + O + + O   + , , , , , , 3 3 , , 3 3 3 3 3 3 3 3 3 3 3 3 3 3 3 6 6 6 6 6 3 3 6 6 ",
"+ o o + + + + + + + o o + + + + + + + + + + + + o o + + o o o o X         X     O o o o o + + + O + o + + + 6 + o     + + + + + + + + + + + + + + + + + + + + + w + + + O + 3 + + + + + + J P P L L L I E E I L L P I I I I I I I I P P I I I I I E L E J , 8 3 3 3 8 , + B E E E E E ^ ^ ^ ^ ^ ( ( ( ( ( ( ) ) ( ( ) ) ( ( ( ( ) ) _ _ _ ) ) ( ( ( ( ( ( ) ( ( ! ! ! ! ! ! ! E ! ! ! ! ! ! E E E E E I I I I I L P I P L I E J L L L L L L L L J J J J J J J J J J S S S S S J S J J J J J J J L L J c K K U U U ;.:.&.&.&.4.&.&.=.&.&.:.-.X.O.:.:.&.*.&.*.1.*.4.4.1.&.&.:.,.;.Y Y ' ' U U U P L L L L J J J J L L J J L L L L J J J J J J J J L L P L L J L L L L L L L L L L L L L L L L L L L L L L L L U U P P P P I I I I P I P L L I L L L L L L L L L L L L L L L L L L L L L L L L L L L L L L L L L L L L L L L L L L L L L L L L L L L L L L L L L L L L L L L L J J L L L L L L L L L L L L L L L L L L L L L L L L L L L L L P I I P I I I I I E E ! P E ) ^ ) 7.! ( ( ^ ( ( ) ) ) ) ) ) 7.7.7.7.7.p.p.r.p.a.a.a.p.a.g.h.h.h.k.k.h.h.h.h.h.h.k.k.k.h.k.x.x.x.k.k.k.g.h.x.x.x.x.k.h.h.g.g.h.h.a.a.h.a.e.! , N N B 8 B 3 B ) e.7.e.r.i.i.e.e.7.7.7.7.7.7.) ) ) ) ) ) ) ) ) ( ( ) ) ( ) _ P + 6 3 , , O 8 , 3 8 8 6 + 3 3 6 6 6 6 6 6 3 3 3 3 3 3 3 3 3 , , 3 , + + , , , , , , 3 3 , 3 , 3 3 6 3 , , O + + o O O + 6 , , , 3 6 6 3 3 , , 3 3 3 3 3 , 3 6 6 6 6 6 6 6 6 6 6 6 3 3 6 6 ",
"+ + + + + + + + + + + + + + + + + + + + + + + + o o + + + o o o @     o o X   o o o o o + + + + + + O o O O + O o 8 6 o + + o + + + + + + + + + + + + + + + + + + + + + + + + + + + + + , J L L J L L I I I P L L P I I I I I I I I I I I I E E I I E I ^ I + 6 6 , 8 8 + 6 J P E E E ^ ^ ! ! ^ ! E E ! ^ ( ( ^ ( ( ( ( ( ( ( ( ^ ( ( ( ( ( ( ( ( ( ( ) ) ( ( ^ ( ( ( ( ( ( ( ! ! ! ! ! ! ! ! ! E E E E E E I I I L I J L I J I L L L L L L L L J J J J J J J J J J J J J J J J J J J J J J J L L L J c v T U T -.o.=.%.$.#.#.$.=.+.#.&.:.:.O.:.:.o.#.$.$.$.1.1.E.E.E.$.#.#.:.,.T ' ' ' U K U K L L L L L J J J S J J J J J J J J J J J J L L L J J L L L J L L L U L L U U U L L L L L U U L L J J J L L U L L J L L L L L U U P L L P P U L L L L L L U U L L L L L L L L L L L L L L U U L L L L L L L L L L L L L L L L L L L L L J L L L L L L L L L L L L L L L L L L L L L L L L L L L L L L L L L L L L L L L L L L L L I P P P I I I I I I E E E E E ! I ! ^ E ! ( ^ ^ ( ( ( ( ) ) 7.7.7.7.7.e.e.e.e.e.i.7.7.e.p.i.r.p.a.g.a.a.h.h.h.k.h.h.h.k.k.k.k.k.k.x.x.c.x.c.x.k.c.x.k.h.a.a.g.h.h.g.a.g.g.a.a.g.p.( O 9 B B B B 8 S ( e.e.i.e.7.) ) 7.7.7.7.7.7.7.7.) ) ) ) ) ) ) ) ) 7.) ) ) ) ( _ L + 6 6 , 3 , 6 3 , , , 6 6 6 3 6 6 6 6 6 6 6 6 6 3 3 3 3 3 8 + , , , B S , 8 6 , , , 3 3 , , , , , , , , , + + + + + O + , , , 3 6 6 6 6 3 , 3 3 6 6 6 3 3 6 6 6 6 6 6 6 6 3 3 6 6 6 6 6 6 ",
"+ + + + + + + + + + + + + + + + + + + + + + + + o o o o o o o o     . o + o X o o o o + + + + + o + + + + + , O 3 ` I O O + O + + + + + + + + + + + + + + + + + + + + + + + + + + + + + + J L L L P I I I I I E P I I I I I I I I I E E E E E E E E I I I E L O 6 6 , 6 8 , , J I I I ! ^ ^ ^ ( ( ^ ^ ^ ( ) ( ( ( ( ( ) _ _ _ _ _ _ ) ) ) ) ) ) _ ( ( ( ) ( ( _ ^ ( ( ^ ! ( ( ! ! ! ! ! ! ! ! ! E E E E E E I I I I P E I L I L L L L L L L J J L L L L L L L L J J J J J J J J J J J J J J J J L L J c T T Y T -...W.[.#X#X9X#X#X9X`.1.o.:.:.O.&.&.`.9X#X#X#X#X#X#X#X#X9X1.o.,.;.T ' ' U U U K L L L L L J J J J L L L L L L L J J L L L L L L I U L L L P P L L L L L L U L L L L L L U U L L L L U U L L L L L L U U U U U U P I P L L I I L L L L L U U U U L L L L L L L L J L L L U U L L L L L L L L L L L L L L L L L L L L L J L L L L L L L L L L L L J J L L L L L L L L L L L L L L L L L L L L L L L L L P P P L L L L L L L P P P I I I E E E E I ( E ! ^ E ! ( ( ( ( ( ) 8.7.7.7.7.7.7.7.7.e.r.p.p.e.i.p.i.e.p.h.p.a.a.g.h.h.h.x.h.h.k.k.k.k.k.h.h.k.h.x.k.x.k.x.h.g.h.k.k.k.k.x.h.k.k.h.h.h.g.p.) , 8 B B B B 9 9 ) 7.) p.p.7.i.i.i.r.r.e.7.7.7.) ) ) ) ) 7.7.7.) ( ( ) 8.) ) ) ( _ L + 6 6 6 6 6 , 6 6 3 6 , 6 3 3 3 3 6 6 3 3 6 6 6 3 6 6 3 3 , 3 8 O , p.h., 3 6 6 6 3 , 3 6 3 3 , , 3 3 , , , + + + + O O + + + , 3 6 6 3 3 , 3 3 6 6 6 3 3 3 3 3 6 3 3 6 6 3 6 6 6 6 6 6 6 ",
"+ + + + + + + + + + o o + + + + + + + + + + + + + o o o o o o o     X o o o o o o o o o o + + + + + o + + + + + + 3 + O + + + 3 + + + + + + + + + + + + + + + + + + + + + + + + + + + + + J L L L I I I L L I I I I P P I I I E I I I I I I I I E I I I I E I L , 6 8 6 6 6 6 , P I E ^ E ^ ( ^ ( ^ ( ( ( ^ ^ ( _ ( ( ) ) ( ( ) ) ( ( ( ( ( ( ) ( ( ( ( ( ( ( ( ( ( ^ ^ ^ ^ ^ ^ ! ! ! ! ^ ^ ^ ^ E E E E I I I I I I I I I P P L L L L L L L L L J J J J L J J S L J J J S S J J J J J J J J J L L L J c v T Y R X.#.!.4X8X5X5X5X5X5X8X/.:.,.o.<.*.#.9X8X8X7X7X7X7X7X7X7X4X1...<.;.T v T U U U U P U L J J J J J J J J J J J J J J J J J J J J J L L J J J L L U L L L U U U L L U U L L L L L L L L L L L U L L U U U U U U U U L L L P P L L L U P P L L L L L L L L L L L L L L L L L L L L L L L L L L L L L L L L L L L L L L L L L L L L L P L L L L L L L L L L J L L L L L L L L L L L L J L L L L P P P J J J L L L L P L L P P L L I I I I I I E E E E ! E E E ! ^ ^ ^ ) ) ) ) ) ) ) ) ) 7.7.7.7.7.e.e.e.e.e.e.e.i.p.a.a.p.a.p.a.h.a.h.h.a.g.k.x.k.k.c.x.x.x.k.k.k.k.k.c.k.h.h.x.k.g.h.k.a.k.a.e.a.p.) 3 8 B B 8 S S 3 8.i.a.i.7.e.i.e.e.e.i.e.e.7.7.7.8.7.) ) ) ) ) ) ( ( ) ) 8.) ) ( ( i.I O 6 6 , 6 3 3 3 3 3 3 3 6 3 6 6 6 6 6 6 6 6 6 , , 6 6 6 3 8 , , , , 6 6 3 3 3 3 3 3 3 3 , 3 3 3 , , , , , 3 , + + + + o O 3 , , , 6 6 6 3 6 6 3 3 , 3 6 6 , 6 6 6 3 3 6 6 6 6 6 6 6 6 6 6 ",
"+ + + + + + + + o o o o o + o o o o o o o o o o o o o + + o X     X o o o o o o + + + + + + + + + + + + + + + + o O O O , , O O + + + + + + + + + + + + + + + + + + + + + + + + + + + + + J L P I P I I P I I I I I P P I I I I E I I I I I I E I I I I E ^ ! E B 6 , 6 8 6 , , 6 I E E ^ E I ( E E E ^ ( ^ ( ) _ ( ( _ _ ( ( ) _ _ ) ) ) ( ( ^ ( ( ( ( ( ( ( ( ( ( ( ( ^ ^ ^ ^ ^ ^ ^ ^ ^ ! ^ ^ ^ ! E E I I I I I I P P U L L L L L L L L L L L J J J J L J J J J J J J J J S J J J J J J J J L L L J K v T T T X.#.!.4X8X5X5X>X>X5X4X1.:.,.:.<.&.$.#X8X7X7X7X6X6X6X>X5X4X1.@.<.-.-.v T U U K U U U L J J J J J J J J J J J J J J J J J J L J J L L L L L L U U L L L L L L L L L L L L L L L L U U L L U U U U U U L L L L L U L L U L L L L L I P P P P L U L L L L L L L J J L L L L L L L L L L L L L L L L L L L L L L L L L L L L L L L L L L L J L L L L L L L L L L L L L L L L L L L L L L L L L L L L L L L L L L L L L L L P L L I I E I I I E E E E E E ^ ^ ^ ^ ^ ^ ( ( ( ( ( ) ) ) 7.7.7.7.7.7.7.e.e.e.r.r.i.p.p.a.p.p.a.a.a.h.a.h.k.k.k.k.k.k.k.x.k.k.h.h.k.k.k.k.x.x.k.k.x.h.a.h.g.h.p.h.h.p.7.3 8 B B 8 S B O ) e.e.i.p.p.e.e.p.i.r.e.e.7.7.7.7.8.) ) ) ( ) ( ( ) ) ( ) ) 7.) ) ( e.I O 6 6 , 6 3 3 3 3 3 3 3 3 3 3 6 6 6 6 6 6 6 6 6 6 , , 3 6 , 3 6 6 , + + , 6 6 6 3 3 3 3 3 , 3 3 3 3 3 6 6 6 , , , , + O   + , 3 3 3 3 , , 3 , , + + , 6 6 6 , , 6 8 6 6 6 6 6 6 6 6 6 6 6 ",
"o o + + + + + + o o o o + + + + + + + + + + + + o o o + o o X   o o o o o o o o + + + + + + + + + + + + + + + + + o + + + , 6 6 + + + + + + + + + + + + + + + + + + + + + + + + + + + O + L L P I P L L I I P L I I I I I I I P I I I I I I I E I E E I E E E E E 0 , 3 8 6 , 6 + 6 L ^ ^ E ^ ( E E ! ( ( ^ ( ( ( ( ( ( ( ( ( ) ( ( ( ) ) ) ( ( ) ( ( ( ( ( ( ( ( ( ( ( ( ( ( ( ^ ^ ^ ! E E E E ! E E I I I I I I P L L L L L L L L L L L J J J J J J J J J J J J J J J J J J J J J J J J J J J L L J K T T T ;.O.&.E.9X4X#X#X#X;X4X#X!.<.-.,.:.&.1.9X4X4X4X4X;X-X4X4X4X4X$.@.o.,.T T Y T U U Y U U U J J J J J J J J J J J J J J J J J J J J L L L L L L L U U U U L L L L L L L L L L L L U L U U L L L U L L U U U L L U U U U U U U U U U U U U U U L L L L L L L J J L L L U U L L L L L L L L L L L L L L L L L L L L L L L L L L L L L L L L L L L L L L L L L L L L L L L L L L L L L J L L L L L L L L P L L L L L L L L L L L L L L P I I I I I I E E E E ! ^ ^ ^ ^ ^ ( ( ( ( ( ) ) ) 7.7.7.7.7.7.7.e.7.e.r.p.p.p.p.p.h.h.k.h.h.h.a.h.h.h.h.h.h.x.c.c.k.k.h.k.x.x.x.x.x.x.x.k.k.h.h.h.k.h.h.p.h.e.8 3 N S 9 B B 8 P g.p.r.e.p.p.e.e.e.i.r.e.7.7.7.7.7.7.7.) ( ) ) ) ) 7.) ( ( ( ) ) 7.( 7.I + 6 6 , 6 3 3 3 3 3 3 3 3 3 3 6 6 6 6 6 3 3 6 6 6 3 , 6 6 8 6 , , 6 6 , 8 6 6 6 6 6 6 6 6 3 3 3 3 3 6 6 6 , , , 3 3 , + o + + 6 6 6 6 6 6 6 6 6 6 6 6 6 6 8 6 3 3 6 6 6 , 3 3 3 3 6 6 6 6 ",
"o o o + + + + + o o + o + o o + @ o o o o o @ @                       .                     O O                             O   + + + + + + + + + + + + + + + + + + + + + + + + + + + O + J L L P L L L P P P L I I I I I I I I I I I I I I I I I E E I I I I I ! P 0 , , 6 8 6 3 O 6 I ! ^ ( ! ^ ^ ^ ( ( ^ ^ ( ( ( ( ( ( ( ( ( ( ( ( ( ( ( _ _ ( ( ( ( ( ( ( ( ^ ^ ^ ^ ^ ^ ^ ^ E E E E E E E E E E I I I I I I I P L L L L L L L L L J J J J J J J J J J J J J J J J J J J J J J J J J J J J J J J J K K T T -.-.o.+.%.!.!.!.!.!.E.E...<.-.:.o.<.#.1.!.!.!.~.^.^.!.!.1.1.{ o.,.;.Y Y U U K K U K J J J J J J J J J J J J J J J J J J J J J J L J J J L L L L L L L L L L L U U U L U L U U L U L L L L L L L L U U L L L L U U U U U L U U U U L L J L L L L J U L L L L L L U L L J J J J J J L L L L L L L L L L L L L L L L L L L L L L L L L L L L L L L L L L L J J J J J J J J L L L L J L L L L L L L L L L L L L L L L L L L L L L L L L P P I I I I E E E E E E ^ ^ ( ( ( ( ( ( ( ) ) ) ) ) ) 8.7.7.e.7.7.e.e.i.i.i.p.p.p.p.p.p.a.g.h.k.k.h.h.h.k.k.k.k.k.k.k.k.x.x.x.k.x.k.h.h.h.h.k.k.k.g.h.) 9 4 B 9 B 9 B 8 L k.p.p.p.p.e.e.p.r.7.e.e.e.e.e.e.7.7.7.7.8.) ) ) ) ) ( ) 7.( ! ! ( ) ( 7.P + 6 6 , 3 3 3 3 3 3 3 3 , 3 3 3 6 6 6 6 6 6 , , , 6 6 6 , + , O   + + X O O O O O O O O O O O O O   O O   O O O O o o O       O o + o + + O O + + + + O O + 6 6 + + 6 6 , 3 3 3 3 6 6 6 6 ",
"o + + + + + + + o o o o o o o o o o o + + + o o + + + + + + + : 8 8 q q q q q q 8 8 q q q 0 0 0 0 0 0 0 0 B B B S B B B J L B O O o + + + + + + + + + + + + + + + + + + + + + + + + + O + J L L L L L L L L L P L L L L L P I I P P I I I I I I I I I I I I E E I ^ I 9 , 3 6 6 6 6 O , P ^ E E E E E ^ ^ ^ ^ ( ^ ^ ^ ^ ^ ( ( ( _ ) ( ( ^ ^ ^ ^ ^ ^ ^ ^ ^ ^ ^ ^ ^ ^ ^ ! ! E E E E E E E E E E E I I I I I P L L I P L L L L L L L L L L J J J J J J S S S J J J S S S S S S S S J J J J J J J J J J c K K Y Y T T ,.o.o.&.&.1.1.%.&...o.:.-.;.:.:.o.#.#.%.%.!.!.1.$.#.#.&.:.;.T T Y U U K K J J J J J J J J J J J J J J J J J J J J J J J J J J J J J J L L L L J J J J J J K K K K J J J J J J L L L L L L L L L L L J L L U U J J J J J L L L J L J L L L L L L J J J J J J L J J J J J J J J L L L L L L L L L L L L L J L L J J J J J J J J L L L J J J J J J J J J L L L L J J J L L L L J L L L L L L L L L L L L L L L L L L L L L L L L L L P P I I I E E E E E E ! ^ ^ ! ! ! ^ ( ( ( ( ( ( ( ) ) 7.7.7.7.7.7.7.e.e.r.r.e.i.i.p.p.p.a.h.h.a.a.h.h.h.h.k.h.k.k.h.h.k.k.h.h.k.h.a.h.h.h.h.a.a.g.e.9 O B B 9 B B 8 L 7.p.e.e.p.p.7.7.p.p.7.7.7.7.7.e.7.7.) 7.7.) ) ) ) ) ) ( ) ) ( ( ^ ( ( ( _ P + 3 3 , , 3 3 3 3 3 3 , , , 3 3 6 6 6 6 6 6 , , , 3 3 , + , J I L L L J L L L L L L L L L J L J J J J J J J J S B B B 0 0 0 q 8 8 8 8 8 6 8 8 8 8 8 8 8 6 + + 3 3 3 6 6 6 6 6 6 3 6 6 6 6 ",
"+ + + + + + + + + + + + o o o o 8 8 q q q q q q q 0 0 0 0 0 0 0 0 0 0 c J J J J L L L U U U I I I I I E E ! ! ! I I I I I ^ I 0       O o + + + + + + + + + + + + + + + + + + + + + + O + J L L J L L L L L L I L L L L P I I I L P I I I I I P I I I E E E E E L E ! P 0 , , 6 , 8 , O 8 I ^ E E E E ^ ^ ^ ^ ^ ^ ^ ^ ^ ^ ( ( ( ( ( ( ( ^ ^ ! E ^ ^ ^ ( ( ( ^ ^ ( ( ^ ^ ^ ^ ! E ! ! E E E E E E E E E I I P L L P L L L L L L L L L L L L L J J J J S S J J J S J J J J J J J J J J J J J J J J J K K K U Y Y T T T -.;.:.:.:.:.:.<.O.X.X.X.-.-.X.-.:.<.<.<.&.&.<.&.<.<.:.:.-.T T Y Y U U K J J J J J J J J J J J J J J J J J J J J J J J J J J J J L J L L L L K K K J J J J K K K K J J J J J U U L L U U U U L L L L L L U U L L L L U L L L L L L U U U U U J J J J J J J J J J J J J J J J L L L L L L L L L L L L L L L L J L L L L L L L L L L L L L J J J J J L L L L L J J J L L L L J J J L L L L L L L L L L L L L L L L L L L L L L I I I I I I I I I E E ! ^ ^ ^ ! ! ! ! ^ ( ( ( ( ) ) ) ) 7.7.7.7.7.7.e.e.i.p.p.p.g.h.a.h.h.a.a.p.i.e.i.a.g.h.k.x.h.k.k.h.h.h.h.h.h.h.h.h.k.h.a.a.p.a.e.8 , B 9 9 N 9 9 P e.i.7.e.e.e.e.i.e.e.e.p.e.7.7.7.7.7.7.7.7.) ) ) ) ) ) ) ) ( ( ( ) ) ( ^ ( ) P , 3 3 3 , 3 3 3 6 3 3 , , , , 3 3 6 6 6 6 , 6 6 3 + O O + S ^ _ ( _ 7._ _ ( ( ( ( ( ) _ _ ` ` ` ` ` _ ` ` ( ^ ^ ^ ^ ^ ^ ^ ! E I I I I U U I U U U U U I I 6 o O 6 8 6 , 6 6 6 3 3 3 6 6 6 ",
"+ + + + + + + + + + + o o @ o o                           .                                                                   o O O   O O + + + + + + + + + + + + + + + + + + + + + + O + J L L L L L L I I P P L L P I I I I I P P I I I I I I I I I E E I I E I I E ! P 0 3 3 3 , 8 3 O 0 E E ^ ! ! ^ ^ ^ ^ ! ! ^ ^ ^ ^ ( ( ^ ^ ^ ^ ^ ^ ^ ^ ^ ^ ^ ( ( ( ( ^ ^ ^ ^ ^ ^ ^ ^ ! ! E E E E E E E E I I I I I P L L L L L L L L L L J J L L L L J J S S J J J J S B J J J J J J J J S J J J J J J J J J J K K K K K T v T T -.-.X.-.n T T -.-.-.-.T T -.-.X.X.X.-.:.O.X.X.X.b b n b v T T U K J L L J J J J J J J J J J J J J J J J J J J J J J J J J J J J J J J J K K K K J J J J U K K J J J J K J J J J U U U J J J U U U U J U J L L U L L L L J J J J L L L L J J J J J J J J J J J J J J J J J J J J L L L L J J J J J J J J J J J J L L L L J J J L L L L L J J J J L J J J J J J J J L J J J J J J J J J J L L J J J L L L L L J L L L L L L P P P I I I I I E E E E ! E E ! ! ! ^ ( ( ( ( ( ( ) ) 7.7.7.8.7.7.7.e.i.p.i.e.7.e.e.p.g.a.h.p.a.a.p.p.p.p.a.a.h.h.h.h.g.h.h.a.h.h.a.h.k.h.p.a.i.p.9 O 9 B B 9 9 9 L p.a.7.p.p.e.e.e.r.r.e.e.p.7.7.7.7.7.7.7.7.7.7.) ) ) ) ) ) ) ( ( ( ) ) ) ( ( ( P , 3 3 6 3 , 3 3 6 3 3 , , , , 3 3 3 6 3 3 , 6 6 , O O O , + + O   X O X               X X                         O O O O                             O O 6 + O + 6 3 , 3 6 6 6 6 3 6 6 6 ",
"+ + + + + + + + o o o X       X       .                       o               .                 O       O X O O O O   O + O   + + O     O + + o + + + + + + + + + + + + + + + + + + + O + J L L P L L P I I P L L L P I I I I P P I I I I I I I I P I E E E E E ! I I E E L 8 , 6 6 3 6 , O 6 E E E E E ! ^ ! E E ! ^ ! ! ^ ^ ^ ^ ^ E E ! ^ ^ ^ E ! ^ ^ ^ ^ E E I I I E E E E E I I I I I I I I P P P P L L L L L L L L L L L L J J J J J J J J S S J J J J B B B B B S S S S B S S J J J J J J J J J J J K c c T v v v T T T v T c c K T v T T T T T T T -.-.-.X.X.X.v b b n v v v h h h J J Z Z J Z J Z J Z Z 0 g Z J J J J J J J J J J J J J J J J J J J J J c J J J K J J J K K K K K K K K K K K J K K K K c J J K K K K J J J J J J J J J J J J J J J J J J J J J J J J J B J J J J J S B S S S J J J J J J J J J J J J J S S S S S S S S B B B S J J J J S S J J J J S S J J J J J J J J J J J J J J J J J J J J J J J L J J J J J J J J L L L L L P I I E I I I E E E E E ! ! ! ^ ( ^ ^ ! ! ^ ( ) ) ) ( ( ( ) 7.7.7.7.) 7.e.) e.p.i.p.e.p.a.p.e.e.a.g.a.a.s.a.a.a.h.h.a.h.s.a.s.h.a.a.h.k.8 , B 9 9 B 9 8 N i.a.e.p.7.p.e.p.p.e.e.p.p.7.7.7.e.e.7.7.7.7.7.7.) ) ) ) 8.8.) ) ) ) ( ( ( ) ( ( L , 3 6 6 6 , 3 3 6 3 , , , , , 3 3 3 3 3 3 3 , , + O + , , , , , 3 , + , , , , + + + + + + + + + + + + + + o o o o o O o O O o + + O O o + O O + + + o O O   + +   O 6 8 6 6 6 6 6 6 6 6 6 ",
"+ + + + + + + + + o @   . . . . . . . . . . .   . . .   . . .   . . . . . .                       .         .               X + o O       X O O O O O o o o o + o , , + O + + + + O + O + B L L I P L L L L L I L L I I I P L L P I I I I I I I I I I I I I I I I I E E ! E J 8 6 6 6 6 3 , , 6 E ^ ( ^ ^ ^ ^ ^ _ _ ` ` ` ` _ _ 7._ _ _ ( E ^ ` i.7._ _ ` ` ` ` _ _ _ ( ( ` ` ^ ( ^ ^ ^ ^ ^ ^ ^ ( ^ E I I I I I I I I I I I I U I I U U U U U U I I I I I I I I I U L U U J L U U U U U U U U U U U U U U U Y Y Y Y T T T T T T T Y Y T T T T T R T R ;.T T -.T -.T b T b v v T T K K K Y Y Y Y U K U K K K K K K K K K K J J J K K K K K K K K K K U K U K U U K K K K K K K K T K K K K K K T T T Y Y U K T T Y T T K K K T T Y Y U U K U U U U U U U U U U U K U U J U U U U U U K J U U U U U U U U L U I U I J I J J U L U I U U U I I I U I U U U U U I U I I I I I U I I I I I I I I I I I I I I I I I U E E E I I I E ^ ^ ^ ^ ^ E I E E E E E ^ ^ E ^ ^ ^ ^ ^ ^ ^ ( ` _ _ _ _ ` ` _ _ 7.7.e.i.i.q.7.7.i.i.i.p.i.p.p.p.a.h.h.h.h.h.s.h.s.z.s.k.^ ( z.s.s.z.z.z.h.h.h.z.x.x.z.z.h.h.h.h.s.B 8 8 B 0 0 B 8 B 7.p.7.p.a.i.i.e.7.e.i.i.e.e.i.i.7.7.7.7._ _ 7.7._ _ _ _ _ ) ( _ _ _ _ ( ( ( ( ) ) J 6 + , 8 , 6 , , , 3 6 6 , , , , , , , , , 3 , + O O O + + + o O O o O O O O O O O O   O O   O         O O o o               o + O O O O       @ o o         o + + + + * 6 7 6 6 6 6 6 7 6 ",
"+ + + + + + + + + o X   . .   . . . .           .               .         .   O                 o       . . . .                                                     O + + + + O + + O O + J L I L L L L L L L P E I L L L L I E L P P P L L I I L P P I E E E E ! E I P I E E I 6 6 3 6 6 3 , , 6 8 8 8 8 q q 8 8 8 8 0 8 q q q 0 8 8 q 8 6 6 8 8 6 8 8 q q q 0 q 0 0 0 0 0 0 0 q q 0 0 q q q q q q q q q q 0 q 8 8 8 8 8 q q q q 8 8 8 8 8 8 8 8 6 6 6 6 6 6 6 8 6 6 6 6 6 6 6 6 6 6 6 6 6 6 6 6 6 6 q q q q 7 7 7 7 s s s s s s s 7 s s s s s d d s s s s u u ; u u ; u s s ; ; ; : = : : : = 7 7 7 7 7 7 7 7 : 7 7 : : : : 6 : : : : : : : : 7 7 7 7 7 7 7 7 ; ; ; ; 7 7 s s ; ; ; ; s ; ; ; = ; ; 7 s ; ; u ; u u u u ; ; : ; ; : : : 7 7 7 7 7 7 7 7 7 7 7 : 7 6 7 7 6 7 7 6 7 7 7 7 7 7 6 6 6 8 8 8 8 8 8 q 8 q 8 6 8 + 8 6 6 6 8 8 8 6 8 8 8 8 8 8 8 q q 8 8 8 8 6 6 8 8 8 8 8 8 8 8 6 6 0 8 8 8 8 8 8 8 8 8 8 8 6 6 8 8 6 8 8 8 8 8 8 q 8 8 8 q 0 q 0 0 8 8 8 8 q 0 0 0 0 0 0 q 0 0 B J 0 0 0 B B B J J J J J J J J J J J J J J J J J J J 0 J 8 q I J J J J J J S S J J S J J B J J B 0 6 8 8 8 9 0 0 8 _ s.s.i.i.i.7.i.i.i.i.i.i.i.i.i.p.e.7.7.7._ 7.7.7.7._ _ _ _ _ _ _ _ _ ) ( ( ( ( ( 7.E + , 3 6 , , , 3 6 3 + O                               O O                 O     O + O O O O O   O o o O         o     + 6 + O   O             . . .           . . . + + 6 6 6 7 7 6 1 * * ",
"o o o o o o . . o o         . . . . @ @ @ @ @ @ +     o +   + 8 J q + + + o o + + + + + + , , 3 + + + w 6 w + o 6 + + + + o O O O O   O O O O                   O     O O + + O + +   O X J J L L L L L L L P P I P I I I I I I I I I P P P I I I I I I I E E E E E E I I E ^ E B 8 3 3 6 6 6 , O O       O                                                                                                                                                                                 .             . . . . . . . . . . . . . . . . . . . . # . . # # . # . # # . . . . . . . . . . . . . . . . . . . . . . . . . . . . . . . . . . . . . . . . . . . . . . . . . . . . . . . . . . . . . . . . . . . . . . . . . . . . . . . . . . . . . . . . . . . . . . . . . . . . . . .     . . . .                                               O                             . .                                                                                                                                                                                     O         O O O O O o o + o 8 B B B B 8 B _ i.i.e.i.i.i.i.p.i.i.e.i.e.7.7.e.7.7.7.7._ _ 7.7.7._ _ _ _ _ _ _ ) ( ( ( ( ( ( ) E ) E   6 , , 3 , 3 3 , O     O O O O O O O O O O O O O O O O O + , 6 6 6 3 6 8 B 6 , 8 0 8 6 8 8 6 6 6 8 8 6 6 8 6 8 q 7 + q U 0 3 + 3 6 + + , , , + o + o + + o o       X o o o o + : + o + + ",
"o + o o o o + o .           . . @ @ @ @ + + + + + o o + + o + 8 q + o + + + o + + + + + + + , , + + : 6 8 6 * + 6 6 w w 3 3 3 6 8 8 8 8 8 8 8 8 0 0 0 0 0 0 0 B B 3 O     O + +   + O o + L I L L L L L L L L L L L L I I L L L I I P P P I I I E I I I I I I I L I I I I I I I I B 6 , , , , , + + O O   O     O O O           O         O     O           O O O O             O               o o O O     O o O O O O       O O O     O   O               O O   . . .   .             . . .   o           . . . . . . . . . . . . . . . . . # # # . . # # # # # . . . . . . . . . . . . . . . . . .       . . .         .     . . . . . . . . . . . . . . . . . . . . . . . . . . . . . . - 7 7 - . . . . . . . . . . . . . . . . . . . . . . . . . . . . . . . . . .     . .   . . . . . . .                             O o O           O o                           . .                   O O                                             O               O O O O O O O O O O O O O O O o o O O O O O O O     O O O O o o + + o o O O o + + + + + + O + + + + o O o + + + o o o o + + 6 6 8 8 8 8 9 0 ^ x.p.i.i.p.p.i.i.i.p.i.i.i.i.7.7.i.7.e.e.7.7.7.7.7._ _ ( ( ) _ _ _ ) ( ( ( ( ( ( ( ( ) E O 6 3 , 8 3 3 +     O 6 q B B S S S J J L L J J B B B B B 8 8 9 9 8 8 0 B L 0 8 8 0 8 8 8 8 8 6 6 6 8 8 8 8 6 6 8 : o : 0 B 6 + 6 6 , , 6 8 6 6 + + + + + 6 + o               o o     o + ",
". . @ @ o o o .         . o o o + + * * * * + : : : 6 + o + + + + o o + 6 + + 6 6 , , + + , , , 6 * + * + + 6 6 6 6 6 6 , , 6 8 6 6 6 6 8 8 6 6 8 8 8 8 8 8 q 0 B 9 6 O     O o   + O   + B I L L L L P I I I I E I L P P I I E I I I I I I I I E I I I E E E E E E I I I I I I ! L 0 6 6 6 6 6 + o o o o + + + o o + o o o O O + + O O O o + O o O O O o o + + o o o o o o o o + o O O O o o o O O O         O   O O O       O                 O O O O O O O                       @ @         o o O       . o o . . @ + @ + @ @ @ . . . @ @ - * % - * # # * % . . . % - @ - : - + + o o + + + + + + o + + + + + o o o + + + o + + o + + + + + * * * * * % % % * * * * * * * * + * * * + + 7 q 7 : * % % % * * * * * * * * * * + * * * * * + + * * * 1 * * * + * + + + + + + + + + + + + + + + + + + o o o + + o + + O O o O   o o O O o + o   o o o O O O O o O O O O O o o o O O O O O o o O + o O O O O O O O O O O O O O O     O O O O O O o O O O + o o +       O O O O O O O       O O O     O O o o o + o o o o + + + + + + + + + + + + o + + + + + , + , , + + + , , , 3 3 , , , 3 8 8 0 0 0 8 0 ^ i.i.p.i.p.s.i.i.p.e.p.i.i.i.i.e.i.i.i.i.i.7.7.7.7._ 7._ _ _ _ _ _ _ _ ) ) ) ( ( ( ( ( ^ J , + , , 3 , , O   O 8 B S B B B B 0 B B J B B B 0 0 0 0 0 0 8 8 8 8 8 8 0 9 8 6 6 8 8 8 8 8 8 6 8 6 6 8 8 q 8 q q q 8 6 8 8 6 6 6 6 6 6 6 8 8 6 6 6 6 : : 6 6 6 1 + + , , 6 + + + + + + , ",
". .     o o     o o . o o o o o . . . . @ @ @ o   o + o . o o @ + + + + o o o o + + o o + + + + o . . o o   o + o o + + o O O + + + + + + , + + O O o o o + + 3 , , 6 3       O + o     O + 8 , + + + , , , , + + + + , , , , , + + + , , , , , + + + + + + + + , , + + , , , , O O O                                                                                                                                                                                                                                   . . .           . . . . . . . . . . . . . @ * @ + + + @ * + + + + + , + + + + + + + + * + + + + * * * + * * : : * * * * * * * * : : * : + + * * 1 6 6 6 + + + 6 6 * + + . . @ * * * * @ + * * : : : : + * * 1 1 7 7 1 1 1 1 1 1 1 1 1 1 + + * 1 1 * + + o o + + + + + + + + + + + + , + + 6 6 6 6 6 ,     O o o o                                                                                                                                                                                                                                                       O   O + + 8 0 , 6 6 8 8 6 8 0 8 8 8 8 8 8 6 6 8 6 6 6 6 6 6 6 8 8 8 8 8 6 6 6 6 6 3 6 6 8 8 8 8 8 0 , O   + 6 , , O   O 6 0 0 8 8 6 6 6 6 6 6 6 , , 6 6 8 6 3 , , , , , 6 3 , , + , , , , 6 3 , , , , 6 6 , , 3 + + + + , 6 +   , , , , , , , + + + + + + + + + o + + + + + + + o O o + + o o o ",
"q q 7 q q q q q 7 q 7 7 7 7 q q q 7 7 q q q q q q q q 0 0 g g q q q q q q q 0 0 0 0 B J S Z B B g g J J L J J J J J J L L L L U L L L U I I I I E E ^ ^ ^ ^ ( _ S 6 , 6 , O     o O + U E I L L L L L I I I I P L L I E E I I P I I I I I I I I I I I I I E I I I I E E ! ! E E P I E E ! ^ ^ E I I I I I I L L J L L U U U I I L L P I I I P L J J L I I I I I I U L U U U L J U L U U I I U L J J J J L J J J J J S J J J S B B B S J J J J B B S J J J L J J J S J J J J S S B J J J J J J J Z J J L L J J J B B B c J J J 0 g J J J J J J J g J 7 7 q : . . @ + + + 7 q q 6 q 8 8 0 B S B q q q 0 0 0 0 0 0 0 q q q 0 0 q q q q 0 0 g g 0 0 q q q g g g g g q q 0 0 0 0 0 0 g 0 Z J J J 0 0 q 7 0 c J J c g q 0 g c J c 0 0 g g g Z Z Z g 0 0 0 0 B B 0 0 0 q 0 g g B B 0 0 0 0 0 B Z J J Z 0 0 0 0 B B 0 0 q q 8 0 q , + O O   O + O O 8 U S J J J J J J J S J J J J J J S J J J L U U L J J J J L L L L L J S J J L L J J J J S S J J J J J J J L L L L J B B S J J J S B B B J J P I I I I P P I I I L L L L L L L L L P P L P I I I I I E I E I E E E I E E E ^ ^ ^ ^ ! E E E ^ ^ ^ E E I U E ` ` ^ ^ ( ( ^ ^ ^ ! ! ! E ^ ^ ^ ^ ^ ^ ^ ^ ^ E E ^ ( ^ ! ! E E E E ! ! E E E I I E E E ! ^ E ( E ^ E , + + +   O 6 8 8 B I ( ^ ^ ^ ( ( ^ E E ^ ^ ( ( ( ^ ! E E E E ^ ! E E E E E E E E E I P U P E E I L P L I U L U I I J J L L L L U L J J J J J L U U U U U I I I I U U J J J U I U U I ",
"U U Y Y Y Q Y R Y Q R R R R Y Y Y Y Y Y Y Y Y Y Y U I Y ^ I U U I Y ^ Y ^ / ^ I Q ^ ^ ^ ^ ^ ^ ^ ^ / ^ ^ ( ` ( ( 7._ _ 7.i.a.h.h.s.s.s.s.s.s.s.s.h.z.z.x.x.x.v.M.h.L , 8 8 +         0 A.U.K.D.F.K.K.U.I.qXqXaXaXtXqXtXaXaXaXaXaXaXaXtXtXaXaXaXaXsXsXsXfXfXhXhXhXfXsXsXfXfXfXfXhXfXfXfXfXfXhXhXhXkXkXgXkXjXhXfXsXdXsXsXsXgXgXgXgXfXsXsXfXhXfXfXhXjXhXfXfXfXsXsXsXsXaXqXrXaXaXaXaXdXaXaXaXaXdXaXaXaXrXI.I.I.I.I.I.I.U.U.U.U.U.K.H.H.H.K.K.K.K.K.K.F.H.H.K.H.F.F.D.S.S.S.F.F.F.S.S.S.D.F.F.F.D.S.S.S.A.A.A.S.D.S.A.A.A.A.A.S.S.A.v.v.A.S.S.S.S.A.A.v.A.d.` _ J . @ * o o 8 J I ^ ^ ^ ^ ^ _ i.i.e._ 7.7.7.i.i.i.e.7.q.7._ >.q.>._ ` ` ` _ q.i.i.i.i.2.2.i.d.d.d.d.i.i.i.d.i.d.i.i.2.i.2.i.i.i.2.i.d.d.i.2.i.d.d.d.i.i.i.d.d.d.d.d.d.d.d.d.i.i.i.i.2.i.i.d.d.p.d.i.i.i.i.i.d.d.d.d.d.e.i.i.i.p.a.a.d.a.p.d.d.d.d.d.d.s.i.( _ ^ 0 8 8 o   O + + 6 ( A.A.A.S.F.F.F.F.F.F.F.K.K.K.H.F.F.S.S.S.F.F.F.F.F.F.F.F.H.H.H.H.H.D.S.F.H.K.K.H.F.F.D.D.F.H.H.H.H.F.D.F.K.P.U.U.U.U.U.I.qXqXaXaXaXtXtXqXqXtXqXqXI.aXaXaXsXhXhXhXhXjXjXjXlXlXlXlXlXzXzXzXxXxXxXlXlXlXjXlXlXzXxXxXxXlXlXlXzXxXxXxXxXxXzXzXxXxXxXxXxXxXxXlXjXjXjXjXjXxXxXzXxXxXlXlXlXlXlXlXxXxXzXzXxXxXlXzXxXxXlXjXhXsXsXfXfXhXhXjXjXhXfXsXsXsXsXaXaXsXsXqXtXK.0   O O   + 0 8 6 E z.h.h.h.z.x.x.z.h.z.z.z.x.x.x.x.x.x.k.h.z.z.z.z.z.h.a.p.a.g.s.g.h.p.e.e.p.p.p.i.p.p.a.p.i.i.i.i.7.7.7.7.e.i.i.i.i.i.i.i.i.i.i.i.d.i.i.i.p.s.s.d.d.p.d.p.d.p.i.d.s.",
"7 7 7 7 2 7 7 7 7 7 = * = * 2 7 : : : : : : * 7 : : : : : : * * 7 7 : * : 6 6 6 6 6 6 6 6 6 6 6 6 6 6 6 6 6 1 1 + + , , , , , , , , , , , , , , , + , , + , , O , L J , + 6 +         L S S J L L B J L J L L L J I L J L L J L L J J J L L L L L L L I I I I I E E E E I I I P E E E E E E E E E E ! ! ! ^ ^ ( ( ( ( ( ( ^ ( ( ( ( ( ( ( ( ^ ^ ` _ _ _ ( ^ ^ ! ^ ^ E E E E ! ^ E E I E E E I L I I E E E E I I I I I I I I L L L L L L U L L L J J L J J J J J J J S B B B S S S B B S J J B B J 8 Z L B L S J S L L J J U 0 I J J L L J J I U J J U U q     * + + 8 0 0 8 8 0 8 8 8 8 8 8 8 8 8 8 8 8 8 8 8 8 6 6 6 6 6 6 8 8 q q q q 8 8 8 8 q q q q q q q q q 7 7 7 q 7 q 7 q 7 q 7 q 7 q 7 q q q q q 7 7 q 7 q q 7 q 7 7 q q q q 7 q 7 q 6 8 8 7 6 8 8 8 8 8 8 0 q q 0 8 6 8 8 8 8 8 8 8 8 6 8 8 8 8 8 8 8 8 q 8 8 8 0 0 8 q ,     + + 6 L U L J B I J J J J L S I L J E S L S S L L B S L L J J J L L J L S J J J S S J J L J B L L J L J L L L L L L L L P P I E E I I P E E I E ! ^ ^ ^ ( ( ^ ^ ^ ^ ( ( _ _ 7._ 7.7.7.7.p.e.e.p.a.a.a.a.p.p.a.a.a.s.s.a.h.h.h.h.h.h.h.h.h.h.h.h.h.h.s.a.a.h.h.p.p.a.a.e.i.i.e.e.e.e.7.7.e.7.) 7.7.7.7.7.) ( ` ) 7._ ) ) ( ( ( ( ( ^ ^ ( ( ( ( ! E ^ ^ ^ E ! ^ ( ( +   O   + 8 0 , J I 8 6 8 8 6 6 6 6 8 8 8 8 8 8 8 8 8 8 8 8 8 8 8 8 8 8 8 8 8 8 8 8 8 8 8 8 8 8 8 8 8 8 0 0 q q 0 0 0 0 0 q q 0 0 0 0 0 0 q q q q q 0 0 0 q 0 0 0 q q q q q 8 8 8 8 8 ",
"7 7 7 7 7 7 7 7 7 7 7 7 7 7 7 7 7 7 7 7 7 7 q q q q 7 7 7 7 7 7 7 7 q q g q 7 6 8 8 8 8 8 8 8 q 8 8 8 8 8 8 8 8 8 8 6 6 8 8 8 8 8 8 8 8 8 8 8 8 0 8 8 8 6 6 8 8 8 8 J L 6 + 3 +       L I E I L J I I I E ! E L E ^ ! E E E I E E E E E E ! ! ! E E E E ! ! ! ! ^ ^ ( ( ( ( ( ( ( ( ( ( ( ) ) _ 7.7.7.7.7.7.7.7.7.e.e.e.7.7.7.7.e.e.e.e.e.e.e.e.e.7.7._ 7.7.7.7._ _ _ _ _ _ _ ) _ ) ( ( ( ( ( ^ ! ^ ^ ( ( ^ ^ ! ^ ! ! ! ! ! E E E E I E E E I I I I I I I L L L U I I I I I I U U L L U U U U U J ( L I E I ^ P L I I L P P U L ^ I U I E E I I U ^ U +   o + + + 0 J 0 8 8 0 B 0 0 0 0 0 0 0 0 0 0 0 0 q q 0 q q q q q q q q q q q q q q q q q q q q q q q q g g g g g h h g g g g g d g g g g g g g g g g g g g g g q q q 7 q 7 q g d q q q q 7 7 q 7 0 0 0 0 0 0 0 0 0 0 0 0 0 0 0 0 0 0 B B q q 0 0 0 0 0 0 0 0 0 q q 0 0 q 8 0 6     + 6 6 ^ ! E I ^ I I E I E I I I P I I I L P I E E I L I I I I I E I I I I P L L L P I E I I E P ! E E E E E E E E ! ^ ! ! ! ^ ^ ^ ^ ^ ^ ^ ( ( _ _ _ _ 7.7.e.i.i.i.i.i.i.i.i.i.i.p.p.p.s.a.a.a.h.h.h.h.x.x.x.x.x.x.x.z.k.x.c.M.M.c.x.k.c.x.x.x.x.x.x.z.k.x.x.k.k.x.x.x.x.z.k.h.h.s.a.a.s.a.a.p.p.p.r.e.a.p.e.p.p.e.e.e.7.e.i.i.e.7.7.7._ _ 7.7.7.) 7.7.p.( 7.i.( , +   O 0 3 , I I 8 6 6 8 8 9 0 0 B 0 0 0 0 0 0 0 0 0 B B B B B B B B B B B B B B B B B B B B S S B B J 0 0 B J 0 0 J J J J J S Z Z Z 0 0 0 0 0 0 g 0 0 0 0 0 g 0 g q g g g 0 g 0 g 0 ",
"7 7 7 7 7 7 7 7 7 7 7 7 7 7 7 7 s 7 7 7 7 7 7 7 7 7 7 7 7 7 7 7 7 7 7 : 7 7 6 q q q 7 7 7 7 q q q q q q q q 0 0 q q 8 8 8 8 8 8 6 6 6 6 6 6 6 6 8 6 6 6 6 3 6 0 J 8 8 J B 3 + ,     o I E E I E E E L L I I I E E I E E E E E I E E I I E E ! ! ! ! ! ! ! ! ! ^ ! ^ ^ ^ ( ( ( ^ ) ) ) ) ) _ _ _ _ _ ) ) _ _ _ _ _ 7.7.7._ ) _ _ 7.7.7._ 7.7.7.7._ _ ) ) _ _ ) ) ) _ _ _ _ _ ) ( ( ( ( ( ( ^ ^ ^ ^ ^ ( ( ( ^ ^ ! ! ! ! ! ! E E E E E I I I I I P P P P P P P P P L L L P P L L L L L L L L L P P E L P E L J I J L P I I E L ( I I ^ E I I E E E ^ L 6     + + o 0 0 0 0 8 q 0 q 0 0 0 0 0 0 0 0 q q q q 0 0 0 0 q q q q q 0 0 0 g 0 g q q q q g q q q q d g g g d d d d d d d d h h h d h d g g g g g g g g g g c d g K c 7 7 g d d d d g g g g g g g d g g 0 0 0 0 0 0 0 0 0 0 q q q q 0 0 0 0 0 0 0 B B B B B 0 0 0 0 0 0 0 B 0 0 0 6 O O , , 0 L ^ I E E E I E I I L E ! I E E E P L L I E E P P P P P P L L P P P P P P E E P U ! P P E L U P P I E E E E ! ! ! E E ! ! ! ! ( ( ) ) ) _ 7.7._ 7.7.e.e.e.e.e.p.p.p.p.p.a.a.a.a.a.s.h.h.h.h.h.k.k.k.k.z.x.x.x.z.x.x.x.x.x.x.l.x.x.x.x.z.k.z.z.k.k.k.h.h.h.h.h.h.h.h.h.h.s.a.a.a.s.h.p.p.p.p.p.a.p.i.p.p.r.e.e.7.e.i.i.7.7.7.7.7.7.7.) _ ) 7.7._ _ _ ` ( 6 O O 6 , 6 B E 0 9 E 0 8 9 B 0 B B B B B B B B B B B B B B B B B B B B B B B B B B B 0 0 0 0 0 0 0 0 q B J 0 q g g 0 0 0 0 0 0 g g g g g g g g g g g g g g g g g g g g g g g g q q q ",
"7 7 7 7 7 7 7 7 7 7 7 7 7 7 7 7 7 7 7 7 7 7 7 7 7 7 7 7 7 7 7 7 7 7 7 7 7 7 q q 7 7 7 7 7 7 q q q 8 8 8 6 8 8 8 6 6 6 6 6 6 6 6 6 6 6 6 6 6 6 6 6 6 6 6 8 6 6 q S 6 , 8 J 0 , O O   O J L L L E I J L L L ! E E E P I E I E E I E E I I E E ! ! ! ! ! ! ! ! ! ! ^ ^ ( ( ^ ^ ^ ^ ^ ( ( ( ( ( ( ( ( ( ( ( ) ) _ _ ) ) _ _ ) ) ) ) _ ) ) ) ) ) ) _ ) 7.7.7.) ` ( ) _ ) ( ( ( ( ( ( ( ( ( ^ ^ ! ! ^ ^ ^ ! E E E E E E E E E E E I I E I P P P P P P U L L L U U U L P L L L L L L L L P L L L L L P B 8 S L L I E I E I I P P J I I L J I E I I E I I ,   + , O + 8 J 0 6 8 0 0 0 0 0 0 0 0 0 0 0 0 8 8 8 8 q q q q 0 0 0 0 q q q q q q g q g q q q q q 7 7 d g g d d d d d d h d d d d d d d d d d d d g g g g g g h 7 g >.>.Y d d d d d d d d d 7 g g q q d d 0 0 0 0 0 0 0 0 0 0 0 0 0 0 0 0 0 0 0 0 0 0 0 0 0 0 0 9 9 0 0 0 0 B B 6 8 B 6 O + , + 0 P I I I I E I I E E P P L L J P I I L L L L P P P P P P L L L L L L L P P P P J P L ! E E E P P I I I E E E ! ! ! ! ! ! ^ ( ( ( ( ^ ^ ( ( ) ) ) ) _ 7.e.e.i.e.i.r.e.e.p.p.p.a.s.h.s.a.s.h.k.h.h.h.h.k.z.x.x.c.x.k.k.k.z.x.c.x.x.x.x.x.x.x.c.c.x.k.k.k.h.h.h.a.a.a.a.a.a.a.p.i.p.p.r.r.p.p.p.i.e.e.e.e.e.e.e.7.7.7.7.7.7.7.7.7.( _ 7.( ^ I _ _ 7._ ` ^ +   , 8 O B I B , B ( J 8 8 B 8 8 B 0 0 0 0 B 0 0 0 0 0 0 0 0 B B 0 0 B B B B B B B B 0 0 0 0 0 0 0 B L 0 q J J q q J 0 0 g g g g g g g g g g g g g g g g q g g g g g g g g g g g g g ",
"; ; ; 7 ; ; ; ; 7 7 7 7 7 7 7 7 s s s s s s s s s 7 7 7 7 7 7 7 d 7 * : 7 : : 7 7 7 7 7 7 7 7 q 7 7 7 7 6 8 8 6 8 8 8 8 8 8 8 8 8 8 8 8 8 8 8 8 6 8 6 6 8 6 , 6 6 O 8 B 8 0 B o +     , B I I L L i.K.z.J L I E ^ I I E P I E I ! E I I E E ! ! E E ! ! ! ! ! ! ^ ^ ( ( ( ^ ^ ^ ^ ( ( ( ( ( ( ` ) ) ) ) _ _ ) ) ) _ ) _ _ 7._ _ 7.7.7.7.7.7.7.7.7.7._ ) ` ` ) ) _ ) ( ( ( ( ( ( ( ( ( ( ^ ^ ^ ^ ( ^ ^ E E E E ! E E E E E E E E E E P P P P P P P P L L U U L L I P L L L L L L L L L L L L L L _ x.! 8 E L I L L L L L P P L _ A.( L E I I E U + o     O , 0 J q 8 8 q q 8 8 q 0 0 0 0 q q q q 8 8 q q q q q q 0 q q q q q q q q q g q d g d g g g g g g g g g h h f h h h f h h f f f f f f h f f h f h h h f h d d d h h g d g g h g g h g g h g g g d g g g g g g 0 q q 0 0 0 0 0 0 0 0 0 0 0 0 0 0 0 0 B 0 B 9 8 0 0 9 8 8 0 8 9 9 6 6 , X 6 , 8 L I I I ! E E I E J E x.v.E I I E I L L L P P P P P P L L L L L L L L P E P E J P E S P E I I E E E E E E E ! ! ! ! ! ! ! ( ( ! ! ! ( ` ) _ ) ) _ 7.e.e.e.e.e.e.e.e.p.p.p.p.a.a.p.p.a.h.k.k.k.k.k.k.k.l.z.z.z.z.x.x.x.x.x.x.x.x.x.x.x.x.c.c.x.k.k.k.h.h.k.h.h.a.p.p.p.p.p.h.a.p.p.p.p.i.p.p.p.p.p.p.e.e.e.7.7.7.7.7.7.e.i._ _ ) E p.aXc.^ i.( _ ( 0     3 , S S B B 0 , 8 B 6 8 0 8 8 B 0 B B 0 0 0 0 B 0 B B B B B B B B 0 B B B B B B B 0 B c 0 0 0 g J 0 0 q q 7 g J J g g g g g g g g g g g g h h g g g g g g g g h g g h h g h h h h ",
"; ; 7 7 7 7 s s 7 7 7 s s s 7 7 s s s d d d s s s s s s s s s s s : h >.d.R 7 : 7 7 7 7 7 7 7 7 q q q q q q q q 8 8 8 8 8 8 8 8 6 6 6 6 6 6 6 6 6 6 6 , 6 6 6 3 6 , 8 0 6 8 B 0 O       + L E I B S e.^ B E E P E L L I P P I E P P P P P P P I P P E E ! ! ! ! E E E E ! ^ ^ ^ ^ ^ ( ( ( ( ( ( ` ` ` ) ) ` ( ( ( ( ( ) ) ) ) ) ) ) ) ) ) ) ) _ ) ( ( ) _ _ ` ^ ( ( ( ( ( ( ( ( ( ^ ^ ^ ! ! ^ ^ E ! ^ ^ ^ ! E E E E E E E I E E I P P P P P P P L L L L U U L L J J J L L L J J J J J J L L L S jXfXM.S L J L E J L J L I ! L i.A._ P L L E I 8   + +   + 0 J 8 6 q 0 q 8 8 q q 0 0 0 0 q q q q 8 8 8 q q q q q q q q q q 0 q g g g g g g g g g g g g g g g h h d d d d f f f d h h h h h h h h h h h h h h h h d h h h h h h d g g g g h h h h g h h g d g g g g g g g 0 0 0 q 0 0 q q 8 8 8 8 0 0 0 0 B B B B 0 9 8 9 0 0 9 8 8 9 9 8 8 0 8 O O O + 9 L ( I 0 E L B P L ^ M.N.) E L L L P I E L L L L L L L D P P L L L L P W hXL.P I P E E L P P P P I E E E I I E E E ! ! ! ^ ^ ( ( ) ) ) ) ` ) ) _ 7.7.7.7.7.e.e.e.r.p.p.p.e.p.a.a.s.h.h.a.k.k.h.h.h.k.k.k.h.k.k.k.l.z.k.k.k.k.k.k.k.k.k.k.k.h.a.h.h.a.a.a.g.g.g.g.a.a.p.p.h.p.i.p.p.p.r.p.i.r.e.p.i.e.e.e.p.i.i.7.7.7.7.7.7._ 7.^ P h.E ^ ^ _ ^ 6     + , 8 I B 9 S L , + B 8 8 0 0 9 0 8 0 0 0 0 0 0 0 0 0 0 0 0 0 0 0 0 0 0 0 0 0 0 B 0 0 0 0 0 0 0 0 0 K s.n.U q c J q g g g g g g g g g g g h h h h h h g g g h h h g g g g g g h h h ",
"; ; ; u s s u u u u u s s s s s u u s s d d d s s s s s s s s d d ; d / >.Y 7 7 7 7 7 7 7 7 7 7 q q q q q q q q 8 8 7 7 6 6 6 6 6 6 6 6 6 6 6 6 6 6 6 6 6 6 8 8 8 0 6 , q 8 8 J , o +     3 B E L 8 6 9 B L P E I I I I E I I ! E P I P P E E P P P I E E E ! ! E E ! ^ ^ ^ ^ ^ ^ ^ ^ ^ ( ( ( ( ( ( ` ) ) ) ) ) ) ) ) _ 7.7.7._ 8.8.8.8.7.7.7.8.) ) ) 7.7.) ) ( _ _ _ _ _ _ ) ( ( ( ^ ^ ^ ^ ( ^ E E E ^ E E E E I I E I I I I I P P U U P P L L L S S L L P L L L L L L L L L L L L L L P I L B L 8 ! S P E J L I E I I I L J P 6 8 Z L I L 8   + o + 6 0 J q , 8 q q 8 q 0 q 8 8 8 8 8 8 q 8 8 8 8 8 q q q 0 0 q q q q q g g g g d g g d d g g g g g g g h h h h h h h h h h h h h h h h h h h h h h h h h h f d s s d s s d c g h h g g g g h g h g g g g h g g g g g q 0 q q 0 0 0 0 0 0 0 0 0 0 0 0 0 0 0 0 9 9 9 9 0 0 0 0 8 8 8 9 B B 8 8 O + + 6 0 E J O S L L E I B B , P L L P I E L J L L L L L L L L L L L L L L D S 7.p.P E P L P E P P P W E E E E E E ! ! ! ! ! ! ! ^ ( ) ) ) ) ) ) 8.7.7.7.e.e.e.7.e.i.i.r.p.p.p.p.a.a.h.h.l.k.h.k.k.h.k.k.x.x.x.k.k.k.k.l.x.x.x.x.x.k.l.x.x.k.h.x.x.l.l.l.k.h.g.p.g.g.h.h.h.g.p.p.p.r.p.p.p.i.i.7.7.7.7.7.7.e.e.i.i.e.e.e.7.7.7._ _ 7.E 8 J B ( ` _ J     + + 8 L B 0 S B B B B 0 8 q 0 q 8 8 8 q q q q 9 9 0 0 0 0 0 0 0 0 0 0 0 0 0 0 B B B B B 0 g g g Z 0 0 q Y >./ J g J K c c c c g c c c g g h h h h h h h h g h h h h g h h g g h h h h ",
"s u s s s s j j j s s s s s s s s s s s d d d s s s d s d d d d d s u u s ; ; d s s s 7 7 7 7 7 7 7 7 q q q q q q q 8 8 8 8 8 8 6 6 6 6 6 6 6 6 6 + 3 8 6 + 3 6 6 6 9 0 8 8 0 q J + O O     , P L P 6 B E I I P P I P I I L S U E E I I E E I P E E E E ! ! ! ! ^ ^ ^ ^ ^ ^ ^ ^ ^ ^ ^ ^ ( ( ( ( ( ( ) ) ) ) ) ( ) ) _ _ 7.e.7._ 8.8.7.7.7.7.7.7.7.7.7.( E E ( 7.( ( ( ( ( ( ( ( ( ^ ! ! ^ ^ ^ ^ ^ ^ ^ ! E E E E E E E E I I E E P P P P I P P P E P P P P P L L L L L L L L L L L L L L L L B 8 9 9 L 6 S L I I L P I P I Z L 8 1 6 0 I E 6   + + O 3 B J q 8 0 q 6 6 q q 8 8 8 8 8 8 8 8 8 8 q 0 0 q 8 q q q q q q q q 7 g g g g g g g g g g h h h h d h h h h h h f f h h h f h h h h h h h h h h h f h h h h f v v h c c v d h h h h h h g h h h g g g g g g g g g q q q q q q 0 0 q q 0 0 0 0 0 0 0 0 0 0 0 9 0 B 0 8 9 0 8 8 0 9 8 0 0 8 0 8 + O 6 , 3 + O + B E I P 0 , 0 S P E L L P I L L L L L L L L L L S L P E P B 8 3 B S 9 ! W E P E E P W E E E W E E E E E ! ! ! ! ^ ( ( ( ( ) ) 7.7.7.7.7.7.e.e.e.p.p.i.e.e.e.e.a.p.7.) 7.a.h.h.k.k.k.k.k.k.k.k.h.h.k.x.x.x.x.x.x.x.x.x.c.c.x.k.l.l.k.k.l.l.h.h.h.g.p.p.p.p.a.g.e.p.a.p.p.p.p.e.p.p.e.e.e.7.e.i.! ^ ( ) 7.7.7.7._ _ 7.7.E 0 I p.7.3   O + o , P L 0 B 0 B 8 B B 8 8 8 8 8 8 8 8 0 0 0 0 0 0 0 0 8 q q 0 0 0 0 0 0 0 0 0 0 0 0 B B 0 0 0 g c 0 q 7 q q q g J c 0 g g g g g h g g g h h h h h h h g h h h h h h h h h h h h h h h ",
"d d s s u u u p f f f f f f s s f f j j d d f f f f d d f f f f f s u u u j s s s s s s d 7 7 7 ; 7 7 7 7 7 q q q q q q 8 6 6 8 8 6 8 6 6 6 6 6 B d.U + 8 6 + 6 , 6 8 8 8 8 0 8 B B 8 O   O O O I L U U L I E I I E J L B ^ k.J L P E I E P P E ! ! ! ! ! ! ! ! ! ! ! ! ! ^ ( ( ! ! ! ! ^ ( ( ( ) ) _ ) ( ( _ 7.) _ _ ) ) ) _ _ 7.7.7.7.7.7.7._ ( 7.( E S.M.P ( ( _ _ ( ( ( ( ( ( ( ( ( ^ ^ ! E ^ ! ! ^ E I I E E E E I I I I I E I I I I I P L L L P P L L L I L L L L L L L L L L L L J P J , 8 6 6 0 J P I I L I U L E U 0 8 8 , + E 0   O , 3 8 B 0 8 8 9 q q q 0 0 8 8 B B 8 B 8 q 0 6 0 B Z Z 0 8 : : q q g q q 0 q d g g h g g g g d h h h h h f h h h c v v v h z z v h h h f k h z v v v v v v v v v v v v v v c c h h c c z v c c c h v c c c h h h h Z h h g d 7 h J J 0 q 9 0 0 0 g 0 q 0 0 8 8 B B B 0 9 9 B 9 9 B 8 8 8 9 0 0 9 8 J 0 O   8 3 X + O O 0 I I L I P L I E P L L U L I L L L L L L L L L I I P L B 0 8 6 0 L I P P E E E E E E E E E E E E ! ! ! ! ! ( ( ( ( ( ( ) ) ) ) ) ) 8.7.7.e.i.e.e.e.e.i.i.r.p.e.( qXc.! x.k.l.k.k.x.x.x.x.x.x.k.k.x.x.x.x.c.x.x.x.x.x.k.x.x.x.x.h.h.h.h.k.k.a.h.g.p.e.p.a.a.a.a.g.a.p.p.i.p.i.7.7.p.e.7.i.) _ F.s._ _ ) i._ i.( 7.7.( ( ` e.B     +   3 P L B B B B B B 9 8 8 8 0 8 8 B L i.I E B B B B 0 0 q 8 0 B 0 B Z 0 B 0 0 0 8 J J 0 0 0 0 0 0 g g g g g 7 q g K c c c c J J h h h h g h h h h h h h c c h f f c f f f f d d h h c c ",
"s s f f p f f f f f f f f f f f f f k k f f f i k f f f k k f f f f s j f f f f f f s s s s s s s ; 7 s 7 7 q g q q 7 7 7 8 8 8 8 8 8 6 6 6 6 1 8 U q + 3 3 6 6 6 3 6 8 9 8 8 0 9 B B 6 O     O + J I L I I L E E S E I B S.jXz.S P P P P P P E ! ! E E E ! ! ! ! ! ! ! ! ! ! ! ! ^ ^ ( ( ( ( ) ( ) ) ) ( ( ) 7.) ) ) ) ) _ 7.7.7.7.7.7.7.7.7.7.7.7.B 7.aXfXJ L ^ ( ( ( ( ( ) ) ( ( ( ^ ^ ^ ^ ^ ^ ^ ! E E E E E E E E I I I I I I I I I I I P P L L L L L L L L L L L L L L L L L L L L L E I B 6 6 8 J P I I I E L J E I 8 O 6 +   O +     3 , , , 3 6 6 8 6 , + 1 1 6 6 , 6 , 6 + 6 8 , 6 6 1 q q 6 w w w w * 7 1 7 q 7 7 d d d d d f f f f f f f f f f f f f i i i f f k k k k k k k k z k k k k f f f f f f k k f f f h h h f f k f h h h f f s d d h h g d g s s s s 7 7 1 6 8 9 q 6 q 8 1 8 8 8 8 8 q 8 , 6 8 8 3 , , , , , 3 3 , , , + + 6 6 0 8 O   O O + + + q I L J E I I U L L P P U I P L L L L L L L L I P L L L P 0 0 S I E I P I I I I E E E E E E E E ! ! ! ! ! ( ( ( ( ( ( ( ( ) ) 8.7.7.7.7.e.p.p.p.p.p.p.p.a.7.S ) lXjX! g.l.h.h.h.h.h.h.k.l.x.k.k.k.l.l.k.x.x.x.k.x.x.k.k.x.k.k.h.h.k.k.k.h.k.h.g.h.g.p.i.a.p.p.a.p.p.r.e.e.p.e.7.r.e.r.7.S F.xXK.^ 7.7.^ i.i.i._ 7.` ( ` 6         , J P B S B 0 B B B 9 8 B 8 9 8 8 0 8 S 6 0 , 9 9 0 0 0 q J 0 8 N N 8 L 0 q q 0 ] B 0 J J Z g c c c c h h h g h K K c c c c J c h v c c h h h h c c z v v v k z v v n v v v v v h k f c ",
"j j f f i i i f i i k k f f f f f k z k f f i i a k f f k a k f f f f f f f f f f f j s s d d s d u s d 7 q g 0 0 7 7 7 7 7 8 8 8 8 8 8 8 8 8 8 , , + 3 + 3 8 3 6 , , 6 8 8 8 8 8 0 B B 6 X       3 J I I P I I L ! L 8 J P 0 L B U P P P P I I ! E E E E ! ! ! ! ! ! ! ! ! ! ! ! ^ ^ ^ ^ ^ ( ( ( ( ( ( ( ` ) _ ) _ _ _ _ _ _ 7.7.7.7._ 7.7.7.7.i.^ B I 8 , 9 8 ^ ( ( ( ( ( ( ( ( ( ^ ^ ! ! ^ ^ ^ ^ ^ E E ^ ! I E E E I I I I I I I I P I I P P I P L L L L L L L L L L L L L L L L L L L L I L L J J L L L L L I J U I 8 + +     +   X + 8 , L ^ ( ) ( ^ ^ ( ( ` ` ( ` _ _ i.) E ( ^ _ ` i._ >./ / Q Q ' ^ ` ` Y Y U U c c v f v v v v v v v v b b b b b b v v b b b b b n v b n n b b b b b b b b n b b b b b n b b v v v b b b b b v v v b v v n v v v z v K h K K K c c U Y E ^ ^ ^ / / ^ R ^ ^ ^ I E ^ ^ ` E E ( ) ( ) ) ! ^ ^ ^ ! E E ! ( E 8 , , O O +     o   o 0 L L U I P L L P P P P I L L L L L L L L L L L L L E E J L P E E I I I I I I E E E I I E E E E ! ! ! ! ! ! ! ( ( ( ( ` ) ) 7.7.7.7.7.7.7.e.e.r.e.e.p.p.E , L S P B ( p.h.h.h.h.h.h.h.k.k.h.h.k.k.k.k.k.k.h.h.h.k.h.h.h.h.h.h.h.h.h.h.g.h.h.h.a.a.a.a.a.p.p.p.p.p.p.r.r.i.e.e.e.7.p.7.3 J 0 S J E 7.7.e.) 7._ ( e._ 0       O , B L J 0 B B B 0 N 9 8 8 8 6 8 8 8 0 9 0 8 0 8 B 0 B B 8 8 8 8 0 B Z Z B 8 ] 0 7 0 + g q Z g d g f c h h h h h h z z f f f h d d k k v v f h z z c v h z n z l l m m l k k k k k l l v v ",
"f i i i a a a i l a a a a a a a a a a a a a a a a a a i a a a a i k i i i i k k k i f f v v v v f s f c d g Z 0 Z 7 ; ; ; 7 q 8 6 6 6 3 6 6 6 6 8 + 3 8 + 3 8 + 3 6 , , 3 8 9 8 8 8 9 0 0 6 O   O   , J L I E L E L I B 8 S 0 6 B P E P P E E E E E E E E E ! ! ! ! ! ! ! ! ! ! ^ ^ ^ ! ! ! ! ^ ( ( ( ( ( ( ) _ _ _ _ ) ) ) ) ) 7.7._ ) _ _ 7.7._ i.B 6 L + B 9 ( ( ( ( ( ( ^ ^ ( ^ ^ ! ! ^ ^ ^ ^ ^ ^ E E E E I E E E I I I I I I I P P P I P P I L L L L P I L L L L L L L L L L L L L J J J L I L L L L L L E U U L 8 O + ,   O   O 9 z.7._ p.7.e.i.7.( ( 7.i.i.i._ ^ ^ ^ ^ L h.H.E B 0 0 B g K v Y U U U K T >./ ` / R >.2.2.>.>.,.>.>.>.,.2.2.2.2.2.2.2.2.2.2.3.3.3.3.3.3.f.3.3.3.3.3.3.m.m.3.3.3.3.m.m.m.3.3.3.m.3.3.3.3.m.3.3.3.3.2.2.3.3.3.3.2.2.2.2.f.f.f.2.>.;.>.>.2.>.^ U Z Z K K K U I I U U J J ` x.z._ ( 7.8.7.p.p.a.s.a.p.i.p.s.z.v.c.z.p.E ,   O     O O O q U J L L L P P L L P I L L L L L L L L L L L L L L L L I I P L I I I I I E E E E E E E E E E E ! ! ! ! ! ! ! ( ( ( ( ) ) 7.7.7.7.7.7.7.e.e.i.i.p.p.a.( 9 9 8 B B ( h.k.h.h.h.h.h.h.k.k.h.h.k.k.k.k.x.x.x.k.k.x.x.k.k.x.k.h.h.h.h.h.h.p.a.p.e.p.g.h.p.a.p.p.p.p.p.p.r.7.e.p.p.7.e.7.9 9 q P B E 7.7._ 7.7.7.) ( S   O +   , J J B B B B B B 0 8 4 8 9 0 8 8 8 , 8 8 6 B 0 9 0 8 8 0 8 B 8 B Z B B B 6 J Q ] U U / K Y T K A K v n v k h k k k k k i k f f p f a k l l m l l k k k a l l l a a a i a a l a l i l k k f ",
"-.X.X.X.X.O.O.o.O.O.X.O.O.O.O.O.o.o.o.o.O.O.o.o.o.o.o.o.o.o.o.o.:.-.:.-.-.-.:.:.,.-.;.,.,.,.,.,.,.>.>.>.>.2.d./ Y K d 7 7 g g 0 q q q q q q q 0 q 8 8 8 6 8 8 3 3 6 3 , , 6 8 8 8 8 6 8 0 B 6         O J I L I E I E B , 0 B , S P I P P P P E P P P I E E E E ! ! ! ! ! ! ! ! ! ( ( ! ! ! ( ( ( ( ( ( ( ` ) _ ) ) ) ) ) ) ) ) _ _ _ _ _ _ _ _ ) ! ^ L B B B L ^ ( ( ( ( ( ( ( ( ^ ^ ^ ^ ^ ^ ^ ^ E E E E I I E I I I I I I I I I P I L P P P P L L L L L L L L L L L L L L L L L L L L L L L L J J L P P L L P U U 8 O +     o , , 9 7.( L J B B 0 8 8 8 9 9 9 8 q 8 0 q q 0 , S a.8 6 8 q 0 0 7 q d 7 d g T R w.>.q.d.d.f.m.m.m.m.m.m.m.m.m.m.m.m.m.m.m.m.T.T.m.T.{.{.{.{.{.{.{.{.{.{.{.{.{.{.{.{.{.{.{.{.{.{.{.{.{.{.{.{.{.{.{.{.{.T.T.T.T.T.T.T.T.T.T.T.T.T.m.n.f.d.d.d.2.2.>.Y c h g g ] S J c Z J g q U i.! 0 8 B B B J J B B B 0 0 0 B B S B B I ( E 0 , +     O   O 0 U L L L P P L L L L L L L L L L L L L L L L L L L L I I L L I I E I I I I E E E E E E E E ! ! ! ! ! ! ^ ^ ^ ! ! ! ) ) ) ) 7.7.7.7.7.7.e.e.p.p.p.p.P L B L ( 7.i.p.h.h.h.h.h.h.h.h.k.k.k.k.k.k.x.x.x.x.k.k.k.x.k.h.x.k.h.h.h.h.g.a.h.p.e.p.p.i.i.p.p.p.i.i.p.p.r.e.r.r.i.i.) 7.) S , L L 9 ( i.7.7.7.7.7.7.0   X   O + 0 J B B B B B B 0 8 8 8 8 8 8 6 8 0 0 S L J B 0 B B B B J S 0 L B 8 0 8 0 I ^ 0 h.n.` d.f.2.f.f.f.f.2.2.2.2.,.,.,.,.,.,.:.:.,.:.:.:.,.:.:.:.:.:.:.:.:.:.:.:.:.:.:.:.:.:.:.:.:.:.:.:.:.:.;.;.",
"o.o.o.O.O.O.o.o.o.o.o.o.o.o.&.&.o.o.o.o.o.o.o.o.&.o.o.o.o.o.o.o.o.o.:.:.o.o.o.o.o.O.O.o.:.O.O.-.,.;.;.;.-.>.2.>.T c 7 ; 7 7 7 7 8 8 8 8 8 8 q q 8 0 0 6 8 q 6 8 6 , , 3 3 , 6 8 6 8 8 8 9 B 0 ,         , J I P L L E E 0 + 6 8 J P P U P P P E P P E E ! ! ! E ! ! ! ! ! ! ! ! ! ! ! ! ! ( ( ( ( ( ( ( ( ` ) ) ( ( ( ( ` ) _ _ ) _ 7.7.7.7.7.7.i.i.i.e.E S 9 E ^ ( ( ( ( ( ( ( ^ ^ ! ! ^ ! E E E E E E E I I E I I I I I I I I I I L L L P L L L L L L P L L L L L L L L L L L L L L L I P L L P P L L L L L L J 6 + + O   O O O B ( E J + J 8 9 9 0 B B B 0 0 0 0 0 0 0 0 J 9   3 q U U U 0 q 7 7 7 7 d h T >.T T T T v b X.X.X.X.X.-.-.:.:.o.o.o.o.o.o.o.:.:.:.:.:.:.o.o.o.:.o.:.:.<.:.&.<.:.<.&.o.:.o.o.:.&.o.o.o.o.o.o.o.o.:.:.o.o.o.o.o.o.o.o.:.-.O.X.X.X.n X.;.;.R T Y R T T T c c c J B q 0 q 0 J 0 6 6 + + 0 S B B B 9 B B B B B B B 0 B 8 0 B S E E 8 + +     + O O 8 P L L L U P P L L L L L L L L L P L L L L I I P L P I I I I I I I I I I I I E E E E E E ! ! ! ! ! ! ^ ^ ! ^ ( ( ) ( ( ) ) 7.7.7.7.7.7.7.e.p.i.e.7.L E 7.M.x.a.k.g.a.h.h.k.h.h.k.k.k.k.k.k.h.k.x.k.h.h.h.h.h.h.g.h.g.g.h.h.g.a.p.a.a.p.p.a.p.p.r.e.i.i.p.p.p.p.p.p.e.7.e.7.7.7.E 8 O 8 E 7._ 7._ ( _ ` J O   o   O 0 J 0 B B 9 B B 9 8 6 8 9 8 8 8 B L L B 0 B B 0 8 B B B B B B 9 0 0 8 0 0 U ^ 8 _ d.Y R c R ;.-.;.;.;.:.-.-.-.:.:.:.:.<.:.:.<.:.:.:.<.<.<.<.&.&.&.<.<.&.&.<.<.<.:.&.&.:.:.:.<.o.:.:.:.:.:.:.:.",
"..O.....................@.@.@.@.+.+.@.@.@.@.+...@.@.@...@.@.@...........o...............O...{ { X.X.X.l l m n T b T U Z g g g g q q q q 0 q q q 8 8 8 6 6 8 , 3 6 , 3 6 6 , , 6 8 8 8 8 8 0 0 9 +   O     6 L L I I L L L L L L U P P P E P P E E E E E ! ! ! ! ! ! ! ! ! ! ! ! ! ! ! ! ^ ^ ^ ^ ( ( ( ( ( ( ( ( ( ( ( ( ) ) _ 7.) _ 7.7.7.7.7._ ) 7.! E ( B E ) ( ( ( ^ ( ( ( ^ ^ ^ E E E E E E E E E E E I I E I I I I I I I I I I L L L L L L L L P P L L L L L L L L L L L L L I L L P L J L L L L J L E I L 8   O +   O 6 o 0 E B B B L B 0 8 8 0 B 0 8 0 B 8 8 8 q 8 0 L L 8 6 J I U U J J J K Y Y T T T T b v b b n l | | { { { ......................................@.@.....@.@.@.@.@.@.@.@.@.@.@.@.@.@.@.@.@.@.@.@.@.@.....@.@...............O.....} { { | l b T T T v v T T T K U I U U Y U U / I 0 q q J J J B Z J J B B B B B B B B B 0 B B B I E L 6 6 o   + o     9 S L L L I I L L L L L L L L L L L L L L I I I L L P I I I I I I I I I I E E E I E E E E ! ! ! ! ! ! ^ ( ( ( ( ) ( ( ) ) 7.7.7.e.e.e.i.p.p.p.p.p.7.P ( h.e.x.h.g.g.h.h.k.h.k.k.k.h.k.k.h.h.k.k.k.x.k.k.h.k.k.h.h.h.h.k.k.k.h.a.p.a.a.p.p.g.g.i.e.i.p.p.p.r.p.p.i.r.7.e.i.7.7.7.( ( ( _ ) ) ) i._ ( L     o   + 0 J B B J 0 8 B 0 8 6 6 8 0 8 6 , 8 8 B B 8 B S J B L B L S B B L 9 0 B 0 J U J ^ b.K Y K ;.T l | | X.O.......O.........................&.&.@...........@.@.@...@.@.@.@.@.......@.............O.",
"......+.@.@.@.@.@.@.=.=.=.@.@.@.=.@.+.+.=.=.=.=.=.=.=.=.=.=.=.=.@.+.+.+.@.@.+.+.+.+.......+.....} { { O.{ a m X.m v U Z Z g d 7 q 0 0 0 0 0 8 8 0 6 8 6 6 6 O O , 6 6 6 3 6 6 , 8 8 8 8 8 8 8 0 8 ,     X   3 I L L E P L L S I P P P P ! I P ! P P P P E ! ! ! ! ! ! ! ! ! ! ! ! ! ( ( ( ^ ^ ! ( ( ( ( ( ( ( ( ( ) ) ) ) ) _ _ 7.7.7.7._ _ _ ) 7.) e.7._ ^ 7.) ( ( ^ ^ ^ ( ( ^ ( ( ^ ^ ^ ^ ^ E ^ ^ ! E I E E L E E E E E I I I I I I L L L L L L P P L L J L L L L L L L L L L S P L J L L L I L I P L L I S 6 O 3     , O   0 ( L B B 9 0 0 B B 0 8 0 0 0 0 0 8 8 8 q 6 3 8 8 + 6   o 6 1 q 8 q 0 7 s d s j i f i a m | { ......+.+.+.+.+.@.@.+.+.@.@.@.@.@.=.@.@.=.=.=.=.=.=.=.=.=.%.=.=.%.%.=.=.=.=.=.=.=.=.=.=.=.#.=.#.@.@.@.@.=.#.#.@.@.+.@.@.@.+.+.+.+.+.@.} { a a l k k k p u d g q d g q q 7 7 0 * + 0 q q 8 8 8 6 6 0 J S B 0 0 0 B B B J 0 0 J B J _ U 6 + +     O o   9 P P J L P P L L L L L L L L L L L L L L L L I L L P I I I I I I E E E E E E I E E E E ! ! ! ! ! ^ ( ( ( ( ( ( ( ( ) 8.7.7.7.7.7.e.e.7.7.e.e.7.p.g.p.p.h.g.a.h.h.h.h.h.h.h.h.h.h.h.k.k.h.k.x.k.k.k.k.h.k.k.k.h.h.h.g.h.h.g.a.h.a.p.p.p.p.p.p.e.i.p.p.r.e.7.e.7.i.7.e.e.) ) 7.7.7.( ^ ( 7.^ ( _ L         + 0 I B B B 9 B J 8 6 8 8 8 8 8 8 8 S 8   , J L S 0 9 8 B 8 B B 9 B B B 0 q J J J K i.g Y T T l l X...} ....@.@...+.+.+.@.+.+.+.+.+.@.+.@.@.@.@.@.@.@.@.=.=.=.@.+.+.+.+.@.=.=.=.#.#.+.@.@.@.@.@.+.+.",
"%.%.@.%.%.%.%.%.%.%.=.%.E.%.%.%.E.E.%.%.E.E.%.%.E.%.W.E.%.E.%.%.E.%.E.E.%.%.%.%.E.%.=.#.%.%.=.#.=.+.@.} { O.a X.-.u = 2 1 * . * * + + + o o o o + +   + + O O + , 8 , 6 8 6 6 , , 8 8 8 8 8 9 8 0 8 +       o + E P L L L P I I P I P I I P P P E E E E E E ! ! ! ! ! ! ! ! ! ! ! ! ! ! ! ^ ( ( ( ( ( ( ( ( ( ( ) ( ( ) _ ) ) ) _ _ _ _ _ _ _ _ _ ( ( ( _ ) ( ^ ( ^ ^ ( ( ( ^ ^ ! ^ ^ ^ ! E ! ^ E E E E E E I I E E I I E I I L E I P L L L I I P P L L L L L L L L L L L L L L L L J J L L P I J U J J I L 3 O +     O 3 , 9 7.J B B 0 0 0 9 8 0 0 B B B 0 0 8 6 6 6 o + + + +   O o o . . . . . . . o - # $ & e r r [ ..@.=.=.*.%.E.E.E.E.%.E.!.E.E.E.E.E.E.W.W.E.E.E.!.E.E.!.!.E.W.!.E.!.!.E.!.E.E.W.!.E.E.W.W.!.W.!.!.E.!.!.!.!.W.!.E.W.E.E.E.E.E.%.E.%.%.%.%.+...{ y a i r e u - * - . # # . . . .                   + X 6 6 S J B S S B B 0 0 B S B 0 B L E L B 6 O     O +   , L I J L P L L L L L L L P P L L L I I L L P I I P L L P I I I I I I I I I E E E E E E ! ! ^ ^ ( ( ( ( ( ( ) ) ) ) ) ) 7.7.7.7.7.e.e.r.r.r.e.i.p.a.a.p.a.a.g.a.g.h.h.h.h.h.k.k.x.c.x.k.k.x.k.k.x.x.k.k.k.k.h.h.h.g.a.a.a.a.a.g.a.p.i.e.e.p.p.p.p.p.p.p.p.p.e.e.e.e.7.7.) ) 7.7.7.^ 7.) E i.J o   O   X J I 0 B B B 0 0 9 0 6 0 6 8 0 8 8 8 B   6 B , , 3 , , + + + + O + , + + o * * @ 7 Y d g T A l X.O.<.@.@.=.=.*.W.*.#.%.%.W.=.%.%.W.E.%.%.%.%.%.%.=.E.E.%.%.E.E.E.%.%.E.%.E.%.%.E.%.%.E.%.%.%.%.%.=.@.",
"%.E.$.%.%.E.!.!.E.!.E.E.E.E.E.E.!.E.E.E.E.E.E.!.!.!.!.!.!.!.!.!.!.E.E.E.E.!.!.!.!.E.!.!.E.E.$.$.%.=.@.*.@.[ O.| -.,.R R / U K d c J J J Z g c J J J J 3 0 6 + , 6 O 0 8 O 6 6 6 , 3 6 8 9 8 8 9 q 0 8 ,       O 0 J E I L E E L P P P I I I I E E E P E E E E E ! ! ! ! ! ! ! ! ! ! ! ! ! ! ^ ( ^ ^ ( ( ( ( ( ( 7.) ` ) ) ( ( ) _ _ ) ) ) _ _ 7.7._ ( ( ( ) ( ( ( ^ ^ ^ ( ^ ^ ^ ! ^ ^ ! E E E E ^ E E E E E E I I I I I I I I I P P P P P L L L L L L L L L L L L L L L L L L L J L L L L L L S J L L I L 6   +     , ,   0 ) B B 0 0 0 0 0 0 9 0 0 9 8 0 B 0 6 q 6   8 3 O , B J J J J J J c g c c Z Z K T b b X.O.o.&.@.@.=.%.E.E.E.E.E.!.E.!.!.!.!.!.!.!.!.!.!.!.W.E.!.!.!.~.!.!.!.!.!.!.!.!.!.!.!.!.!.!.!.!.!.!.!.!.!.!.!.!.!.!.!.!.E.!.!.!.!.!.!.!.E.E.E.E.E.%.%._.o.| | X.v T A K Z h v f d g g g Z Z J J B J J J 8 O 1 O 8 , 0 E 0 6 L 0 S B 0 B B B 0 0 L E I B , O O   O O   6 I ! L I I L L L L L L L L L L L L L L L I I I I P P I I I I I I I I I I E E ! ! ! ! ! ! ^ ! ( ( ( ( ( ( ( ( ) ) ) ) 8.7.e.e.e.e.e.7.7.7.i.i.i.i.p.p.p.p.a.g.h.h.h.h.h.h.h.h.h.h.h.a.a.g.k.k.k.k.h.h.h.h.h.h.h.h.g.a.a.a.a.a.a.p.i.e.p.p.a.p.p.p.e.e.7.7.e.e.7.7.7.7.7.7.7.) ^ 7.( ( i.S O     O + 8 S S J S B B S B 8 3 8 8 6 9 6 , 0 0 O 6 J O 6 B S I E I E E E P L L I I U U K U Y U Q >.T l X.{ &.&.%.E.1.!.E.E.!.!.!.E.!.!.!.!.!.!.!.!.E.E.!.!.!.!.!.!.!.!.E.!.!.!.!.!.!.!.E.E.!.!.!.!.E.E.E.%.E.!.",
")..X.X).)..X.X.X]..X.X.X).]..X.X.X.X)..X.X.X.X.X.X.X.X.X.X.X).)..X.X.X].).)..X.X].)..X.X).].).)..X).!.%.*.&.o.X.X.,.>.;.;.>.>.2.i.d.d.i.i.i.i.d.z.i.x.v.8 0 8 + + , , 8 8 6 8 3 3 , , 8 8 8 8 9 6 9 0 8 +         8 P E L I E L P P P P I E E E P P P E E E E E ! ! ! ^ ! ! ! ! ! ! ! ! ! ! ! ! ( ( ( ( ( ( ( ( ) ( ( ( ( ( ` ) _ _ ) ) ) ) _ 7.) ) ) ) ) ( ^ ^ ( ( ^ ^ ^ ! ^ ^ ^ ^ ^ ! E E E E E E E E E E E I E E E E I I I E L P P P P L L L L L L L L L L L L L L L L L L L J L L L L L L J I B I U o   ,     + , O J ^ B B 0 9 8 8 9 0 0 0 0 8 9 B 0 6 6 8 8 , + 6 I A.S.h.z.z.s.s.n.b.z.n.d.f.f.d.d.f.2.3.3.3._._.W.E.!.(.).)..X].).).)..X.X].]..X.X].].]..X.X].]..X.X]..X.X.X.X.X.X.X.X.X.X.X.X.X]..X.X.X]..X].].).)..X.X.X.X.X.X].]..X.X.X).]..X].).).).).).E.@.*._.3.3.3.f.f.f.f.f.f.f.n.b.b.b.z.z.x.c.V.M.S.K.H.L + 6   , 9 0 L J 9 B B B 0 0 0 B B 9 S L P P B 3 O O   O O   6 I ^ J L L L P I I P L L L L L L L L L L L L L L L L P I I I E I I I E E E ! ! ! ! ! ! ! ! ! ! ! ! ^ ^ ! ^ ( ) ) ) 7.7.7.7.7.7.7.7.7.7.p.i.r.i.p.p.p.p.a.a.g.g.g.g.h.h.h.h.h.h.h.h.h.k.k.k.h.h.h.h.h.h.h.g.a.a.g.a.a.p.p.p.p.p.p.i.p.p.p.p.p.i.e.7.7.e.e.7.7.7.7.7.7.8.7.7.7.( ( 7.I         + 0 J 0 0 0 B S B B 9 8 6 6 B 6 8 8 6 0 o 6 0 3 0 P J M.S.z.h.k.z.z.h.h.h.s.s.d.2.2.2.2.>.w.A A X.O.4._.#.!.^.)..X).)..X.X.X).).]..X)..X.XoX.X.X.X.X.X.X.X.X.X.X.X.X.X.X.X.X.X.X.X.X)..X X.X.X.XoX.X).).).",
"-X-X;X$X$X=X-X*X$X;X-X*X$X$X*X*X=X;X=X*X*X$X$X*X*X=X$X$X*X*X=X$X;X;X;X$X$X=X-X*X$X;X-X-X;X@X-X-X;X;X.X!.%.*.o.o.:.X.l u f v ; d 7 q 7 q 8 q q q 6 0 J v.s.8 8 9 O 8 , 6 8 , 6 6 6 , , 6 8 8 8 8 6 6 8 8 8 , O       8 L L L P I P P P P P P P P P E E E E E E E E ! ! ! ! ! ! ! ! ! ! ! ! ! ! ! ( ( ( ( ( ( ( ( ) ( ( ) ) ) ) ) 7._ ) ) ) ) _ _ ( ( ) ) ) ( ( ^ ( ( ( ^ ^ ! ^ ^ ^ ^ ^ ! E E E E E E E E E E I L E E E I I P I I I I P L L L I I L L L L L L L L L L L L L L L L L L L J J L L P L U 0 + O       + , O J ! S B 8 0 0 9 8 9 9 9 9 9 0 0 0 8 3 3 8 O   B E x.! 0 B 8 8 q q q q g g d h h h h v m m m ..&.=.E.(..X;X;X;X;X-X;X;X;X-X-X$X@X;X;X$X@X$X;X;X@X;X*X=X$X;X=X*X;X;X=X=X;X;X$X=X=X;X;X;X-X;X;X;X;X;X$X$X=X;X$X$X;X;X;X@X;X-X*X$X$X;X;X;X;X;X;X;X).E.%.*.<.:.X.X.v v z h v c c J g 0 q q 0 0 J 0 6 6 L A.E 6 B , O + 0 J 0 0 9 0 B 0 0 0 B B 0 9 B L P B 6 O     +     6 L L L L I I L L L L L P P L L L L I P I I I I I I I I I I I I I I E E E E ! ! ! ! ! ! ! ! ! ! ( ( ( ( ( ) ) ) ) 8.7.8.7.7.7.e.e.e.e.i.i.p.p.a.a.p.p.a.a.g.g.g.h.h.h.k.k.k.k.k.x.x.x.k.k.h.h.h.h.h.h.a.a.p.a.a.a.a.p.p.p.p.i.i.i.e.e.e.e.i.i.e.e.e.e.7.7.7.7.7.7.) ( ) 7.7.^ 7.E     O O + 8 J 0 q B 8 9 B 0 8 6 6 8 8 6 0 3 8 0 O 3 J 8 8 L 0 z.x.B 0 9 8 0 0 0 0 B q 0 6 7 c d g R K A X.X.&._.%.!.).#X-X>X;X;X;X*X*X;X;X-X>X=X;X;X*X*X;X;X:X:X*X$X=X:X:X=X=X-X>X:X;X;X*X>X*X;X*X>X>X=X$X*X-X;X;X;X",
"=X%X&X&X&X%X%X%X&X%X:X=X&X%X:X:X$X$X=X:X=X$X%X:X%X%X&X%X:X%X%X&X%X*X=X$X$X:X:X=X$X*X:X>X$X$X>X*X$X$X@X].!.#.*...o.| a n v f v s h g g q 0 0 0 0 S q 8 q e.h.8 B S O , , O 8 6 , 6 6 , , , 8 8 6 8 6 6 8 8 8 +       X 8 J P E I U P P P P P P P P P P E E E E E P E ! P E ! ! E ! ! ! ! ! ! ! ^ ! ^ ^ ( ( ( ( ( _ _ _ _ ) ) ) ) ) ) ) ) ) ) ) ) _ _ ) ( ^ ( _ _ ^ ( ( ( ^ ^ ^ ^ ^ ^ ^ E E E E E E E E E E E I L E E E I P L P I I I L L L L L I L L L L L L J J L L L J L L L L J J J L L S J L I B + O +     + , O L I 0 0 8 0 0 9 8 8 8 9 9 9 0 B 9 6 6 8 6 O , I I s.L 0 B B 0 0 B g g J c c h h d f v X.X.X.O.&.%.E.~.).@X*X$X@X$X*X*X$X$X:X:X$X$X%X=X%X$X%X:X%X$X%X:X:X$X$X:X:X%X$X*X:X%X%X%X:X:X%X%X:X>X=X$X*X>X*X$X%X:X:X$X$X=X:X%X$X=X>X=X&X$X=X=X$X$X$X*X*XoX).!.=.*.&.o.O.X.-.T h h c K J Z g 0 0 0 B 0 0 I B 8 B M.B 6 6 , , + 6 J 0 B 0 B B 0 8 9 0 9 B B 9 S E S + O O     o   + I L L L L L L L J L L P L L L L I P P I I I I I I P I I I I I I I E E E ! ! ! ! ! ! ! ! ! ( ^ ( ( ( ( ) ) ) ) 7.7.7.7.e.e.r.e.e.e.e.r.p.p.a.p.p.a.h.g.g.g.h.h.h.h.h.k.k.h.h.h.h.h.h.h.h.h.h.h.h.h.h.a.a.a.a.g.a.a.p.p.r.r.e.e.e.7.7.e.e.e.e.7.7.7.7.) ) ) 7.8.) ( _ ) ( e.E X   O   O 8 J S 0 0 B B B 8 8 8 8 8 6 8 6 6 0 6 o 8 J 8 + L B A.s.B J L L J J J J L L L J c c d ; ; s h -.X.o.%.$.!.(..X;X*X=X=X$X&X:X:X%X$X%X:X%X$X%X:X:X$X$X:X<X:X%X%X:X:X%X$X%X:X:X%X%X:X:X%X%X%X:X<X%X&X%X=X:X%X%X",
"&X&X&X&X1X&X&XOX+X&X%X&XOX&X&X&X+X+X&X%X&X+X&X1X&X&X&X&X&X+X+XOX&X1X+XOX+X1X&X+X+X&X&X&X+XOX$X&X+X@X@X#X).!.#.&...O.O.X.p u c c c g g q q 0 0 0 8 I 0 0 0 z.a., 0 , + , , 6 6 , , 6 , , , 6 8 6 6 6 6 8 8 8 3 +       + 9 I E L L L U P P P P P P P P P E E E E P ! ! P P ! ! I E ! ! ! ! ! ( ( ! ! ^ ( ( ( ( ` ( ( ) ( ` ` ) ( ( ^ ( ( ( ( ) ) ) ) ) ^ ^ ( ) ( ! ^ ^ ^ ^ ^ ^ ^ E E E E E E E E E E I I E E E I P I I I P P I I L L L L L L L L L L L L L L J J L L J J J L L L J J J L L L L P S O o +     6   + L L B 0 6 9 9 8 8 8 8 8 9 9 9 B 8 6 8 6 + + 3 J B p.L 8 L J B J Z B Z J J g 7 g h f f f m X.O.<.1.E.~.]..X+X&X+XOX+X%X&XOX+X%X&XOXOX&X%X+X+X&X%X&XOX+X&X&X+X+X&X1X+X+X&X%X&X+X&X%X1X+X+X&X&X+XOX&X%X&XOX+X1X&X+X+X&X%X+XOX&X%X&XOX+X$X&X+X+X+X+X+XoX.X).!.=.*.&.o.X.b v s f c h J J J J J J B S S 0 J L 0 8 x.B + 8 , O 6 , J B 0 9 0 0 0 9 0 9 B 0 9 S P L B , O     O O o 6 P L L J L I I J L L L L L L L L J L L L L L L L L P I I I I I I E E E E E E E E ! ! ! ! ! ! ( ( ( ( ( ( ( ) 8.7.7.7.7.e.e.e.7.7.7.e.r.r.e.i.p.a.a.a.p.a.g.h.h.g.a.g.h.h.a.a.g.g.g.h.h.h.h.h.g.a.h.a.p.p.p.p.p.p.e.e.e.e.r.r.e.e.8.7.7.e.e.7.7.7.7.) ) ) ) ) ) ) 7.7._ I +   O   O 6 J J 0 0 B 0 B 9 8 8 8 8 8 8 8 6 6 0 O o J 6 + E B z.i., E J S S J J J J J J J 0 K c % c R u T a o.4.$.!.)..XoXoX+X$X+X+X+X%X&X&X+X&X%X&X+X&X%X%X&XOX+X1X1X+X&X%X%X+X+X+X1X1X+XOX&X%X&X+X+X&X&X&X+X&X&X&XOXOX",
">X>X1X1X>X>X*X=X>X,X>X=X=X:X,X>X%X:X,X,X%X%X:X,X:X1X%X:X<X%X1X%X<X<X%X&X:X,X<X%X%X:X<X:X$X%X>X:X$X+X*X-X#X).$.1.&.{ O.n i v f g h h g g q 0 0 0 ] 0 S 0 0 J e.7.3 J 8 8 6   , 0 , 3 3 , , 3 6 6 6 6 6 8 8 8 8 6 O       , B L P L L U P P P I I P P P E E E E E E E E E E E E ! E E ! ! ! ! ^ ( ! ! ! ( ( ( ( ( ! ! ! ! ^ ( ) ) ( ( ( ( ( ( ( ) ^ ( ( ^ ^ ( ^ E ! ^ ^ ! ! ^ ^ E E E E E E E E E E E I I E E E I L L L P P P P L L L L L L L L L L L L L L L L L J J J J J J J J L L J B L I L J O +       + + 3 S B S 8 8 B 8 8 8 8 8 8 8 9 0 0 9 3 6 9 3 O , L L s.I 8 J 9 B B J Z Z Z J J g 7 g c v n i a X.<.=.%.~.#X@X$X5X5X$X+X=X,X=X+X&X>X:X&X&X,X,X1X&X:X<X:X&X=X,X,X%X%X<X,X%X&X:X,X=X+X=X<X<X1X1X:X:X=X&X:X,X:X&X1X<X:X%X&X:X,X=X&X=X,X:X&X%X:X:X1X&X*X,X1X$X>X#X).E.%.*.:.X.m p d v K Z Z J J J Z B B B S S B 0 J B L x.8 6 6 + , O 8 0 0 0 0 0 0 0 0 0 8 9 B S S J I q , + O   + +   8 S P I P P P L L L L L L L L L L L L P I I I P L L P I I I I I P P P P E E E E E ! ! ! ! ! ! ! ! ^ ( ( ( ( ) 8.) ) ) 7.7.7.e.e.7.7.e.e.e.i.p.p.p.p.p.p.a.a.a.a.a.a.g.a.g.h.h.g.a.a.a.a.a.a.a.a.a.a.p.p.p.i.i.p.e.e.e.e.e.e.7.7.7.7.7.7.e.e.7.7.7.7.) ) ) ) ) 7._ ) ! +   o   + 8 J S 0 0 B B B 8 8 8 8 6 6 8 8 0 O B O O L 6 6 S B h.7.L E B L B S J J J J J J U Z K g % c T f i | <.*.1.(..X4X-XOX;X5X*X$X$X>X,X:X$X:X6X,X=X=X>X,X:X1X:X,X,X:X1X:X,X:X1X=X<X,X:X1X:X,X>X=X=X>X,X:X&X*X,X,X=X=X",
",X,X1X1X,X6X>X*X,X6X>X=X*X,X6X,X%X:X,X,X%X%X>X,X,X&X%X,X,X<X:X,X,X,X:X%X:X,X,X=X%X,X,X:X%X:X,X6X;X@X$X,X5X;X).#.&.o.| X.n f v h h h g g g g J J S 8 0 J 0 q L s.) B 0 6 + , , , 6 , 3 6 6 , , 6 8 8 8 8 8 8 8 6 6 O       O B E U P P P I P I I I E E ! E ! E E E U U E E P P ! E E ! ! ! ! ! ^ ! ! ! ! ^ ! ( ( ( ( ( ( ^ ( ) ) 7._ ) ( ( ( ( ( ( ( ^ E ! ( ( ^ ^ ^ E E E ^ ^ E ^ E E E E E E E E I I E E E I P L L L L P P L L P P L L L L L L J J L L L L J J J J J J J J J J J L L S L I B + O O     + + , S L J 9 8 8 0 0 8 0 9 8 8 9 0 0 0 3 8 8 , + 8 J L p.S 9 B B L B B B J J J J J J J h f m m n b -.<.=.%..X-X@X@X>X7X*X$X:X6X>X=X*X,X,X%X%X,X,X:X:X,X6X,X%X:X6X,X%X=X,X6X:X%X>X6X,X%X:X,X,X:X=X,X,X:X%X>X,X>X%X:X,X,X:X=X,X6X>X%X:X,X,X1X%X,X6X=X&X,X7X5X$X=X>X;X~.E.*.<.O.n n v T T Z J J J Z B J J B B 9 0 B 0 Z 0 B v.I 6 B O 8 , 8 B J 0 8 9 B B 0 0 0 B 0 B B L L B 6 + +     o   8 I E L B J L L L L L L L L L L L L L L L L L L L P I I I I I E P P E E ! E E E E ! ! ! ! ! ^ ! ! ( ( ( ( ( ) ) ) 8.7.7.e.e.r.e.e.r.p.p.p.p.i.p.p.a.a.a.a.a.a.h.h.g.a.a.h.a.p.g.a.a.a.p.p.p.a.p.p.p.p.p.p.p.p.e.e.e.e.e.7.7.7.e.7.7.7.e.e.7.7.7.7.7.7.7.) ) ) _ L O O O   + 8 0 J 9 8 L B 8 B 9 8 3 3 8 9 8 6 8 0   O J 8 6 L B i.s.J J L J B L L J S B S J J J J g c c = ; b a o.&.%.!.].;X7X5X;X5X7X6X*X+X5X7X,X$X*X6X7X*X=X6X6X,X=X:X6X,X<X%X,X6X,X:X<X6X6X,X:X>X6X6X>X>X6X6X6X=X>X6X6X>X5X",
"%X&X+X$X%X%X+X$X%X$X+X+X&X%X&X&X&X&X1X1X+X+X&X%X$X+X&X$X&X+X+X&X%X&X+X+X&X&X&X+X&X%X%X+XOX&X$X$X@XXX@X@X@XXX.X~.=.@.o.X.l l v v c d c J 7 Z ^ 7.^ P B 9 B B 0 B _ L 8 9 8 + + + 6 1 , , 1 6 1 , , 3 8 8 6 6 6 6 8 3 o       + 6 L L L L L L L L P L L L L L P I I E I I E E I E E E E E E ! ^ ^ ! ^ ^ ( ^ ( ^ ^ ^ ^ ) 7.7.( ^ ( ( ^ ^ ^ ( ( ( ^ ( ( ( ( ( ^ ! ! ^ ^ ^ ^ ! E E E ^ ^ E E E E E E L E I P E E E P L I L P E E L I I P L L L L L L L L L L L L L L L L L L J L L L L J J L J 8 +         , 3 6 B ^ 0 0 0 9 8 8 8 0 9 9 8 8 8 J 6 3 3 6 6   q I 0 p.L 9 B 8 B Z J E ^ U g J Z K g K A h b n m -.o.&.%.!.#X#XXX.X@X$X@XOX+X$X@X+XOX%X$X+XOX$X%X+XOX$X%X&XOX+X=X&X+X+X%X%X+X+X&X&X&X+X&X=X%X+X+X$X%X&X+X&X%X&X+X+X$X%X+X+X$X%X+XOX+X=X$X+X+X$X$X+X+X$X=X$X@X@X@X#X].~.=.&.<.X.n X.T T T c c J 0 J J 0 B J 8 8 J 0 0 0 B J h.L 8 8 O 6 6 6 B J 8 8 B 8 0 9 0 B 0 0 B S I P B 6 , O   X O X , S L B J E L L L L L L L L P L L L L P P P B E L L I E J E E I P I E E E E E E E E ^ ^ ^ ^ ! ^ ^ ^ ( ) _ 7.7.7.7.7.7.7.e.p.e.i.i.i.i.p.p.p.p.p.p.p.a.p.s.h.h.a.a.h.h.g.g.h.g.g.g.g.g.a.a.p.p.s.s.p.i.i.p.p.i.7.e.e.7._ 7._ 7._ ) ) _ 7._ ( ( ( ( ( ( ( ( ^ I +   O + O 8 L B B B B 0 0 0 B 6 6 6 8 8 8 8 8 9   O 8 8 B S 6 E k.B B S B S P L J P ( ( B L J J K K c K v c n :.o. .W.].[.@X$X@X@X@X@X$X@X@X@X*X$XOX@X&X&X&X+X%X%X&X&X&X&X%X$X+X$X=X&X&X&X&X%X&X+X&X&X%X&X&X$X%X&X+X$X=X1X+X$X",
"&X&X+X%X%X&XOX+X%X%X+X+X&X1X&X+X+X&X1X&X+X$X%X1X+X+X&X$X+X+X+X&X%X&X+X&X%X&X+X+X&X%X&X+X+X$X$X+X+X@X$X@XXX.XXX~.%.@.O.X.X.l k f h h g 7 J K 0 , 3 9 8 8 B S 0 0 L 0 0 0 6 O O + , , , 6 8 1 1 3 3 3 6 8 8 8 8 8 0 8 6 +       O O O O O O O + + o o O O O O O + , S E I E ^ ^ E E E E E E E E E ) ( ^ ^ E ^ ^ ^ ! E E E E E E ^ ( ^ ^ ^ ^ ^ ^ ^ ^ ^ ! E E E E ! ^ ^ ^ ^ ! E E E E E E E E E E E ^ E P L L J L L I P P L S L I L L L L J J J J S J J J J J J J J L L L J J J J J B B B 0 8 + O   O + + + 8 L L B 8 9 9 8 8 8 9 0 8 9 B 8 B 8 6 0 3 3   3 0 0 _ I 8 0 0 Z 0 + 0 J 0 J J J g K K h K T v n n -.&.=.E.~.#X@XXXoX$X=X+XoX+X$X+XoX+X$X&XOXoX+X$X+XOX+X%X&XOX+X=X$X+X+X%X%X+X+X&X%X&X+X&X=X$X+X+X$X%X&XOX@X=X&XOX+X%X%X+XOX&X%X@X+X+X%X&XOX+X$X&X+XOX+X%X&X@X@X@X#X'.~.%...o.o.X.b K T K K c c J J B 0 I 8 8 + , 0 B B B 8 J _ B L 6 X + 6 6 0 J 0 6 B 0 0 0 B 0 0 0 B 9 L L 8 , , , O O   X , S I L 0 J J J J J J S S L J J J L L L L ^ B P I L L ^ I E L J L I L L P E E E E E E E E ( ( ( ( ( ( ( ( _ _ _ 7.7._ 7.7.e.e.e.e.7.7.7.7.i.i.i.i.i.i.p.p.p.g.g.r.e.r.p.e.p.p.p.r.r.e.r.e.i.i.i.7.e.i.i.7.e.7._ ! ^ 7._ L 8 6 , + + + O O + + + + + + O O O O       8 J B B 0 0 0 B 0 8 8 6 8 8 8 6 8 8 8 ,     + , 6 0 8 ( B S L L B B S 8 B 8 + L E 0 J J K A A T v v b -... .`.#X]..X$X@XoXoX@X$X+X+X$X$X$X@X@X&X%X&X+X&X%X%X&X+X&X=X%X+X&X=X1X+X+X&X*X%X+X+X&X&X&X+X&X=X1X+X+X1X=X$X+X",
",X:X:X,X6X,X=X>X6X6X:X=X,X6X,X:X>X6X6X,X%X:X6X6X:X=X>X,X,X=X:X,X,X,X%X<X,X,X%X%X,X6X,X=X%X>X6X>X&X:X,X6X;X@X#X~.%.@.O.X.| n v v h h 7 7 Y K 6 6 , 9 9 8 8 B S S 8 6 8 8 ,     O O , 3 6 6 3 3 3 3 3 3 6 8 8 8 6 6 8 8 6 o                           X       X O X 3 J E E E E ^ ^ ^ ( ( ( ( ( ( ( ^ E E E ^ ^ ^ _ ( ^ ! ( ( ( ( ( ^ ^ ^ ^ ^ ( ( ) ( ( ^ ^ ^ ( ( ( ( ( ( ^ ^ ^ ^ ^ ^ ^ ! ! ! ! ! E U E ! E ! ^ ^ I E E E E I P E E E I I I I P P I P P L L L P P L L L L L J J J L L S 8 o       , , 6 9 J L B 6 8 8 8 8 8 8 8 8 8 8 0 8 9 6 8 3 + O + B q E L 6 0 0 8 0 , 6 U I 8 0 J g g c c K K T l X.X.X.&.=.W.~.#X5X=X$X6X6X>X=X,X6X:X%X:X,X,X=X%X,X,X:X%X>X6X,X%X:X6X6X:X*X6X6X:X=X,X6X>X%X>X6X6X:X:X,X6X>X%X>X6X,X%X:X6X6X=X=X6X6X:X%X:X6X,X=X=X,X6X:X$X,X6X,X1X%X>X-X].~.%.@.o.o.X.b T Y c U c g J J 0 S 8 , J B + 8 0 0 8 0 9 B ^ L B 0   , 8 8 8 0 0 8 B 0 0 0 0 0 0 B 0 B P I S 8 , , O O     + B L J I U I U I U I I I I P I I E E E E I ( E ! ^ _ I E ( _ ^ I ! ( ^ ^ ^ ^ ^ ^ ^ ( ( ) ) ) ) _ _ _ _ 7.7.7.7.7.7.7.7.i.i.i.i.p.p.p.p.p.p.p.p.s.s.s.h.h.a.a.a.p.p.p.a.s.a.p.p.p.p.p.p.a.a.p.i.p.p.p.e.7.i.e._ 7.e.I + X   O o + O O + O   O   O   O O     O + 8 J L 0 0 9 9 B B 0 8 6 6 8 9 6 6 8 8 , O       X + 8 9 B N 9 S L 8 B , 3 6 8 , 6 E P 0 J K Z K T b b -.X.o. .W.[..XXX>X6X*X%X6X6X>X=X>X7X6X>X=X6X6X6X=X:X6X6X>X=X>X7X6X=X%X7X7X,X:X,X6X6X>X*X6X6X6X:X>X7X6X>X=X6X7X6X*X",
">X%X%X>X>X:X%X:X6X,X%X%X,X,X:X1X:X<X,X:X1X%X,X,X=X%X:X,X:X=X:X>X>X:X%X:X,X,X%X&X,X,X:X%X1X:X,X:X&X%X:X>X@X#X#XW.%.@...{ | l h c h c d g K 0 + 0 0 S B 3 3 B S 0 6 3 6 +       O O o , 3 6 3 3 3 3 , , 3 6 8 6 6 3 6 8 8 , o                     O           O O     O 8 6 3 6 8 6 6 6 6 6 6 6 6 8 8 8 8 9 0 0 9 8 8 6 6 8 8 8 8 6 6 8 6 6 6 8 8 8 6 8 6 6 6 8 6 6 6 6 3 3 3 3 6 6 6 6 6 3 3 , , , 3 8 6 6 8 6 3 8 , , + 6 6 3 , 6 6 6 6 6 6 6 6 6 6 3 , , , , 3 3 3 3 3 3 3 3 3 + + O       O 3 , , 8 L P B 8 0 8 8 8 8 8 8 8 8 9 8 6 J 6 6 8 + O 6 U ! ` 0 0 8 8 6 8 8 6 I I U g q q g K g c c h v z X.X.X...=.Q.~.@X-X&X&X,X,X%X+X=X,X:X&X%X,X,X%X%X,X,X:X%X>X>X>X&X=X,X,X%X%X,X,X=X%X>X6X>X1X:X,X,X:X:X,X6X>X$X*X,X>X&X%X>X,X%X%X,X,X%X&X=X,X,X%X$X:X,X:X&X=X,X<X&X$X>X-X[.~.%.@.o.o.X.b T T K T K c J 0 q 0 , ^ s.h.B , 0 0 0 0 J 8 B E E L + , 3 6 8 B S 8 0 9 9 0 0 0 0 B S 6 0 E I 9 , , + + o       + 6 6 6 6 6 6 6 6 6 6 6 6 6 6 6 8 8 , 6 , 6 6 + + 6 8 + , 8 8 8 9 8 8 8 8 8 8 8 9 q 6 6 6 6 8 8 8 8 8 8 8 8 8 8 8 8 8 6 8 8 8 8 9 8 0 8 8 8 0 0 B 0 B 8 8 B S B 0 B 0 0 0 0 B B B B B B B 0 9 0 B B J B B B 0 0 6 O O   O o O     O O O O O O O O O +   O 8 B B 0 8 B B B B 9 8 6 8 8 8 8 8 9 8 , X O O       O , 9 3 B P B B S 8 , 8 8 B I , B ^ 0 J J K K v n n X.o...@.=.~..XXX5X>X:X&X>X6X>X&X%X6X6X*X$X>X6X,X=X:X,X6X:X=X>X6X6X%X%X>X6X:X%X>X,X,X:X1X,X6X,X=X=X,X,X>X=X>X6X6X=X",
"+X+X&X%X&X+X+X&X&X&X+X&X%X&X+X+X&X&X&X&X&X&X%X&X+X&X1X1X&X+X&X%X&X+X+X&X%X&X+X+X&X&X+X+X+X&X&X+X+X+X+X+XXX#X].E.*.&...{ | l h c g h g 7 q q 6 1 8 0 8 , 8 0 0 6 q w o     . O X     O + , 6 6 3 3 3 3 3 6 6 6 6 6 6 6 6 6 , O O                                             X                                                                                                                     X                                                                             O O O     o 6 q 6 0 J B 8 3 3 6 0 8 8 8 8 8 8 8 0 8 8 E 0 3 6 + o 6 , I ^ U 6 0 q 6 8 6 + J J 6 0 6 7 q c g c c c m n X.-.;.o.*.E.~..XoXoX+X+X&X+XoX+X%X$X+X+X%X&XOXOX+X%X+XOX+X$X&XOX+X%X%X+X+X&X%X+X+X&X%X&X+X&X%X$X+X+X$X%X&X+X@X%X&X+X+X%X%X+X+X&X%X$X+X&X&X&X+X+X@X$X$XOX+X$X$X+X@X$X@X].~.E.@...o.X.X.T v Y K K K g q q 8 3 B 0 L B B B 8 0 8 B S E ^ L 8 6 , O 8 E J 8 B 9 0 9 0 0 0 0 0 0 6 8 B J P L 8 6 + o X                                         O                                                                                               O                                                             X O             O O                               X + 6 9 8 9 0 9 B B 0 9 8 6 6 8 9 8 8 8 8 , O   X O X       O , 6 6 B L 0 8 8 + 8 J 8 J 0 J J Z J J K v f f k m O.o.&.=.E.].XXXX@X+XoX+X&X&X+X+X&X&X$X+X&X%X&X&X+X$X%X&X+X+X%X%X+X&X$X$X&X+X&X$X&X&X+X&X%X1X+X+X&X&X$X+X+X&X%X&X",
"+X+X$X%X$X&X&X%X&X&X+X$X=X%X&X&X*X=X%X&X&X%X%X&X+X$X%X%X+X+X$X%X&X+X+X%X%X&X+X&X1X1X+X+X$X%X$X+X+X%X$X@XXX.XE.E.*.&...{ X.n c c h s g g 7 q 0 0 6 6 , , 8 0 8 3 6 +       X @         o + 3 6 3 3 3 3 3 + + + + , + + + + + O     .     X X O O X X X o o + o O O O + , + , , + O O O O + + + + O O O O       O O                                                                                                 o   6 ! 0   o                                                         o 6 0 B I E E B 8 8 8 8 8 8 8 8 8 8 8 8 , S 9 6 E J 6 , , o 6 6 E _ ^ 8 8 8 6 8 + o 8 : + 6 g q g g c c c m b n -.,.:.=.%.(.;X;X@X@X$X$X@X@X$X$X@X+X+X%X&X+X+X$X%X+X+X$X$X&XOX&X%X%X+X+X%X%X&X+X%X%X$X+X&X=X%X+X+X%X%X&XOX$X%X&X+X+X%X%X+X+X&X%X$X+X+X&X&XOX+X$X$X&XOX&X&X&XoX@X=X-X.X~.=.=.&.o.X.b T v h s g K Z q 0 6 , 8 8 , , , O B 0 0 8 ^ p.S , O + , 8 L I B 8 0 0 0 9 9 0 0 9 8 0 0 9 8 0 I E L I U 0 3 O                                               J + X                                                                                                       O         o O O O O O       O O O O + + O   X O + , + + O         X O o o o o o o o o o o + O + , 3 , 6 8 6 3 , , 3 8 8 8 8 8 6 8 8 , X   O   O X   X X   O O 6 + 0 L , B O O 8 8 6 J U 8 J g g K c f f l m { o.&.%.E.~.[.XX@X$X+X@X=X=X@X@X&X%X$X+X&X=X%X&X+X&X=X=X+X+X%X=X&X+X$X:X=X&X+X$X%X%X&X&X=X=X%X&X&X%X=X&X+X%X:X=X",
">X*X6X6X6X>X,X6X6X>X=X,X6X,X=X%X6X6X,X1X>X6X6X:X%X,X6X6X:X=X,X6X>X%X:X6X,X:X%X:X6X,X%X%X6X6X>X$X>X6X,X;XoX).E.W.&...{ | | k c c c d s g 7 + + 8 6 6 + 6 q 0 6 6 @ .   .   X X       X o + + + + , , + O O O X O X       O O X   O X O O O O o o o + + + + 6 8 0 S J L I E I L E L L L L I I I I J J J J L L L U U 0 S I J J L J J J J J J L J J J J J J J J J J B B B S S B B 0 0 0 0 0 B B B B B S 0 L B q L 0 0 8   0 k.` + 6 6 8 8 8 8 8 6 6 6 6 6 8 8 8 6 6 8 8 8 8 8 8 6 6 8 8 6 6 6 8 8 8 8 8 6 3 6 6 8 8 6 8 8 8 8 8 9 8 B + 0 0 8 L ( 8   6 + 8 , J _ J 6 8 8 0 q + 6 6 + 6 7 g g c c h c f n b X.:.&.*.E.!.#X5X;X=X6X6X*X=X6X6X>X%X:X6X,X:X:X,X6X:X=X,X6X6X=X,X6X6X=X:X6X6X:X=X,X6X,X1X>X6X6X>X:X6X6X:X=X>X7X6X=X:X6X6X*X=X6X6X:X%X:X6X,X&X=X6X6X:X$X6X6X>X$X=X7X3X.XE.@.*.<.o.X.v T c d 7 g c J 0 0 8 + + 3 , 8 8 , B B 0 J p.J 6 , + + 3 L I 0 0 B 8 0 0 0 9 9 0 9 8 8 8 6 6 8 8 0 B 6 8 0 0 q q 8 6 6 6 6 6 6 6 6 6 6 8 8 8 8 6 6 6 8 6 6 I z.0 6 J B 0 6 8 U J 0 J B S J J J J J J B B S J J J J J S J J J J L J J J J J L L L L J J L U U U I I I J B J U L B S U I I I I I I I I ! E I I E E I L L L L L L I I L 0 B S 0 6 6 , + + + + + + + + + >     X O X X X X   X O , 3 3 , , , , , + X X O O O O O O O     + + 8 , J U 8 8 O + q 8 q J 0 g g g Z c f f n X.X.O.{ 1.!.E.~.#X;X6X*X*X6X6X*X$X5X7X7X-X-X7X6X,X=X>X7X7X:X=X7X7X6X=X:X6X7X>X*X6X6X6X:X:X7X7X,X=X,X7X7X5X=X6X7X7X",
";X;X5X7X>X;X*X6X6X*X%X>X6X,X*X*X5X6X:X=X5X7X5X*X*X,X7X5X*X=X,X6X>X;X*X6X>X>X=X>X,X6X=X=X5X5X-X@X-X-X-X#X].!._.W.....{ | a i d c h h g g g q * + + + , 8 0 8 + w       O     O X O O + + + O O O         X O O O X X O O O O O O X                   X   X + B P B P L 0 S L S 0 B B B B B B B B J J J J L J J S J 3 0 I L L E J J J J J J J B 0 J J L J L J J S J J J J J J S B S S S S S B B 0 9 0 0 J 8 J p.J 8 6 9 6   + 0 q 6 8 9 q 0 q 0 0 9 0 0 0 0 8 8 8 8 8 8 8 8 8 8 8 8 8 8 6 6 6 , + + , , , 6 8 6 , 6 6 8 8 8 8 8 8 8 0 8 8 B 0 B k.U O 6 3 3 0 J p.J 8 0 + 8 q 8 q q 8 7 c c c g h s u f X.X.| &.W.%.E.).#X@X@X5X5X=X+X>X6X,X$X:X>X,X1X&X>X6X*X%X>X5X,X$X*X6X6X=X=X6X6X*X%X>X6X>X&X*X6X6X*X*X6X7X-X$X*X6X5X=X=X,X6X*X$X>X6X>X=X>X5X5X%X*X6X6X>X$X-X,X5X-X5X3X#X^.=.*.<.o.X.-.v h g c c h g K g 6 q 0 0 8 9 L 9 B B 0 J i.L 8 + + 6 B B B S S B 0 B 9 0 9 8 9 0 9 8 6 8 8 8 8 6 , 6 8 6 3 6 6 6 8 8 9 8 9 8 9 8 9 8 8 q 0 0 0 0 0 q 9 0 8 6 8 3 S 6 0 h.s.0 , 0 B q B S J J J J S S B B S J J J J J S J J J L U L J L L I I I U L J L U I U L L I U I I E E ^ ^ I J S J J J L U E E L L J J J L I E ( ! E E L L L L L U J 6 O O + + O O O O O O O O > O O O X X O O O O X X X   X O O O O O + , + O O O O O         O   + 8 o J 0 8 8 6 + 6 q 8 J J K g Z h s i l l l X.O.&._.!.E.].#X5X;X$X5X7X5X;X2X7X7X-X;X5X7X6X;X-X8X7X*X=X5X7X7X=X*X5X5X5X*X-X7X6X=X*X7X7X>X%X5X7X7X5X*X>X7X7X",
"XX@X@X@X@X@X@X@X@X@XXX@X$X@X@XXX@X@X@XXX@X@X@XXXXX@X@X@XXX@X@X@XXXXX@X@X@XXXXX@X@X@XXX@X@X@XXXXXXX#XXX].Q.W._.&...{ { a i i f c h h g 7 g q 0 6 6 , 6 8 6 + O       , 6 8 q 9 6 6 6 6 6 6 3 , , 3 , , , , , , , , , , , , , 3 , 3 , 3 , , , , , 3 , O O O + 8 B J 6 B B 0 0 3 B 0 9 0 0 0 0 B 0 0 0 0 8 B B 9 6 8 B L 8 8 8 O , , 3 , , , , , 6 , , 3 3 , , , , , , , , , , , , , , , , 3 , , , , 9 8 O O 8 9 O , , , 6 8 8 8 8 8 6 8 6 6 3 3 3 , 3 3 6 6 6 6 6 3 3 8 8 8 6 3 , 6 6 6 6 6 6 6 6 + 8 6 , 6 8 6 8 6 6 6 6 3 8 0 8 8 0 6 6 B 0 8 I ^ 6 + 6 8 , 6 ^ h.B 9 0 8 6 0 8 q q 0 g J c g 7 s e p l n X.o.<._.%.E.].XXXX#X#XXXXX@X@XXXXX@X@X@XXXXX@X@X@XXX@X;X@XXX@X@X@XXXXX@X;X@XXX@X;X@XXX@X@X@XXXXX@X@X@XXX@X$X@XXX@X@X@XXXXX@X;X@XXX@X@X@XXXXX@X;X@XXXXX@X@XXXXX#X(.E.W._.&.:.;.l f h 7 g h g g J g Z 6 1 8 6 O , 9 B S P ( L 6 , + + B J J 0 B B 0 B B 0 0 B 0 6 , 6 0 8 8 6 8 9 8 8 8 8 8 8 8 9 8 9 8 8 8 8 8 8 6 8 8 8 6 6 6 8 8 8 8 8 8 8 , , , , ,   L E 3   8 B 8 8 6 6 3 3 3 3 3 , 6 8 6 8 8 8 3 3 3 3 3 3 3 6 6 8 6 , 3 8 8 8 8 3 3 6 3 , , 3 6 3 , 3 3 3 W ^ 9 8 B S B B S S B J 0 B J J L B B J 0 , I L 6 0 J L 6 , , 6 8 3 8 8 6 6 6 6 6 3 6 3 , , 3 3 3 , 3 , , , 3 3 3 3 3 3 8 8 9 8 8 8 8 B 9 9 B B 8 , X O   O + 6 + 8 J B , q 0 8 0 q J g K Z K s u e n X.X.X.O.&._.!.E.].#XXXXX#X#XXXXXXX#X#XXXXX@X;X@XXX@X@X@XXXXX@X;X@X@X@X@X@X@X@X@X@X@X@XXX@X@X@XXX@X;X;X@XXX@X@X@X",
"[.XXXXXXXXXXXXXXXXXXXXXXXXXXXXXX@XXXXXXXXXXXXX[.XXXXXXXXXXXXXXXXXXXXXXXXXXXXXXXXXXXXXXXXXXXXXXXXXX[.'.~.E.=.*.o.O.{ a a z z c c h h g 7 q J 0 0 0 J J 8 +     6 S ` _ ( i.a.p.p.v.k.p.) E L L I I I I I P L L L P P L L L P L L E I P P E E E E E E E P S B B S B 0 0 8 B L 0 B B B B B B B B B B B B 8 B B B B L _ I 9 , , 9 6 6 6 6 6 8 8 8 8 8 8 8 8 8 8 6 3 6 6 6 6 6 8 8 8 8 8 6 6 3 6 8 8 , 8 8 ,     O , + , , 6 6 6 8 8 8 8 8 8 8 8 8 8 8 8 8 8 6 6 6 6 6 6 3 , 3 6 6 8 , , , , , 3 6 6 8 + O O O + , 6 6 8 8 , + 6 9 6 8 8 8 8 8 6 6 8 8 6 6 o O 3 6 0 ( p.E 8 6 6 8 0 0 0 g g J K g d >.v p m n X.O.o.<._.%.W.].XXXXXXXX[.XXXXXX[.XXXXXXXXXXXXXXXXXXXX@XXXXXXXXXXXXXXXXXXXXXXXXXXXXXXXXX@XXXXXXXXXXXXXXXXXXXXXXXXXXXXXXXXXXXXXXX[.XXXXXX[.[.XXXXXXXXXXXX[.[.].~.%.E.`.<.:.X.-.z v T T 7 h d g J J J 0 8 8 0 B B 0 B S z.P 3 , O O 8 0 0 B 0 0 B 0 B 8 9 0 9 6 , , 6 9 8 9 6 , O O 3 8 8 8 8 8 8 8 8 8 9 9 8 8 8 8 8 8 6 6 6 8 8 8 8 8 6 8 8 8 8 8 8 8 O O     O 0 B 3 8 8 8 8 8 9 0 0 9 0 0 0 0 0 9 8 0 0 0 9 9 9 8 8 8 8 8 8 8 8 6 3 8 8 9 0 0 B B 0 9 , O , 8 S ! ( 4 S E E S S L L I L L S B J L L S L 9 6 B I E 9 B 0 B J L E P E ) ) ( ^ ^ ( ( ( ^ ! ! E E E ! ( ( ! ! ! E E P E P P U P E ! ) e.7.e.e.) ( ` ! P 9 + O O 6 6 8 6 8 8 J J 0 J J J J Z L J h h v b n X.X.X.O.&._.!.Q.'.[.[..X.X[.XX[.XXXXXX[.XXXXXXXXXXXXXXXXXXXXXXXXXXXXXXXXXXXXXXXXXXXXXXXXXXXXXXXXXXXXXX[.XXXXXX",
"'.'.~.~.'.'.].].'.'.'.].].'.'.].].'.'.'.].].].].'.'.'.'.'.'.'.].'.'.'.'.'.'.'.].~.~.'.'.~.~.~.~.~.!.E.E.W.=.o.o.X.m p u s c c q g J Z J 0 0 0 B J J 6 O O O 8 I ` ) V.tXqXP.P.S.c.g.7.( E W W E E E ! ! E E E E ^ ( ( ( ! ! ^ ( ^ ^ ( ( ( ^ ^ ^ 8.8.( ^ P B 8 8 0 ^ L , 6 J B 8 S 0 0 B B B B B B B B B L B B 9 L L 9 9 B B L E E E E E ! ! E E E E E E ^ ! E I E E E E E E E E E E E E E E I I E L P I J B S L L P E E I I E E I I I I I E E E I I I P P P P P L J J L L L L L L L L L L P I I P J L L 6 O + O , , , , + 6 8 8 8 8 0 8 3 6 8 6 6 6 q 6 , 6 3 8 Z L i.7.8 B B 8 0 0 q q g g g g h 7 ; p m m O.o.o.<.*.=.E.!.~.'.~.~.~.'.~.~.'.'.'.~.~.'.'.'.'.'.'.'.'.'.].].].].].].].].].].].].].].].'.'.].].].].'.].].'.'.].].].'.].].'.'.'.].'.'.~.'.'.'.'.'.'.~.~.Q.=.%.3.o.-.-.-.b h z A A 7 7 7 7 g g Z 0 B B 9 0 8 B 7.h.^ , O , + 8 J 0 8 0 8 8 8 0 S B 9 9 6 , 3 8 8 3 3 + O 6 0 I ^ I E E E E E E E E E E E E E E E E E E E E E E E E I E E E E E E I P L L L P I E E E E E E E E E E E E E E E E E E E E E E E E E E ^ ( ) ) ( ( ( ) ^ E E E ! ! E E ) ^ D 3 4 V P E P V B L L L P L J J J L L L I J B L J 6 J I ! L 8 9 B S L ^ ) r.) 8.7.7.7.7.7.8.) 7.7.7.7.7.) 8.7.8.) ) ) ( ( ( ( ^ ! ( ( ) 7.p.x.S.I.tXaXI.M.e.! I J , O   , 8 L I 0 8 Z 0 0 Z Z Z U Z K s j k k m n n { ..&.W.W.E.E.!.!.~.~.~.~.~.~.~.~.'.'.'.'.'.'.~.'.'.'.'.'.'.'.'.'.'.'.'.'.'.'.'.'.'.'.].'.'.].].'.'.'.~.",
"Q.~.~.~.~.~.~.~.~.~.~.~.~.~.~.~.~.~.~.~.~.~.~.~.~.~.~.~.~.~.~.~.~.~.~.~.~.~.~.~.~.~.~.~.~.~.~.~.!.E.%.*.*.<.:.:.,.-.n v v Y U c K U g U J 0 U L J + + 6 + 6 S 8 9 E p.a.7.! ( ( ^ W L W ! E E E E E E E E E ! ^ ! ! ^ ( ( ! ( 8.7.8.) ( ( ( 8.7.) W N , , 3 3 , , 8 3 0 J 9 B I S 0 B B B 0 B J B B B B L 9 L L B B 9 , 9 E E P E E E E ! ! E E ! E E ! ^ ^ E E ! ! ! E E E E E E E E ! E E E I ! E I E E E E L I E E E E I I E I I I I I E E E P P L L L L P P U U I I I I P L I I I I I L L P L E ( L 9 0 0 , , O O , , , 6 8 9 9 0 8 3 8 9 8 8 , 6 8 6 + + 8 0 L E p.( I ` ^ ^ / / / Q / / / Q / ;.;.-.;.:.4.<.<.3._.E.W.~.~.~.~.~.~.'.'.'.].~.~.~.'.'.'.'.'.~.~.~.'.'.'.'.'.'.'.'.'.'.'.'.'.'.'.'.'.'.'.'.'.'.~.~.~.'.'.'.~.~.~.~.'.'.'.~.~.'.'.'.'.~.~.~.~.~.~.~.!._._.3.<.,.,.>.;.;.R R Y / / / R / / ( ^ _ _ ^ _ 7.p.h.! + 6 3 , 8 B 0 6 8 0 8 8 6 8 B J 0 8 , , 6 6 , O + 6 0 S B L ) ( E E E E E E E E E E E E E E E E E E E E E E E E E E E I I E E E E E E E E ! ! E ( ( ^ ^ ^ ^ ! ! E ! ! E E ^ ^ ! ^ ^ ^ ^ ^ ^ ^ ( E E E E E E ^ ( ) ( ^ E E E E E W ^ E 8 > 8 P W L B B S B D W L L L J P P L E E ( I E I L , + 0 , , 8 4 4 B L ( r.p.i.7.7.7.7.8.e.7.7.7.7.7.7.7.8.8.) ) ) ( ( ) ( ! ! ( ! P P E ! ( p.c.V.l.7.! I L J 8 6 + , ,   q U ^ Q I I ^ I Q E E ` Y T ,.;.-.-.;.,.:.<.*._.W.W.!.!.!.!.!.~.~.~.~.~.~.~.~.~.~.~.~.~.~.~.~.~.~.~.~.~.~.~.~.~.~.~.~.~.~.~.~.~.~.~.~.~.~.~.~.",
"].'.'.].].].].].].].].'.].].].].].].].].].].].].].].].].].].].].'.].].].'.].].'.].'.~.~.~.~.~.`._._.*.*.<.<.,.,.;.;.;.;.T T R / / I E I ^ ^ ^ E B I 0 3 S S P p.k.7.E L P E ! P E P W ^ ( ^ E E ( ^ ^ ^ ( ( ( ( 8.( ( ) 7.7.8.7.7.8.) 7.7.7.( E B 8 O O , 3 3 + , , 6 ( p.i.s.s.s.a.s.s.p.i.s.k.g.z.x.x.x.h.A.K.^ 8 , 9 S J B P L L P I I I E E E E E I I E I E I I I I I E E E E E I P L I I E L I I P L I I L L L L L L L L J L L L L L L L L L L L L L L L L I U J J J J L I L L L L L L L L I ! J , 8 P I S 8 , , , + , , + 8 9 8 6 6 3 6 8 6 6 , , 6 6 6 + 1 0 L B ^ ` ! _ ` ` ` ` ` ` >.>.>.>.>.>.,.2.3.m.3.3.<._._._.`.`.).].].].].].].[.[.[.[.].[.[.[.[.[.[.[.[.].[.[.].[.[.[.[.[.[.[.].[.[.[.[.[.[.[.[.].].].[.].[.[.].[.[.].].].[.].[.[.[.].].].].].].`.`._._._.<.:.2.f.f.2.>.>.>.>.d.>.2.>.` ` >.q.i.7.p.7.( E E ( 8 3 8 , 3 B 0 6 0 9 8 8 8 8 8 8 9 8 3 , , , + + , 0 L I J + , L I I I I I I I I I I I I I P I I I I I I I I I I I E I I I I I E E E I L J P E E I E E E ! ! ! ^ ^ E E E E E ! ^ ! ! ! ! ! E E E E ^ ^ E E E E ^ ^ ! E E E E E ! ^ E E ( E 3 O B P N.V.S.V.M.D.S.x.x.k.h.x.z.h.z.v.x.s.i.7.! B + 3 , , 3 3 , > , 9 S ( p.a.p.p.a.h.r.p.p.p.e.7.e.p.e.e.7.7.7.7.8.) ) ( ^ ( ! E P E ! P P E ! E ) g.) ! E L L 0 0 0 B 9 ^ ) ( i._ I ` ^ ^ ^ ^ >.>.>.>.>.>.>.,.,.3.3.3._._._._.`.`.`.~.].].].].].].].].].].].].].].].].].].].].].].].].].].].].].].].].].].].].].].].",
"~.~.~.~.~.~.~.~.'.'.~.~.~.~.~.~.~.~.~.~.~.~.~.~.~.~.~.~.~.~.~.~.~.~.~.~.~.~.~.~.~.~.!.!.!.E.E.%.=.=.&.o.O.X.-.T T T T v c T >.w.I J i.U J Q 0 q 9 , 8 E p.c.V.l.^ B P ( L L E E W E ! ^ ^ E E ^ ! ! ^ ( ) ) ) ) 7.7.e.e.7.8.7.e.7.7.e.8.E S 8 , O O , 3 8 3 , O O 6 3 + + 8 B O 6 6 8 6 + , 8 B 8 0 6 0 B 8 B B B 0 8 8 8 8 B 6 8 8 8 8 8 8 9 0 8 8 8 8 8 8 8 8 8 8 8 8 8 8 8 8 8 8 8 6 8 8 8 8 8 6 6 8 3 3 8 0 8 8 8 8 8 8 8 6 6 6 6 6 6 6 8 8 8 8 8 8 8 8 8 8 6 6 6 6 6 6 8 8 6 6 8 8 8 8 9 9 8 0 ,   + 6 , 3 9 9 8 + O , ,   , 6 3 3 8 6 3 8 6 8 , 3 6 8 8 + , 1 8 0 B 0 I q J c J K K K U T T v v v v -.-.-.-.,.:.o.<.*.!.`.!.!.~.~.~.~.~.~.~.~.~.~.~.~.~.~.~.~.~.~.~.~.~.~.~.~.~.~.~.~.~.~.~.~.~.~.~.~.~.~.~.~.~.~.~.~.~.~.~.~.~.~.~.~.~.~.~.~.~.~.~.~.!.!.!.!.*.&.&.<.,.,.-.-.T T Y Y U Y U K U K K K J U L J 0 B B B B O , + , 8 0 8 8 0 0 8 6 6 8 9 6 3 + + , 3 , + 8 J 0 0 8 6 , 6 B 0 8 8 8 8 8 8 8 8 8 8 8 8 8 8 8 8 8 8 8 8 8 8 9 9 8 8 8 9 0 9 8 8 0 0 0 0 8 6 8 0 8 8 8 8 8 8 8 9 8 9 8 8 8 8 9 8 8 8 8 8 8 8 8 8 0 0 9 8 9 9 8 8 8 8 9 9 8 8 9 0 8 O 8 S 3 , B L ! E L S B 9 B J L 6 , 6 9 0 8 8 6 6 , 9 8 S B 8 8 , 4 8 3 O O 3 , + 3 S 7.h.h.a.g.p.p.i.p.p.p.e.e.r.e.7.7.7.8.) ) ) ( ) ) ( ( ( ! E E P L P ^ 7.p.a.x.x.z.) L 9 B 0 J 8 0 B L v.^ J _ x.^ U Y K T T T T T -.,.:.&.&.&.*._._._._.~.~.~.~.~.~.~.~.~.~.~.~.~.~.~.~.~.~.~.~.~.~.~.~.~.~.~.~.~.~.~.~.~.~.'.'.].].'.'.",
"W.E.W.W.W.W.E.E.W.W.!.E.W.W.E.E.E.E.W.W.W.E.E.E.E.E.E.E.E.W.E.E.E.E.E.E.%.%.%.%.%.%.=.=.=.@.@.....{ { m a k k z x x ; & % ; Z Q 0 6 ^ Z 6 0 + O 3 J p.c.k.e.P 8 B E P J E ! U L P E ! ! E ! ( ) ^ ^ ) 7.8.7.7.7.8.7.e.e.7.7.7.e.p.e.( L 8 , , 3 + + + O O + 3 3 6 0 8 , + , 8 0 6 8 0 8 , 8 J L ( E , 6 8 8 8 6 8 6 , 8 3   +   O O O O       O                 O   O                           o       O O O O       O     O O                                   O O o o O O O     X X O O O O O + , 6 6 , , 6 8 8 8 , + , , O O + 3 6 8 0 B 8 3 , o , 6 3 6 6 +   o         +   . . @ - @ % % @ % = u u u i i i i a | { ....} +.+.=.%.%.%.%.E.E.E.E.E.E.E.E.E.E.E.E.E.E.E.E.E.E.E.E.E.E.E.E.E.E.E.W.E.E.E.E.E.E.E.E.E.E.W.E.E.E.E.E.E.E.E.E.%.%.%.%.%.%.%.#.#.@...o.O.| a a f u u u s 7 = * % * @ + @ o o   o O O + + O   + , , 3 0 B 8 6 8 , 0 0 B 8 6 9 6 , O + , 3 3 6 0 S , 3 , 3 , , 3 , O O O O O O O O     O O O   O   O O O O O   O O O     O O             O + o O   O O O O O         O O     O O         O O O o o       O O O     O O O O O O O O +   O + 6 0 J 8 , + , 6 6 , P x.) 9 , O 6 J 9 8 , , , 6 , 8 L 9 8 3 4 3 , + O 3 3 3 3 3 3 0 ( h.l.h.p.r.p.a.a.a.r.r.r.e.e.e.7.8.( ( ( ( ) ) ^ E ! ! E P P E E P L P ( 7.k.x.k.p.L B , + 0 + + d.7 @ L i.I 7 7 s s u s s f f k l a X.X.O.&.@.@.@.=.=.E.E.%.%.%.E.E.E.E.E.W.W.E.E.E.W.W.!.!.!.!.!.E.W.!.!.W.E.W.W.!.W.E.E.E.W.W.!.",
"=.@.=.=.=.%.=.=.=.=.@.@.=.=.@.+.+. .+.+.@.+.+.+. . . .+.+.+.+.+.} +.+.+.+.+.+. .+...........{ { a a a a m p u j x x = ; % : 2 1 0 +   8 6 8 0 8 E ( ( ! P D L E ! I U L S S L P P E E E E ^ ! E 8.7.8.7.8.8.7.7.r.7.( 8.a.l.g.7.P 0 , + 3 8 6 3 + + + + 3 6 3 + 8 S 0 3 6 , O , O , 3 , + 8 J L I E + 6 + 3 6 3 8 + 6 O   + +             O     O       O O O           X   O O O   X   X   O O O   O O O O X       X               X   O O O O         O   O   O           X O O O X           , O + 3 , 6 0 0 6 , 6 9 6 O O , O O 6 6 , B L 6 + 6 + , 3 6 0 0 8 0 8 q 8 8 : 6 6 : 7 7 7 7 : 7 7 : : s s j f f i p a a a { { ..} } } +.+.+.+.+.+. .+.@.=.=.=.=.=.=.+.@.=.=.@.=.=.=.=.=.=.=.+.@. . .+.=.=.=.=.=.@.@.+.+.=.=.+.+.+.+.@.@.@.@.@.@.+.+.+.+.........} ..[ y { l p e p u u s s s s s 7 6 q 8 8 0 6 8 6 6 8 6 8 8 8 0 B B B 8 8 8 8 8 8 L ( J 6 8 , O 3 , , , 6 8 6 + 6 8 3 6 6 , , + O O O O O O O O   O O O O O O O X   O   O       O       X   O O X   X       O   O   O O O O O             O O O           O   O     X   X   X   O           X   O o O   + 6 6 , 6 8 6 , 8 6 0 ( E 0 S , + B , , , , , , , 9 ^ B 3 3 6 3 + + O O 3 , 3 3 3 + 3 0 ( g.M.M.k.p.e.e.p.p.p.e.e.7.) ( ( ( ! E ! ( ! P W E ! E P P E E P E ! L L E 7.e.^ I L I J 0 8 + : : 1 X 6 6 7 ; ; ; u s u u u i a a a a [ { ..{ } } }  .+...} } ..}  . .+.+. . . .+.+.+.+.+.+.+.@.+.+.@.=.=.@.+. .+.+.=.+. . .+.",
"_._._._._.W._._._._._._._._._._._._._._._._._._._._._._._._._._._.`.`._._._._._._._._._._.3.3.3.3.3.3.<.:.:.:.;.;.;.;.R Y Y Y ^ / I Q ^ ^ Q ^ ` ` ` ` ^ ^ ^ ^ ( ( ( ( ( ( ( ( ( ( ) ) ) 7.7.8.7.7.7.7.e.e.i.p.p.a.k.x.x.p.( J , , , 6 6 6 3 , + + O + , 6 6 3 3 0 8 6 3 3 6 3 , 6 8 + + 3 + + 6 O X X , 3 3 + O 3 9 B 0 8 3 , 3 8 0 0 B B 0 0 0 0 0 0 9 8 8 0 0 9 0 B B B 0 0 9 0 8 9 0 0 0 B 9 B 0 0 9 0 0 9 8 9 9 9 8 9 8 9 9 9 8 8 8 8 8 8 8 8 8 8 8 8 6 8 8 8 8 8 8 8 8 6 6 8 8 6 6 6 8 6 + , , + , + + ( ^ E 1 + 0 8 + + , + X X , 8 8 6 3 6 O o 8 8 6 8 q q 0 ] J ] 0 q q q g g g c J J J K J K K v v b -.X.:.:.<.:.&.<.3.3._._._._._._._._._._._._._._._._._._._._._._._.`.`.`._._._.`.`.`.`._._._._._.`._.`.`._._._.`.`.`._._._._._._._._._._._._._._._._.3.3.3.<.<.:.:.:.-.T v c K c K K J J K J J J J J B 0 0 B B B 0 S 8 6 3 8 8 8 6 3 8 S L 8 O O 3 , , , 6 8 8 6 6 0 i.E + , 6 , , 3 , 6 8 , 6 8 8 6 8 8 8 8 8 8 8 8 8 8 8 8 8 8 8 4 8 8 8 8 8 8 8 8 8 8 8 8 8 8 8 8 8 8 8 9 9 0 0 9 9 0 0 0 9 0 0 9 0 0 B B B B B 9 0 B 0 9 9 B B B B B B B B B B B , 3 0 B B B 3 + O , 3 , , , O + , 3 , , 3 8 8 8 8 8 8 8 8 B S B 6 , 6 3 + O , 3 , + , 6 6 , , , 3 L p.c.c.x.x.k.h.g.h.h.g.a.a.r.p.p.e.7.7.7.7.) 7.7.7.) ) 7.e.7.7.7.7.7.( ( ( p.p.i.7.7.7._ _ ^ ^ ` _ _ ` ` >.>.>.>.>.2.2.2.3.3.3.3.3.3.3.3._._._._._._._._._._._.`.`._._._._._._._._._._._._._._._._._._._._._._._._._._._._.",
"&.o...@.@.....@.@.&.&.&.&.&.&.&.&.&.&.&.&.&.&.&.=.&.&.=.@.=.*.&.*.&.=.=.&.&.&.&.&.&.&.&.&.&.&.&.&.&.o.o.O.X.X.T T R R R Y Y Y U U U U U U U U I I I I I I I I E E E E E E E E E ! ! ! ! ! ! E ! ( ( ( ) ) ) ) ) ( i.p.! 8 O , 8 6 6 6 3 , , , , 3 3 + O O 6 8 0 6 6 6 6 8 8 8 8 8 L B , + + + + + + , 3 3 , + , 8 L ! E L S S P B B B 0 0 0 B S 0 B B B B 0 0 0 B B 0 0 9 0 0 0 B 0 9 0 9 0 B B 9 9 0 B B B 0 0 B 0 9 0 B B 0 8 8 8 8 9 9 8 8 8 9 0 B B 0 9 9 9 0 0 0 0 0 0 9 8 8 6 8 0 8 6 8 B 8 6 + , 8 O 6 , J 6 , 1 6 8 6 O , O X O , 3 3 6 + + 6 8 3 + , 6 q 8 6 + + 6 7 7 6 6 7 1 1 7 q q q q 7 7 7 ; u i n X.X.O.O.O.o.o.&.&.&.&.&.&.=.&.*.*.*.*.*.*.%.%.*.*.*.*.*.*.W.*.*.*.*.%.*.*.*.E.*.*.*.*.*.%.*.*.*.*.*.*.*.*.*.%.*.*.*.*.*.*.*.*.*.*.*.&.&.&.&.&.&.&.o.o.o.O.X.X.l k f s 7 7 7 q 8 7 7 7 7 6 6 6 q 8 8 8 8 , , 8 0 6 , + 6 8 8 8 X , 3 O   X 3 9 8 3 , 6 8 , , 0 L L 8 , 3 + , 0 B 9 8 0 0 B 0 8 B 0 9 8 9 0 B B 9 8 8 9 B B N 9 N N B B B B B B B B B B B B B B B B B B B B B B B B B S B B B S J J J S B S J J L S S S L L S B B B S D L L D D B B P ! ! ) ( L 3 , 3 3 , , , , 3 X X X 3 B S B 9 9 8 8 8 8 9 9 L B 8 , + + , , , , , , , , , , 3 , , , B ! 7.7.7.) ) 7.7.) ) ) 7.7.) ) ( ) 7.7.( ( ( ( ^ ^ ( ) _ ) _ _ _ ( ^ ( ( ( ^ ^ ! ! E E ^ ^ ^ ^ Q Y Y Y R R ;.;.;.-.:.,.:.:.:.:.&.&.<.<.&.&.&.&.&.&.*.*.3.3.*.*.*.*.&.*.4.*.*.*.*.*.*.*.*.*.*.*.*.*.*.&.&.&.*.&.&.&.&.&.",
"a a a a | a y a a a a a a a a a a a y a a a a a a y y a y a a y a a a a a a a a a a i a p p p p a p p p p u u ; ; : 7 7 q 8 7 : 6 : 6 6 6 w 6 8 6 6 6 6 3 6 8 8 6 6 6 3 3 6 3 3 6 3 , 6 6 6 6 8 8 8 8 8 8 8 8 6 9 0 0 6 , , 1 1 , , , , , , 3 3 , O O , 0 B 8 3 8 8 8 8 8 8 9 0 0 E J , O O O X X X O O O X X O O 9 L L S S P ! I I E E I I E E I E E E E I I I L L L L P E E E ^ E E E P P E E E E E E E I I I L L P P L L L L P L L L L J J J B J J J J J J J J B B B B B B B 0 B B J B S J B q 0 0 0 J 9 , , , 8 8 3 + 3 6 3 3 , + O O O O o + 3 8 6 o o + + + : 6 7 6 6 + + 7 * 7 q 6 6 0 0 7 7 7 s s u u i e e r r r y y y y a a a a y y a a a [ [ [ [ [ [ [ [ [ [ [ [ { { [ [ [ [ [ [ [ [ [ [ [ [ [ [ [ [ [ [ [ [ { [ [ [ [ [ [ [ { { [ [ a a a y a a y a a a a a i r u u j s s s 7 7 7 6 q q 7 7 7 7 8 8 6 6 6 6 6 8 8 6 6 3 + + , 6 8 8 , , + O O 3 8 3 O 3 8 9 9 8 3 6 + X O 8 9 0 S B J L L L L L L I J J J L L L L L S B B S S S S S D L D D L L L L L L L L L L L L J J J L L P E E ! E E E E E E E ! E E E I E E E E E ! ! ! ! E E ! ! ! E E W P P E E ^ ( E W L 8 X X , 3 , > O X + X X , 8 S L S S B B 0 B 0 0 0 0 B B 8 +   O , , , 6 6 6 , , + 6 3 , 6 9 0 8 6 8 8 9 0 0 9 0 0 8 8 9 0 9 8 6 6 0 9 8 8 8 8 8 8 8 8 8 8 8 8 8 8 8 8 6 6 6 6 6 6 9 8 6 6 6 6 q 7 7 ; u u u u u i i i i i i i i i i a i i a a a a a a a a a a a a a a a a a a a a a a a a a a a a [ a a a a a a a ",
"i a i i i i a i i a a a a a a a i i a a a a a a a i i l l a l n z f f k k f f k f f f f f f f f u p p j s s 7 7 q 7 6 6 6 8 8 6 6 6 8 8 6 8 8 8 6 6 6 6 3 3 8 8 8 8 8 8 8 8 8 8 8 6 6 8 6 6 6 8 9 8 8 3 3 6 8 8 6 8 9 8 8 6 1 , , , , 3 3 3 , , O + , , , 8 B L S B B B B B S L J L 0 9 B B L L S S S S S S L L S P P L P E E E I I I E E E E E ! E E E E E ! ^ ( ^ ^ ! E ! ^ ^ E I E E I P I I E E E P L L L I L I I L L L P E E I L L J J L L L J J S J L L P L L J J J L L L I J S B 0 0 8 3 6 6 8 6 9 J B B 6 6 , , 6 6 6 8 , + + + o + + 6 6 6 , + o + 6 o + + + o   o 6 0 6 o + 7 * + 1 - * * * = ; ; ; u u u p p i i i i i f f f i i i a k k a a a a l a a a a a a a a a a a a a a a a l a a a l l l a a a a a a a l l l l l a a a a l l k a k k k k k k i i i i f i j j s 7 7 7 7 7 8 6 7 * * * + + + 1 6 6 , , + O + 3 + , , + O o 3 8 8 3 + , 6 6 , O 8 B 9 , , 6 8 8 B B J L J J S 3 , 9 0 9 0 8 9 B B J L L J S L L P L L L S S L P L L L L L L P E I I I I I E E ^ ^ ^ ! E E E E ! E E I E E E E E E E E E E E E E E E ! E E E ^ ( E E E E E ! ( ) ) ! ! ! P L D D P L L L S L E E L S L L L P E P E P P L L L P P J J B B B 0 6 O , , + + , 3 , , + O + 8 0 0 8 6 6 8 8 8 8 8 8 8 0 9 8 8 8 8 0 B 0 9 8 8 9 9 9 8 8 8 8 8 9 0 9 8 9 9 8 9 0 0 0 0 0 8 0 0 0 0 q g 7 d d d s s s d g h d d d f h f v h f h h f j h j j j f h z h h f f j f f f f f f k k k k k k k k k k k f i u u ",
"X.n l p p p f f i p i p i a a i i i i i i i i i i i i i u i l -.z f u i f f i u f j i i j j s u ; 7 7 7 7 7 7 7 6 6 6 6 : : 6 8 6 8 6 6 1 6 6 1 6 6 6 6 8 8 8 8 6 6 6 6 8 8 8 8 6 6 8 0 0 B J J L J S S J J J L J J B 8 , + + , 3 , , , , + + + 6 S I E E ( _ 7._ _ _ _ _ _ 7.p.p.i.( _ 7._ 7.7.e.7.7.) 7.7.e.e.a.a.e.7.r.p.p.i.p.p.i.7.7.i.a.h.a.p.p.i.i.p.p.s.h.g.p.p.i.p.s.h.i.i.p.a.p.i.p.p.7.7.7._ 7.7.7.e.e.7._ _ 7.7.7.7.i.7.7.7.7.7.i.p.i.e.7.7.7.e.p.p.7._ _ ) _ 7.7.7.i.) ( _ ( ^ ) i.J + , , 3 L L S L B 8 8 8 3 + 3 6 3 + + o + , 8 8 6 + o o + + o o o o @ o 0 I >.K q 1 7 + * 7 * : : ; 7 7 ; ; s ; u u u u u u u j j j u u i p f p p i i f f i f l k k k k k k k k k f f k k k k f f f f f f k k k b b k i k k i a a i i i i i k f f f i i i i i s s u s s s s 7 7 7 : = = 7 1 1 7 7 : * * 6 * * 8 ` _ 8   6 q o + + , + O O + 3 8 6 6 , , , 3 8 B 8 , , 8 9 B L L S B 9 8 6 3 8 ! ( ` ) e.p.i.p.7.7.7.) ) 7.r.p.e.7.7.7.7.7.e.r.7.7.7.7.7.7.e.i.e.e.i.e.e.e.p.g.p.p.p.i.e.e.p.p.p.p.i.p.a.a.g.h.a.g.h.h.g.g.g.g.h.p.e.e.p.p.p.p.p.p.p.p.a.h.k.x.x.g.a.g.g.a.g.k.p.e.e.e.7.e.a.a.h.a.p.e.e.e.p.e.i.e.e.e.e.e.r.p.7.7.) ^ ( 7.( L , , , , , , , + 6 6 , O 3 J E I P I I I P P I I J J B 0 9 9 8 8 0 0 9 9 9 0 0 0 0 8 8 8 0 0 0 8 8 8 8 0 0 0 0 8 0 0 0 0 0 0 8 q q q q 7 7 7 7 7 7 7 7 7 g g g h u s d s u u j h R T h d s f f f f f f s s f f f f f f j f f f f k f s u s T ;.>.",
"a i n b n f u u p p i p i i i i p p p p i p p p p f f u i b T f z f j j j i i u u u u u u s u u 7 6 q 6 6 6 6 6 : 6 8 8 6 6 6 8 6 6 6 6 6 6 6 6 8 8 8 8 8 8 8 8 6 6 6 6 6 8 8 6 9 8 8 8 3 6 8 6 8 8 8 8 9 9 9 9 0 8 6 1 1 6 , , + + + , 3 9 B J ^ L B J S 8 8 0 9 9 0 0 0 8 9 B 8 9 8 0 0 B J S 9 B B 9 8 8 B B 8 9 8 8 9 9 B B B B B 0 0 B B B B B 0 0 B B 0 0 8 8 8 9 0 B B B L B B B B B B B S B B S J L L S B B B B S S S S 9 9 9 0 0 0 B B B 0 9 9 0 9 0 0 B 0 9 9 0 B B B 0 B B B B P E L B o 6 B 8 3 O O , 9 S J B 8 6 + 6 6 3 , + o o + + o o + o o + o + + + + + 1 8 q Z 7 + * * * 1 * * * = : = = : 7 : ; 7 7 7 7 s s u u j s s j j u p p p p p p p f f f f f f f f f f f i i f f f f i f f f j j f f k T ;.v f f k j i i i i i i f f p u p u u u u u s s s 7 7 7 7 7 7 7 7 : : : 7 * * * * * * * + + 0 U I J 6 o + , w + + + + + + + 3 6 6 + + 6 0 0 , 3 8 B J S 9 8   O + , 8 8 6 B P ! ! P L S B B L S B S L L D S D B 9 B S S B B B B B B B B S S B B S B B B S L 9 9 B B B B S L S B B B B B S S B B B B B B S S P L L L L P P P L L S S B B B 9 S S B B B B B B N N S L S B B B B B B B B B L L B B S S B B B S J B B L L B J I E I J 8 + + , 6 , , + , 3 8 0 8 9 0 0 0 9 9 8 8 6 0 S J S J B 0 8 9 0 9 8 8 9 0 8 8 8 8 8 8 8 8 8 8 8 8 8 8 8 8 0 0 0 0 8 8 8 q q q q q q q q q q q q q 7 7 g d d h h 7 d T T K >.;.T f s f f d s d s s d f d s f f f f f d d d s s h h T T T T ",
"e p k b T v f s u u u u u u u u p u j u u u i u u u u u f T v & j f f s u u s s s s s s s s s s 7 q q q q 8 8 8 7 8 q 7 7 7 7 7 7 6 6 6 8 8 8 8 3 6 6 6 6 6 6 3 6 6 6 6 8 8 8 6 6 6 8 q 0 I ^ I + , 3 3 6 6 6 6 + 6 8 0 8 , , , , 3 8 B L E ! ( B B P ( P 8 8 L L S S L L S S L L P P L S L P L L P P L D L L L L L L L L S S L S L L P P L L S L L L L L L D S L L P P P L L S P L S L S B S S S S S S S S S S B S L L S B S L D S L L L L S L L L L L L L L D L L L L L L L L D L L S D E P 8 S J ! _ E D 9 9 O O , 9 S P U 9 3 3 3 6 6 3 + + o O + + o + + + + o o + + 6 q q 1 * * 1 7 7 7 * * : * : : 7 7 7 : : : 7 7 7 7 7 ; u u u u u u u i i i p p p p p i f i f i f i i i i i f i f f f f p j f f f f i i k v k f f f i i i i i i i i i i i i i j i i u 7 7 7 7 7 7 7 7 7 : : : : : : * : 7 6 : 6 6 1 + 6 7 8 8 6 6 , + w + + + , 3 , + + + , , 6 8 8 6 B S B 8 8 9 8 3 9 L ! E ^ ( P L B P ! E L L E E L L L L P P D B P L S L L L S S S S S S D L L L S L L L L D D L L L P P L L L L P P L L L L L P L L L L L L L P S L P P L L P E P W E E E E P P P E E E E E E E E W W P L P E E S L E E P E ! ( L L P W P L L P E 9 9 P ! P L E L E ^ ! P B , X 6 + , 8 0 8 8 0 6 8 8 8 8 8 8 6 ^ ( E B 8 9 0 8 8 8 9 8 8 8 8 9 8 q 0 q q q q q 8 8 8 8 8 8 8 8 0 0 8 8 0 8 0 0 8 8 q 8 q 0 q q q q q q q q 7 7 7 7 7 : g K K s K T v f s s s u s s s s s d s s s s s s s s s s u u s f f k k k ",
"e e & % $ u u u u u s u s s s s u u u u u u u u u u u u u s f s s s s 7 s d d 7 7 7 7 7 7 7 7 7 7 7 q q 0 q q q q 7 7 7 7 7 7 7 8 6 6 6 6 1 , 6 6 6 6 8 8 6 8 6 8 8 8 8 8 8 8 6 8 6 8 6 8 U E J 6 6 6 6 6 6 8 8 8 8 8 8 8 6 1 3 9 B L P P L B B 9 L E S 9 B L L S B B S S S L P L S B B B B L L S D D D P E P S P L S L L L S P S S L L L L L L L L L L L L L L P L L S S L L P L S S L L L P L L L L L S S L L L S B B S L S B S B B S S S S L L D S S S S S S S S S S L L L L P B S P L B S E E _ ` ) 7.p.7.8.E B 8 3 O 3 S L I J 8 6 3 , + + 3 + + o o + + o o + 6 + o o + 1 + 1 * * * * * 1 7 : * : 7 : : * 7 7 7 7 7 7 7 7 s s u u u s j j u i i i i i f f i i f f f i i p i i p i f i i p i u u i f f j i i i u i i i i f f f f i i i i i i i i i j i u u 7 7 7 7 7 7 7 7 7 7 7 7 7 7 7 7 * : : * 1 6 6 + + * + o + 6 6 + + + , , + + 3 6 , + 6 0 B 9 0 J S B 8 8 9 8 N E 7.) i.p.p.h.r.7.L P E E P E E P P P P L L S L W L L P P L L P E L L L L L L L L L L L W W P L L L L P P L L L L S S S L L L P E P P E E E E W P P L L L P E P L D L L L L P P E E L L P P L L ! W P E E E E E E ( W L L L P W P P L L L P P P P E E P S L E E L B B B L W E L 9 , , , , 6 8 8 8 6 8 8 8 9 9 9 6 I ^ E 0 6 0 B 0 9 9 8 8 9 8 8 8 6 8 q 8 8 8 8 8 8 8 8 8 8 8 8 8 8 8 8 8 8 8 8 8 8 8 8 8 q 0 0 0 8 q 0 0 0 0 q q q q q g 7 7 : 7 s d s s s d d s s s s u s s s s s s s d s s s s s u u e e e t t ",
"2.,.;.2.m.T f u u ; ; ; ; ; u s s s s s s s s s s s s 7 7 7 = = 7 7 7 7 7 7 7 7 7 7 7 7 7 7 7 7 7 7 7 7 7 7 7 7 7 7 2 2 2 2 2 6 6 6 6 6 6 6 6 3 , 3 6 6 6 6 3 3 6 6 6 6 6 6 6 8 6 8 8 8 8 6 6 6 6 8 8 6 6 6 8 3 8 3 8 9 9 8 B J L D S S L L L S L L L P W P L D L L L P W W P D D L P W P P L L P L L L L L L P P B L L L E P 9 P S N B D D D W L L L L W W L D D D P P L L L P L L D D P W L B B N 8 N B D D D D L D D D D L L P L D D D P P P S D P W W W P L P L P W W W W W E L E ~ W E ( ( ( ^ ) 7.7.7.e.7.7.( E L 8 O O , 8 J J B B 8 o + o + + + + + + + + + + + + + + + o + + + 1 + + + 1 + 1 : 7 7 7 * : * * : : 7 7 7 7 7 s s s s s d d s s s s s j j u f f f u u i i f u u f u u f v s v u u f j j j u u s s j j j s j s s s s s s s s s s s u ; ; 7 7 7 q 7 7 q q q 6 6 1 1 6 6 6 6 6 6 6 1 6 + + w , + + , , + + , , + + + , , , + + , 8 0 B B B 9 > 4 4 4 B ! 7.r.r.r.r.a.p.r.r.p.e.^ W ! ~ ^ E ! E W W E E W P L L L L L W W L L L P W W W W W W E E E E E W W W E W W W W W P L W W P P W W W W P W P P W E W L W W W E ! E W L W W P L E ! W W W E E W E E E E W ^ E E ( ( E E E E ^ ! ! E W D E E E E E E E W P W E E E P D S L P P P P L L L S B , 8 6 8 6 8 6 6 8 9 9 8 8 0 6 , 6 0 B 8 8 B 8 8 8 8 8 8 8 8 8 8 8 8 8 8 8 8 8 8 8 8 8 8 8 8 8 8 8 8 8 8 8 8 8 8 6 0 0 0 0 0 0 q 0 0 0 0 0 q q q q q q q 7 7 7 7 s s d d d d d s s s s s s s s d s s s s s j p p ,.{.m.,.3.m.",
"{.}.}.m.2.T k u u ; ; u u u u s s s s s s s 7 7 s s s s s s s 7 7 7 7 7 7 7 7 7 7 7 7 7 7 7 7 7 7 7 7 7 7 7 7 7 7 7 7 6 8 8 8 8 6 8 8 8 7 7 6 6 6 6 6 6 6 6 6 6 6 6 6 6 6 6 8 q 8 8 8 8 8 8 8 8 0 8 6 8 8 6 8 0 0 8 B 6   , L S P W E ! ! ! ! ! ! ! ! ! ! ^ ! ! ( ( ~ ~ ~ ! ! ! ) ) ) ( ~ ! ~ ~ 7.7.7.7.) ) ) ) 8.7.p.7.! ! ( 7.7.7.r.p.r.7.( ( 8.r.p.e.) ~ ( 8.r.7.8.8.) ( ~ ^ ( ) 8.e.8.^ ( 7.r.a.g.g.p.r.8.) ~ ) 7.e.7.) ^ ! ( 8.e.7.8.~ ~ ~ r.e.8.) ( ) 8.8.7.7.8.8.~ ^ ~ 8.~ ~ ~ ! ( 8.7.e.a.a.e.) 8.) 7.p.p.p.r.7.^ P B 8 O + 3 8 0 B B 0 6 3 , , , , 6 6 , + + + * + * * 6 6 6 6 6 7 6 8 6 6 1 6 6 7 7 7 : : 7 7 s 7 7 : 7 7 7 7 7 7 s d s s s s s s s s s u u u u s s s u u s s u u T f.>.>.c s s s f h d d s s s s j d s s s d d d s s 7 7 s s s s 7 7 7 7 7 7 7 7 7 7 7 8 8 8 6 6 6 6 6 6 6 6 6 6 6 8 6 6 6 6 6 6 3 6 6 6 3 , , 3 6 6 S J J B 0 8 , X > 8 P 8.g.k.l.k.g.h.a.7.8.r.r.8.p.r.7.r.r.e.r.r.8.8.e.e.e.7.e.r.7.7.7.7.8.8.( ( 7.7.e.7.7.8.) ( 8.8.( ~ ~ ( ) ) 8.8.8.7.7.e.e.e.r.p.r.7.8.( ~ 8.r.r.7.8.8.7.e.r.7.7.7.7.e.r.p.p.r.r.p.p.p.e.8.e.i.p.p.p.p.r.7.7.p.g.p.r.e.7.8.r.7.r.p.p.p.p.g.g.p.r.r.7.7.7.8.8.8.) ) ) ) 8.8.8.8.7.8.) ( ! W P L J , + + 0 B 8 B 0 8 8 8 8 0 B B B B B B 0 B S B B 0 0 0 9 9 9 0 0 0 0 0 9 9 8 8 8 8 8 8 8 8 8 8 8 q 8 8 8 8 8 0 0 0 8 0 0 q q q 0 q q 0 g g d d d d d d d d g d d h h g d d d d g g g d d d d g s 7 s s u u u c e r ,.}.nXkX}.",
"k k n k $ $ e f u & & & ; ; ; ; u u e u u & & & & = = = = = = = ; : : : ; = = = = = = = = : = = = = * * * * : : 6 6 6 3 6 6 1 1 6 6 3 w + + w w w w w 3 3 3 3 3 6 6 6 3 , 3 6 6 3 3 3 6 6 6 6 6 6 + , 8 8 6 6 8 3 , X L C.aXgXjXlXzXxXxXxXxXxXcXcXcXxXxXxXxXcXcXcXvXvXvXvXbXmXMXMXMXmXmXbXbXmXmXMXmXmXmXmXbXbXbXbXmXMXmXmXmXmXMXBXVXVXVXBXMXMXMXbXbXbXvXvXvXvXbXvXvXcXcXcXcXvXvXbXbXbXbXbXvXbXmXMXMXMXMXmXvXvXvXvXbXbXbXbXvXcXcXxXcXvXcXcXcXcXvXvXcXcXxXzXzXlXlXxXzXzXzXlXlXlXlXlXxXjXsXhXhXfXjXjXzXzXzXhXH.h.r.j.g.h.l.g.7.( ! B 3 , 3 3 9 S 8 B B 0 0 8 8 8 8 q q q 8 8 q q q 8 8 8 8 8 8 q q 0 0 0 q q q q g g g d d g d d d h g d d d h h h h d f f f f f f h h h h h h h h c c h h d ; d K s c d d c h h h h h h h h h h h d d f d d d d d c c d d d d d d d s s d g h h g q q 0 0 0 0 0 0 0 0 q 8 8 8 8 8 B 0 0 0 0 0 0 0 0 9 9 9 9 9 9 B B S B 8 , , 8 B E 7.g.g.h.x.N.x.g.l.J.tXhXfXsXgXaXfXfXhXhXhXzXzXxXxXxXcXcXxXxXxXcXcXcXcXcXcXcXcXcXcXcXcXcXcXxXxXcXxXcXcXcXcXxXxXvXvXbXvXbXbXbXbXmXMXMXmXmXbXvXbXmXmXMXmXmXbXmXmXmXmXmXmXmXbXbXbXMXMXMXBXBXMXmXBXBXBXBXMXBXBXBXBXBXVXVXBXBXMXMXBXVXVXVXBXMXMXMXBXVXVXBXBXBXMXMXMXMXMXMXmXmXmXbXbXmXmXmXmXbXvXvXvXcXvXzXI.! X O 8 3 3 3 3 3 3 3 8 8 3 3 3 3 3 4 8 8 8 8 8 3 3 8 8 6 6 6 6 8 8 8 8 8 6 6 6 6 6 6 6 6 6 6 6 6 6 6 6 6 6 1 6 7 7 7 7 2 = 7 7 7 7 7 7 7 7 7 7 7 7 7 s 7 7 7 7 7 7 7 s 7 7 s 7 7 7 7 7 s = = 7 7 ; ; u u u e $ ;.,.i r ",
",.k u v p & & f $ % # . . . . . # # # # # # # . . . . . . . . . . . . . . . . . . . . . . . . . . . .                                                                                                           , 4 L p.N.M.S.H.S.D.J.J.S.S.J.L.qXqXwXwXwXwXqXtXaXaXaXaXaXaXgXhXhXhXhXhXhXhXhXhXhXhXfXfXhXfXgXgXsXtXrXqXaXsXqXI.wXwXP.K.H.L.wXwXtXwXP.I.wXrXrXwXqXqXqXwXwXP.wXwXL.K.J.C.D.L.L.J.V.M.N.N.M.C.D.K.L.K.J.J.D.J.H.K.L.H.J.S.C.S.D.J.M.V.C.D.D.S.C.V.V.M.N.V.C.C.V.M.C.M.g.p.M.C.x.x.k.h.x.c.N.tXlXtXj.g.g.g.g.r.r.r.7.E S 8 O O O         X O O O O O         O O O       O O O     X O O O O O o + . . . . . . . # % % % % % % % % * % % % # % * = = * % % % * = % # . # : 7 : % % % = % % * = = ; * = = = = = = % = & * * % * ; ; % * % % % @ % % * % % % % % % @ % + o o + + + + + + + O O O O O O O O X O O O O O O + O O O O O O , , , , B ( a.x.l.h.x.x.k.g.g.P.zXcXaXC.C.J.C.M.S.M.N.x.k.M.V.C.V.M.V.V.N.N.M.C.C.S.S.D.J.H.K.K.K.K.K.K.L.L.P.L.P.I.I.wXI.P.P.L.P.L.L.L.L.L.L.L.I.L.H.P.wXI.wXP.wXqXqXwXI.I.wXwXwXqXrXrXrXrXrXtXrXwXqXtXaXaXsXgXhXfXaXsXhXjXlXjXhXjXlXjXlXlXlXlXzXzXlXjXjXjXlXlXlXjXjXlXlXlXlXlXjXjXjXhXfXsXtXtXrXrXqXqXrXtXtXwXI.I.P.h.L 3   X X   X X X                                                                                         . .     . . . . . . . . . . . . . . . . . . . . . .   . . . . . . . . . . . . . . . . . % = ; ; u u T k T 2.",
"b./ g R h % & % & % % # % % % # # # . . . . . . . @ @ . . . . . . . . . . . . . o . o o o o o   . . . . .   X X     X X X X X X O   O   O   X O O O X X X X X X X O O O + + O O O O O O O O O O O O O O O , 8 9 E ~ ( ( 8.8.( ^ 8.8.8.) ( ) 8.e.8.7.e.r.r.p.g.j.g.g.g.g.g.h.h.k.k.l.l.x.x.x.x.x.x.l.l.l.l.l.l.l.N.h.k.g.r.a.a.r.g.a.r.r.r.a.g.a.r.r.r.7.7.7.r.r.r.r.e.r.e.7.7.e.r.r.r.7.7.r.p.r.h.a.r.e.e.e.8.8.8.8.8.8.8.8.8.8.7.8.) ) ) ) ( ^ ) ) ( ) 8.8.8.8.8.8.8.8.7.7.8.8.7.8.8.7.p.p.a.h.r.g.r.r.a.r.C.zXzXL.j.p.h.l.k.h.a.p.) P B 4 > , , 3 3 3 8 8 8 8 6 6 6 6 8 8 8 8 8 8 8 8 8 8 8 8 8 8 9 9 8 q 0 0 0 q g h h g g g 7 s g g g g h h h h h g g h h c f f f f h h v v T v v v h f v v c c c c c K c K h c c c h h v c h h h h h h h K h c c K K K K g d s s 7 7 7 7 7 7 q q q 8 q 8 q 8 8 8 8 8 8 9 9 8 8 8 4 8 8 8 8 8 8 8 8 8 8 8 4 4 4 8 D ^ i.h.l.l.l.N.N.g.j.L.zXvXqXj.r.j.j.g.a.g.g.r.r.r.8.r.g.a.p.r.r.e.e.r.r.8.8.8.8.7.7.e.e.8.8.8.8.8.8.8.7.e.8.8.8.8.8.8.e.e.e.8.e.e.r.r.r.r.r.8.8.8.r.r.r.r.r.r.8.8.r.r.r.r.r.r.r.p.g.g.g.k.l.g.p.g.k.h.h.l.x.l.h.h.k.x.V.x.x.x.x.x.N.V.C.M.M.C.C.C.C.S.D.C.C.M.M.M.M.M.M.M.N.x.l.l.l.l.l.h.g.a.p.p.p.p.p.i.7.7.r.7.7.7.E 8 4 > X X X X O O > X X X O X X X X X X X   X X X X X           O X X X X X X X O O O O O O O O + O o o o o o o o O O X . o @ @ + + @ @ + + @ @ o o O   o + o . + o . + + * - + * * + o . + * + + . + U ` g s.z.",
"Q U g U s . = = h z T T R ;./ R / R R R R R R R R R / / / / / / / / / / / / ` ` ^ ^ ^ ^ ^ ^ ( ^ ^ ^ ^ ^ ^ ^ ^ ^ ! ^ ^ ( ^ ( ( ( ! ! ^ ^ ( ( ( ( ( ( ( ( ^ ! ! ! ^ ^ ^ ! ^ ^ ^ ^ E E E E E E ! ! ! P E ( ) ! ^ 8.8.r.) ^ 7.r.7.j.p.p.p.p.p.a.g.g.g.g.k.l.l.l.x.x.x.x.x.M.V.C.S.C.C.C.C.C.S.S.S.S.S.C.C.C.C.V.V.C.x.k.M.M.k.x.M.N.N.N.N.N.N.x.j.j.j.h.j.h.j.j.j.h.g.p.p.g.h.k.j.g.a.p.g.k.k.g.g.l.p.r.r.a.h.g.p.r.p.a.g.g.g.g.a.p.r.r.p.p.p.p.p.p.g.a.r.r.r.r.r.p.p.p.a.a.p.p.g.h.j.7.7.g.g.a.p.p.g.a.h.h.g.a.p.8.M.aXlXwXg.r.g.h.g.l.h.a.p.8.^ 8.7.7.) ( ( ^ ^ ^ ( ( ( ( ( ) ) ) ( ( ( ( ( ) _ _ 7.7.7._ _ _ q.i.` ` >.>.>.i.d.d.d.s.f.d.d.d.f.f.f.f.n.n.b.b.b.b.f.n.n.n.n.n.b.b.n.n.n.f.f.f.n.b.f.f.f.d.d.n.n.b.f.f.f.f.f.f.f.n.f.f.f.f.f.f.f.f.d.d.d.q.i.i.i.2.i.2.2.2.2.2.2.i._ ` ` ` ` ` ` ` ` ` ) ) ) ) ) ) ) ) ) ) 8.7.7.7.) ( ^ ^ ( ) 8.8.8.8.8.i.h.x.l.k.l.l.g.j.P.zXlXwXg.g.j.x.x.l.l.l.l.j.j.l.g.r.r.r.k.j.g.j.l.l.a.8.g.g.g.g.g.h.g.g.a.a.g.g.g.g.g.g.g.g.g.g.g.g.g.g.g.g.g.g.g.j.j.j.g.j.l.N.l.g.g.g.j.g.g.g.g.j.l.l.l.l.h.k.k.k.h.g.l.N.M.N.M.M.M.M.N.x.N.C.M.k.k.M.V.C.J.J.D.D.J.H.H.H.H.K.L.H.H.H.L.L.H.H.H.H.H.H.J.D.S.C.C.V.M.M.l.l.l.l.l.k.h.h.h.p.p.p.r.) e.7.p.r.r.r.7.7.7.7.7.7.8.8.8.7.7.7.7.7.7.7.r.r.r.r.e.e.e.e.e.e.e.i.) ) ) 7.7.7.7.7.7.7.8.7.7.7.7.7.7.7._ _ _ 7.7.7._ _ _ _ _ _ q.i.` ` ` ` ` ` >.>.>.>.` >.d.d.2.>./ / R / >.>.>.;.R / R R / / T s - o 7 Q K 6 ^ 0 ",
"@ ; ; d v f v -.2.3.m.m.m.m.m.m.m.m.m.m.m.m.m.n.n.n.m.b.b.b.b.n.n.n.n.n.n.n.n.n.n.n.s.s.n.h.s.h.h.h.h.h.h.s.s.s.s.s.h.h.h.h.h.h.a.s.g.g.g.g.g.h.h.h.h.h.h.h.h.h.a.a.p.p.p.p.p.p.a.a.a.a.a.a.a.a.a.p.a.h.a.7.( 8.8.P ~ r.r.r.r.8.r.r.r.r.r.r.r.r.g.j.k.l.l.l.l.l.x.x.N.N.N.M.N.N.V.M.M.V.V.C.V.V.C.C.C.C.V.M.N.N.g.g.l.x.x.x.x.l.l.j.j.l.j.g.r.r.j.g.g.j.j.j.j.g.j.g.a.g.g.p.r.r.r.8.8.a.g.p.r.g.r.e.e.r.a.r.r.r.r.r.r.r.r.r.r.r.r.r.r.r.8.8.e.r.7.7.r.r.r.r.r.r.7.r.r.r.r.r.r.j.r.r.g.j.g.r.g.l.l.g.p.p.g.j.l.g.7.r.C.hXlXqXN.r.j.l.l.x.x.l.h.h.g.g.g.g.g.g.a.a.p.a.a.g.g.g.g.g.a.a.a.a.g.h.h.h.h.s.s.s.h.h.h.h.z.z.z.b.x.x.x.x.x.c.c.c.b.b.b.b.b.c.v.M.A.A.v.b.b.v.M.M.v.v.v.b.b.b.v.M.M.v.b.b.c.b.A.A.v.c.n.s.b.b.b.b.b.b.b.b.b.b.b.b.v.v.b.b.M.b.b.b.x.b.c.c.v.c.v.c.c.x.z.z.z.z.z.z.k.k.h.h.k.k.k.k.k.k.h.h.h.h.h.h.h.k.h.h.k.k.k.k.l.l.x.l.l.l.x.N.N.l.l.x.h.j.K.zXzXL.j.g.l.l.l.h.j.l.l.l.l.g.l.l.l.l.g.k.g.g.g.g.k.k.e.W r.r.p.a.a.a.a.p.p.p.p.p.a.g.a.a.p.a.g.g.g.g.a.r.a.a.g.a.a.a.a.a.8.8.g.l.g.r.r.r.g.g.g.j.j.g.g.g.g.h.k.l.l.l.k.h.p.l.x.N.N.N.N.M.M.N.N.C.C.x.l.M.N.M.M.V.D.D.C.D.J.D.J.J.H.H.J.H.J.J.J.J.J.J.J.J.J.J.D.S.C.M.x.l.j.l.l.l.l.k.k.k.g.a.g.a.7.W 7.l.g.h.l.N.N.x.x.l.x.l.l.l.x.x.x.x.l.l.l.x.x.N.N.N.l.x.x.c.N.N.N.N.c.N.N.N.N.M.N.N.N.N.N.N.M.M.N.c.x.x.c.c.v.M.v.v.v.M.A.A.A.A.T.T.T.T.T.T.T.T.T.T.T.T.T.T.T.T.T.T.T.T.T.T.T.T.T.T.m.m.T.{.{.T.m.2.b f f c d h Y g ",
"% d f u -.,.,.,.<.<.<.,.,.,.,.;.;.;.,.,.,.,.>.>.>.>.>.>.>.>.>.;.>.>.>.>.>.>.>.>.>.>.>.>.>.>.` ` ` ` ` ` ` ( ^ ^ ^ ( ( _ _ ) ( ^ ( ) ) 8.8.) ) ) ) ) 8.7.7.7.7.7.7.7.7.e.e.i.e.e.7.7.7.7.7.7.7.7.e.e.e.e.7.8.8.7.8.8.8.~ ~ 8.8.8.8.) ) ) 8.8.8.8.8.8.8.r.r.r.r.a.r.a.g.g.g.g.g.a.g.g.g.j.k.k.j.g.g.g.h.h.g.p.r.r.^ ^ ( ) r.p.e.r.e.8.8.r.r.8.8.r.r.r.r.r.r.e.8.8.e.r.r.r.8.~ ) e.8.( ~ ~ 8.8.8.8.8.8.8.e.7.8.8.8.8.8.8.8.8.8.8.8.8.8.8.8.8.) ) ~ ( ) 8.8.8.8.~ ~ 8.8.8.8.r.8.8.8.8.r.8.r.g.j.g.j.r.g.g.g.g.g.g.j.j.g.r.7.N.tXgXwXl.a.a.j.g.g.g.r.p.a.g.h.h.g.p.p.p.p.a.a.g.g.a.a.p.p.p.a.a.p.p.p.i.i.p.s.h.g.s.p.p.d.d.f.f.d.;.T K T T R ;.;.;.R T T T T T T v v v v v T T T T T v T T T T R T T T c T v v T T ;.T T T R ;.;.T b T T T T T T T T T R ;.>.2.2.>.>./ / >.>.d.a.p.p.a.g.g.h.h.h.g.g.a.a.a.g.h.g.s.a.a.a.g.g.g.g.g.p.p.g.h.k.k.h.h.j.l.l.x.N.N.N.l.l.wXjXlXP.l.g.l.N.N.l.j.l.l.l.j.l.l.g.x.g.p.g.8.8.g.l.l.r.e.r.p.e.) 8.e.r.r.r.r.r.r.e.7.8.8.8.7.7.e.7.8.8.8.8.7.8.7.e.r.r.e.e.r.r.7.W ~ ) E ! r.a.7.8.7.e.7.8.8.) 8.7.7.7.7.e.r.p.r.r.e.r.p.p.r.a.a.g.g.p.g.j.j.h.x.l.r.e.l.x.x.x.N.N.N.N.N.N.N.N.N.N.N.N.N.x.l.l.l.l.k.h.h.g.g.g.r.r.p.r.r.e.e.r.r.r.p.p.g.7.r.r.e.r.a.h.h.h.h.h.h.g.g.h.h.a.r.r.a.p.g.g.a.p.r.r.p.p.g.a.a.p.r.r.r.r.r.r.r.r.r.7.7.q.p.p.p.i.7.7.i.i.i.i.i.i.i.2.i.d.d.d.d.d.>.>.d.2.2.f.f.f.2.,.2.2.2.2.2.2.2.,.2.2.2.3.3.3.3.3.3.3.3.3.3.3.3.m.3.;.;.v u s % c ",
"v R ;.-.,.3.<.<.:.o.:.:.,.,.,.>.,.2.2.,.>.,.,.>.,.,.,.;.-.-.,.,.2.,.,.;.-.-.;.;.>.>.>.;.;.;.>.>.>.` ` ` ` ` ` ` ` ` ` ` ( ` ` _ 7.7.7.7._ _ 7.i.i.i.i.i.i.p.p.s.h.a.h.h.h.x.M.x.c.c.x.N.N.x.M.S.A.M.M.V.M.M.M.M.l.x.N.N.x.c.M.C.S.J.L.P.L.K.P.qXqXaXfXgXgXhXhXhXhXhXjXjXjXjXjXlXlXzXzXlXjXjXlXzXlXzXzXjXhXhXjXzXzXxXxXzXzXlXlXzXzXlXjXhXhXhXfXgXsXfXhXhXhXhXjXlXhXhXjXhXhXjXjXhXfXhXhXgXgXfXfXsXfXfXgXsXsXsXgXfXfXfXgXsXsXsXsXgXsXfXfXsXsXgXfXfXsXaXtXrXqXqXtXsXqXaXaXtXtXaXfXhXgXwXP.H.h.e.a.p.l.j.j.j.j.g.g.j.j.p.g.h.r.8.j.L.sXP.N.g.a.j.l.h.j.j.j.j.h.h.h.h.g.g.h.h.h.g.g.g.g.h.h.h.g.h.h.k.s.s.k.x.x.x.x.z.z.n.n.m.m.3.3.<.<.4.3.4.3.4.3.3.3.3.3.3.3.3.3.3.3.3.3.3.3.3.3.3.3.3.3.3.3.3.3.3.3.3.3.3.3.3.3.3.3.3.3.m.3.3.3.3.3.3.3.3.3.3.3.3.3.3.3.3.3.3.3.3.3.3.3.m.m.m.b.b.x.x.x.x.x.x.x.x.k.x.x.c.c.x.x.l.g.h.k.l.l.l.l.l.h.l.l.x.x.x.x.x.x.l.x.M.N.N.I.lXsXC.g.g.l.l.l.l.l.l.l.l.l.l.l.x.h.p.p.x.M.S.L.I.P.I.qXwXwXrXaXsXtXaXsXaXtXqXrXtXtXtXtXrXrXsXsXtXtXqXqXsXgXsXaXsXsXsXsXgXfXfXjXlXjXhXfXfXfXsXgXhXlXhXfXhXjXhXjXjXjXlXlXlXjXjXjXlXxXlXlXjXhXfXjXlXlXjXlXlXlXjXjXjXzXzXhXxXjXlXzXlXxXzXzXzXlXjXhXhXhXlXlXjXhXjXlXlXlXlXjXhXsXfXhXhXfXgXaXrXwXwXP.L.P.I.I.P.P.J.S.H.I.S.V.H.D.I.wXqXwXqXqXK.M.M.C.C.N.N.x.x.l.l.h.g.a.p.r.p.a.p.p.p.s.a.p.p.i.e.i.p.i.>.>.>.>.>.>.>.2.>.>.>.>.>.>.2.2.>.>.>.>.>.>.2.>.>.;.,.,.,.,.,.,.:.,.2.2.2.2.2.2.2.m.f.2.m.f.f.3.3.3.3.,.:.:.O.3.m.,.>.>.>.R R ",
"2.,.3.3.3.m.m.3.<.:.o.:.-.X.-.;.:.X.-.;.-.;.,.;.,.,.2.3.3.2.2.2.2.2.2.3.3.3.3.f.2.2.2.2.2.2.2.2.f.f.d.d.2.d.d.d.f.d.s.n.z.z.z.z.z.x.c.M.M.S.F.H.J.F.J.H.H.H.U.aXI.aXjXjXqXP.aXjXaXsXaXaXwXP.K.F.V.C.N.M.S.N.x.J.C.J.H.H.H.J.J.J.J.K.H.S.C.S.S.C.J.J.H.H.J.D.D.J.H.H.J.H.H.K.I.qXL.L.H.J.L.L.L.H.K.K.J.H.K.K.H.D.V.C.V.V.V.N.x.N.x.x.l.l.x.x.x.l.k.k.k.h.a.p.a.a.a.a.a.p.r.e.e.e.g.a.a.a.a.r.e.p.e.8.8.7.7.8.7.r.7.7.e.e.e.e.e.r.p.a.p.e.8.8.8.) 7.e.7.7.8.8.e.e.r.r.r.r.e.8.8.r.g.a.c.J.K.K.C.p.8.r.h.h.j.h.j.g.j.g.a.g.h.l.g.7.j.wXjXgXwXP.L.H.J.J.J.J.J.H.L.L.L.L.H.J.J.J.H.K.P.P.P.L.H.H.L.K.U.K.H.F.S.D.J.H.Y.G.T.T.{.{.{.|.|.|.|.|.|.|.|.|.|.|.{.{.{.{.{.|.|.|.|.|.|.|.|.|.|.|.|.|.|.|.|.|.|.|.|.|.|.|.|.|.{.{.{.{.{.{.{.|.|.|.|.|.|.|.|.|.|.|.|.|.|.|.|.|.|.|.|.}.}.}.Y.Y.P.L.K.K.K.K.K.K.K.K.H.H.H.K.P.P.P.P.P.P.P.P.P.P.wXI.P.K.H.K.L.P.K.wXL.J.wXhXrXN.g.g.g.l.l.l.j.j.l.l.l.l.l.l.j.7.h.D.tXaXH.l.i.^ ( ) 8.7.7.7.7.7.a.a.p.p.r.e.e.r.k.a.a.a.r.e.7.) p.p.g.g.p.e.r.p.h.g.g.g.p.i.r.r.a.h.h.h.g.a.p.7.g.h.h.g.a.h.x.c.M.M.c.l.k.k.x.x.x.x.x.c.x.x.c.c.x.V.V.x.x.N.V.x.C.C.C.I.C.N.J.wXL.I.wXwXwXtXtXrXsXsXsXsXaXtXwXL.wXqXtXqXwXP.P.wXwXP.P.P.P.L.L.P.H.S.x.h.x.C.D.J.S.S.k.N.S.a.x.c.g.x.J.K.P.sXlXjXxXcXcXlXsXtXaXfXqXqXqXwXP.K.K.U.K.D.A.S.F.A.M.M.b.b.b.b.b.b.b.b.n.f.f.f.f.f.f.f.f.f.f.n.n.n.m.m.m.m.m.3.3.3.3.3.3.3.3.3.3.3.3.m.3.2.,.:.:.-.-.,.3.<.:.:.,.:.,.T.}.m.3.m.3.f.f.2.",
"3.3.3.3.3.3.2.m.m.3.<.3.3.3.<.&.&.&.&.3.3.3.3.m.3.3.3.3.m.m.3.3.3.3.m.m.m.3.3.3.3.m.m.f.f.f.f.f.n.n.b.n.f.f.f.n.n.n.n.n.z.z.z.z.k.z.z.z.z.z.z.x.v.x.v.V.M.N.M.D.h.^ B 0 9 B L J 3 8 8 8 8 3 6 , 8 8 B N , , 9 8 D B B N N B B S N N N N N B S L D S D L L D L W P P W W L L L W E E E E E E E E P P W P P L D B L L S L L B 9 S S S S B B S S S B S S B B B S S S S S S S B S L S B B S B 9 9 N L B B S S B B L 9 N B B B B B B N S S B B S S S N B S S S B B S B B D D D B N B P N 8 B W p.H.fXJ.h.8.r.j.j.j.j.g.g.j.g.g.g.h.h.g.8.g.J.qXwXwXsXwXwXP.L.L.K.L.L.P.L.L.L.L.P.L.L.P.P.P.P.L.H.H.L.J.F.F.D.J.H.P.I.U.Y.Y.Y.}.}.}.}.}.}.}.}.}.}.}.}.}.}.{.{.}.}.}.}.}.}.}.}.}.}.}.}.}.}.}.}.}.}.}.}.}.}.}.{.{.{.{.}.}.}.}.}.}.}.}.}.}.}.}.}.}.}.}.}.}.}.}.}.}.}.}.}.}.}.}.}.Y.U.UXwXwXwXwXwXqXwXwXwXwXwXwXwXqXqXtXtXrXqXwXwXwXqXqXwXwXqXrXtXaXsXfXhXhXaXtXtXK.l.g.k.h.k.l.k.k.l.l.x.l.l.l.h.a.a.x.D.tXD.7.B 4 B P B E L L L S N 9 B D S B B B B B B S 9 B L L S L P L L L D S B B B B B B B D L D B S L L L L W E P L L B B S L S 9 B B 9 B B S S S S S L L L L P L P D L W P D P ~ ~ ! D ~ E ~ ( E W ( ) E E ~ ~ E ( ~ ! ~ ~ ^ ! ! ! E W ! ^ E L L E W L W L B B L 9 9 B B N B B 9 9 9 9 B E B 4 8 B , 4 9 9 B B 8 7.x.S.S.C.C.M.N.H.J.D.S.V.V.V.C.S.S.A.A.A.M.M.M.A.A.M.b.b.M.M.b.b.b.b.n.n.n.b.n.m.m.m.m.m.m.m.m.T.T.T.m.m.m.m.m.m.T.T.T.m.m.m.m.m.{.3.3.4.&.*.3.1._._.{.3.,.m.m.>.>.>.,.3.3.3.3.",
"{.{.3.:.,.,.;.,.f.2.;.O.<.3._._._.{.{._.<.3.:.r l i p u u u u i p u u u u u u u i i u u u u u u 7 7 7 7 7 7 7 7 q 8 6 6 , 6 6 8 0 9 8 8 6 6 8 8 8 3 , 8 9 8 6 6 B 0 B B B L L 9 B B B ! E B 9 B 4 L L B D P E ! D D D D L L L D L L W ! E P W ~ ^ ! ! ^ ^ ^ ^ ( ^ ~ ) 8.) ) ) ) ~ 8.7.8.^ ! ~ 8.^ ( ) ^ E W E ( ( ^ E E ! E E ^ ! ! E E W P W E P P P P P P P P W W P P L L L P P W W P P W W P E L L P P L L P W P P L L L L L D L P L L P P P D L L P L L L D S L L D D L L L E L L W L N N W M.tXaXN.8.r.h.p.j.h.j.j.g.p.g.h.h.h.r.~ W ^ ( ~ 8.8.8.8.8.8.8.8.) 8.8.7.7.7.8.8.) ) 8.8.) ( ( ( ( 7.i.p.r.8.) ^ ( >.d.d.>.,.;.;.;.;.;.R ;.;.;.>.>.>.>.>.>.>.>.>.>.>.>.>.>.>.2.2.>.>.>.>.>.>.2.2.>.>.>.>.>.,.>.>.2.2.2.2.d.f.f.w.>.2.2.2.2.2.2.2.f.2.>.>.>.>.;.;.2.2.2.>.` q.p.p.r.r.p.p.q.7.7.7.8.7.7.7.7.7.7.7.7.7.8.8.8.7.e.e.7.e.e.7.7.8.) ) 8.8.e.r.a.h.h.g.x.l.l.l.l.l.x.N.x.l.p.a.S.rXI.N.E B B E E B L ) E P L L L L P E W P P P P E E E ! P P E P S L P D D D D L E ! E W W L L L E W L ! P L L L L P ! P E ! E E E ! E ( ( ^ ^ ( ^ E E ! ! ! E E E ^ ! E ! ! E E ! ( ) P ) ) 8.P ! 8.7.r.r.r.7.7.e.r.r.e.7.8.8.) ) 8.r.e.) ^ ( 8.8.( ^ ( ^ ^ ( ^ ^ ^ ) E E ) e.( L P E ( L L L S ! E L 9 W p.p.W N S D D D B N 8 N B B 9 8 3 8 8 9 9 8 9 B B 8 8 0 B 0 B 0 0 8 8 q q 8 q q q 7 7 g g s f p i p p p p p e p i p p i i p u f f f f p p r a :.3.{.|.{.|.|.|.|.{.3.,.2.;.` ` / >.2.2.3.|.|.",
"}.}.}.m.>.;.>.>.>.>.>.-.-.;.,.:.3.m.:.X.-.;.v f f d d d d g g h d d 7 d g g h g h g g g g g h h g g 7 q 7 q g g 0 0 B 0 0 0 B J B B B B B B S J L L B B S L L L J L L J J L B 8 P E i.M.x.E 9 8 P W S B L S S E P L L P E E E P W ~ ( ! W E E W E E E W W E ! E ! ! ! ! ! ! ( ) ( ( ( ( ( ( ( ( ( ( ^ ! ! ( ( ( E E P L P E E E P W W W W W W W P P L L P P L L L P L L L P L L D L L L L P P L D L L L L L L L P L L L L L P P L L L L L L L L L L L L L L L L L L L S S L P L S L S S L P L L N N ( C.L.V.h.g.e.r.r.8.7.r.r.7.7.( ( 8.8.^ ^ 8.^ ^ ^ ^ ~ ( ) 8.8.) ) ( ^ ^ ( ) ) ) ) ) ) ) 7.7.7.8.8.( ^ ( ( 8.^ ( ` ` / / ;.>.>.>.>._ >.>.>.2.>.` ` ` ` ` ` ` ` ` / / ` R.R._ ` ` / / Q / ` >.q.q.q.>.>.>._ 7._ ` / R / ` q.q.q.>.>.` ` ` >.>.q.>.>.>.>.>.>.>.>.` _ 7._ 7.7.r.7.7.8.8.8.7.7.7.i.7.7.8.8.8.8.8.7.7.8.8.) ) 8.8.8.) ( ( ( 8.7.e.r.7.7.e.7.8.7.r.e.e.i.p.p.e.e.p.p.M.P.P.c.! B B L ! ! P S P ( ^ S S L L L L P P L D L L P P P W P L P P P P E ! E ! ! P L L L L E E E L L P P L L L L L P P E ( E P P P P P E ! L L L L P E ! ^ E E E E P E ^ ! E ^ ! E E ! ^ ! ) ~ E ) ) ) ) ) ) ) ) ) 7.e.e.e.) e.e.8.) ) ) ) ) ) ) ^ ! ^ ( ( ^ ^ ! ! ^ ( ) ( ) P E ^ E E ! ) ^ ) P E B B ! L B 3 ( H.D.8.S L L L L E L B B P L L D D L L L L L D B B S L S B J B B B B B B B B J J g g J J Z c c g c g c c c c c c c c g c K K J g g h c v c b 2.,.X.X.3.{.m.3.,.v ;.f.>.>.>.>.d.d.f.G.}.nXT.",
"T >.T.Y.T.f.` / / ` >.>.>.v u $ k u p v f u 7 7 q q 0 0 0 0 0 0 0 q 0 0 0 0 q q 0 0 Z Z Z Z Z B g 0 q q 0 0 g 0 0 0 B B B 0 B B B B B S S B B B B B B 0 0 B J J B B S L L B B J 8 8 9 J B 8 0 B B 9 B D S P E L E P L D L P E E W P P P W E E W P E E W E ~ ( ( ! ^ ^ ! ! ~ ~ ~ ~ ! ! ~ ) ) ) ( ^ ^ ^ ^ ( ( ! E P ! E P E E E L L L L P P P P P P P L P P P P P B L L S L E W L L D D L L S S L S L L S L L L S B B B S S S D D S S S S L L L L L S S S L L L L L S S L L L D L B L L L L L L L L L 8 , D g.N.l.J.L.wXwXwXqXtXaXrXtXaXaXtXaXaXaXaXaXtXqXwXwXqXqXtXtXtXqXwXqXtXaXaXtXtXqXqXtXaXsXaXqXwXL.P.qXsXhXfXsXtXI.aXdXkXkXgXfXkXhXhXhXfXkXsXaXaXsXkXjXlXxXnXjXjXkXkXjXjXjXjXjXjXjXjXjXnXnXjXlXjXjXjXjXjXjXhXhXkXdXkXkXjXjXkXkXkXkXjXjXlXlXgXgXfXfXhXhXjXjXfXsXfXhXgXsXsXaXtXtXtXtXtXaXsXsXtXqXqXqXrXtXtXsXaXsXsXsXsXsXsXsXgXsXaXtXtXaXsXsXtXtXwXL.L.qXtXtXsXtXtXaXsXaXtXqXV.N.e.L 9 L E E ) L 9 B L P P B L P E P L L L S D L P P P L P P L L P P L P P D D L P L L P W P B D L L L P P P E ! E E P P L S E L L P E W L L E E E E P P P P L P E ! E E ! E ! P P ^ ^ E E ( ) ) ( ) ) ( ( ) ) 7.e.) 7.e.e.( ) 8.8.) ) e.7.( ( ) ) ^ ^ ( ( ^ ^ ^ ! E E E E P E P W E E ! ! W L P P W ^ B S L 9 3 3 9 B B N B L P P L S L L L S D L D S S L L L B B L L S B S S B B L L J J L S J J J J J J B S S S S J S L L J J J J L S S L J J g g J c c h d 7 s h f f i & # - / d.d.d.>./ ` >.q.Y.sXD.k.^ ",
"n.n.b.T.Y.T.>.;.>.R ;.>.>.>.U 7 & v b f s d g g 0 0 B B B B B B q 7 q 0 0 0 0 0 q q g g 0 g Z 0 q 0 0 g J B 0 0 B B B B B B B 0 9 0 0 B B B B B 0 B J J B B B B L B 9 B L L J J 8 0 9 B S J P L B E P D ! ! L L L L P E E P P L ! P L P E P L E W E E E E E E E L E E ! ^ ( ( ^ ! ! ! ( ^ ^ ( ) ^ ( ) ( ^ ! ! ! E ! E E E E P P W W P W E E P P P L L L L L L L P P I L L L L L L J J L L J J L P L L L L L L S L L L L L L L L L L L L L L L J L J S J L L L L L S S L L L L L L S S L P P L P D L E E B 8 8 B x.l.N.S.J.C.N.N.c.N.N.N.M.S.C.N.x.x.l.l.l.l.l.x.k.k.l.l.l.l.k.l.k.k.h.h.k.z.x.x.N.N.N.N.N.x.k.h.h.k.z.k.x.x.k.s.s.s.z.x.v.v.v.v.x.x.x.c.v.v.A.A.A.M.v.v.v.c.v.v.b.b.m.T.T.T.v.b.b.b.v.b.v.v.M.M.x.x.x.x.b.b.b.b.b.b.b.c.c.x.b.b.x.x.x.x.x.x.x.x.c.v.N.M.M.M.v.x.x.x.x.x.l.k.k.g.k.k.l.x.x.x.x.x.k.k.l.l.x.x.x.x.x.x.x.N.N.x.x.x.x.N.V.M.x.x.N.N.c.x.c.M.S.D.M.k.S B S E ! E U U D P E E P L E L P L L P P P W E L L L P L L L P L L P E E E E P E P L P E E P L L L P E W P P P L W E P P E E P S L E ! E W E ! L P W E ! ! ! ! E E ! ( ! ! ! E L E ! E E ( ( ! E ( ) ( ) 7.7.e.( 7.7.7.7.e.e.8.e.e.8.) ) 7.) ( ) ( ! ^ ( ) ( E ^ ! ! ^ ^ ^ ^ ^ ! ( ! E E E E E ( E E P ( E S E ! ! P S B B B L L E L B S E P 9 S L D S S D L L N B S L S B S L B S D D D S S L B B B J S B B B B S D S S S S S S B B J S S S J g h g c c c g 0 g c J J U Y h * 1 _ i.>.>.>.2.2.>.d.U.kXH.c.M.x.",
">.>.f.m.T.}.m.,.-.;.>.>.;.>.` K ; $ h T K 7 g 0 0 B B B B B B B 0 0 q 0 0 0 0 0 B 0 0 B 0 B B S 0 0 0 0 0 0 0 J 0 0 9 0 B B B B S B B B B B B B J B B S J J J J B L L B J L J B I I L L L P I L W L P W P L L E P P W P L P E E P E E E E E E E P P E ! ! E ! ( ( ( ( ^ ! ( ( ( ( ( ( ( ( ^ ( ( ^ ( ( ! E ! ^ ( ! ! E W E E P E P P P P E E P L L L L L P P P P L L P I L L L I L P P L L I I L L D L L P L L D L L L L L L L L L J J L L L L L L L L L P P L L L L L D S L L L B L W L B L P S L D D L W W L S N B B 9 9 B D B 8 8 8 N 8 4 4 9 8 8 9 N N N 8 8 9 8 8 8 8 8 8 8 8 9 9 B B B 0 9 9 9 N B B B B B 0 S L L S S L J J J J J J J J J K J K K K c q 7 s j h K L L J S J c c h Z Z Z Z c c c c J U L L S J J J K v T K c c c c J K U I I U U K U U K J J J J Z 0 J J 0 0 0 ] ] ] S S S D D D S S N 9 8 9 9 N N N N 8 4 4 8 N N N N N B B N B D D D S B B L L S B S B 9 L L P P P P P E L L L E P L E E W L L P E L L P P P P E W W E E P L L W W E E W L P P P L L L E E P P E P L L L P L P E E W E E E E P L L E E E E E P P P E E E ! P W E E E E E ! ! ! ( ! E E ( ! E ( ( 7.( ( 7.7.) 8.7.7.) 7.e.( ( ) 8.) ) ( ) ) ( ( ) ) ( ^ ( ^ E ! ( ^ E E ^ E ! E E ( ! W E E E P ( P P ^ E S P E E ! L D E L B B L P L B S W L B B D P L B S P L N N L L S B D L D B S S B S B B J J J S S B S L D D D D S S J J J J J J 0 J g g g g g J J J J J 0 U K 7 q >./ >.d.d.>.>.>.b.G.dX}.v.k.^ L ",
"2.k v 2.f.T.}.T.,.;.>.>.>.;.>.>.K 7 * J U Z 0 g Z Z Z 0 0 J g q 0 c 0 g ] 0 J S 0 B S S 9 B S N 0 J B 0 B 9 9 J S S B S B 8 9 L B 0 B B 0 0 S B 0 L J B J L S B B J J B 0 B S J J L J B B L L J E P L L L E P L P E P P L P E E L P E E P L L P P E E W E ! ! E ! ! ^ ^ ^ ! ( ) ( ( ( ( ) ) ^ E ( E E E ( E ( ( E E P P E E E P ! P L P P P W P P P P P P P L L I L L L L L L I L L J L L J L L L L L L L S D L L L L S L L L S S L L L L J L L L L J J L L L P P L L L L L L L E L L D L P L S L P P L L P P P E E P E E E E E E E L L L P P L L L L L L L L L S S D D L L L L P L L L L L L P L L L L L I I U I U I E E E ^ ^ Y Y R R R R / / >.Y R >./ / Y ;.O.O.X.;.Q ^ 8.~ ^ ! ! E ! ( 9.~ ^ / Q Q ^ ^ ^ ^ ^ ^ Q T T b m X.T R R T / / T >./ R Q / / R R R / / Y Y Y U U U U I I P P P L D P P P L P P P P P P P P P D D D P L L L L L L L P L L L P E E P P P P I I E I I I I I I L L L I P P P L L P P L L L L L L P E W P P P P P P P P E L L L L L L P P P E E P P L L E L L L P L P P E L L W E P P E ! E E E P P W E E P L E ! W L E E ! P L E E E ! E E E ! E E E ( ^ ^ ( ( ( ) 7.7.e.7.7.e.7.) 7.p.7.) ) 8.8.) 7.7.) ) ) ) ^ ! ! ! ! ! E E E E E W E E E E E ! ! ^ ! E W E ! E E E L L L P P L P E L S L P 9 8 L E P S B P L B N L W S B S L S B B P S B S S L L J L S B B S S B B D D S D L L L J J J J J c J K J L S S S D L L J I 0 K Y h * u 2.>.>.>.2.>.>.>.m.}.kX}.d./ T c / ",
"n ,.v u >.T.T.}.}.>.>.R ;.;.;.R ` J 8 o q Q K 7 7 ; u s u u u u s * 7 : : 7 : 0 g 6 6 0 8 , + 6 6 + + 8 B 8 3 9 6 9 9 9 S L B B S 0 B J J B B J J J 0 0 S B B J B 0 B J L B B L B J L L L J L E L L L L L P P P L P E P L L L P E P P P E E E E ! ! ! E E ! ! E ! ! ! ! ! ! ! ( ( ( ! E E ! ) 7.) ( ( ^ ^ E P E E ! ( ! E P P P E P E E P L L L E E W P P P P P E I P P L L L L E I L P L L L L L L S L L L S L L L L L L L L L I L L L L L L L L L L L L L L L L S S L L S S L E L L P E P P P P L S D L L L L E E E E P L P P P P E E E P L L L L L L L L D D L L L L L L L L L L L P L L L L L L L L U U U U I U Y Q Q Q Q Q Y T Y Y R R R R ;.R R R T T R 2.9X|.4.a b R Y ` Q Y Y R R ^ ^ ^ Y T Y R R R T T T T T ;.X.m 3.nXT.v v ;.Y R / R / R R R R R R R R R Y Y Y Y Y Y U I I P P P P P L L L L L L L L P L P P P P P P P P P L L P L L E P P P P P P P P P P I I E E I I P I I I I I E ! W L L L L L E E E W L L L L L W P L L L P P P W P P P P P P P E P P P E E P L P P P W E E E E ( ( ! P P W E L W P P E P P L L E ! E W E ! ! E P E ( ! E E ! E ^ ^ ! E ^ ( ^ E E ( ) ( ( ) ) ^ ) 7.7.( ( 7.7.) r.7.) ) 7.) ) ) ) ( ^ ( ! ~ ( ( ^ ^ ^ E E E ! E ! ! ! E E E E E E ! ^ E P L E ! ) ( P S L E P B L L L L D P E L S L P P D D P P S N S P D 9 N P S B S L L 8 6 0 , , 6 8 8 8 8 9 0 0 0 0 0 8 q q d 7 s s s s j ; 7 8 8 q 8 6 q J c c / g % : R >.;.>.>.>./ b.Y.Y.nXjXn.h s c >.>.",
"v c T c % Y G.U.U.U.q.>.` ` / >.q._ Z * * d R T T -.;.:.O.O.O.o.;.,.-.,.;.-.,.>.;.;.T T T T T K U B J 0 O + 8   , , , , 8 B B B B S B 0 B J B 0 S J B B J B 0 B L B B L L B B L L L L I L J L E J L I I P P I E L I E I L P I E E P P P E E E E E E E E E E ! ! ! ! ! ! ^ ^ ( ( E ^ ) ) ( ( ^ ^ E ! ! ^ ^ ^ ! ^ ^ ! E E I E E E E E E ! E P E E E E P P P P P P I L L L P L L L E P L L L L L L P L J L L L J J S L L L L L L L L L J J L L L L L L L L L L J L L L L L L L L L E L L E I L L E E P P E E P P E E E E W P P P E W W W P L L P P P P L L L L P P L L L L L L L L J L L L L L L L L L L L L U U U I U Y Y Y Y R Y R T R R / ;./ ;.R >.>.R K T Y -.9X4X9X#.a { n a l n m m m m m m n n n n l n n n X.l | { [ 1.9X4Xm.Y T R T R ;.T R / R R R R R R R Y Y Y Y Y Y Y I I I I E W W W L L U U L L P P P U L L L L L P P L L L L L L L L P P P L L P E P L L L U P I E P P P P E P P P P L P E E P L L E E E P L P P P ! E P L L U P P P P P P P P P P L P P P L L P P P P P P E E E P P L L P P L P E E E E E E E E E ! P P E E P P ! E E P W ( ^ E E E E ! ( ! P E 7.( ! E ( ) ( ( 7.p.e.7.7.e.p.e.) 7.7.7.) ) 7.7.) ) ( ) 7.8.) ( E ^ ( ^ ! E E ! ! ! ! E E E E E E E ! E P W E E P ( E W P E P L L E P L L L L D B S L L S S L L S S L L S S L D S B P L 9 6 8 8 6 8 8 6 6 6 8 S J U Y T K T ;.;.T -.,.,.;.-.,.,.:.:.:.:.:.:.,.;.v T Y 7 + 8 i.i.7.i.q.>.>.q.G.Y.hXjXs.Z J I ^ I U ",
"c c c c g 7 I v.UXF.dXs./ >.Y ` ^ Q >.Y 7 = ; T >.,.,.:.:.:.:.:.:.,.,.,.,.,.;.;.2.>.;.;.2.2.2.d.b.V.A.v.p.S 6 0 0 8 , , 3 6 9 L B J B 9 B B 0 B 0 J L J B B B B J J J B B J L J P L J J L J L L L L P L L L P E P P I L L P I E P P W P L L W E P P P E E E E ! ^ ! ! ^ ( ( ( ( 8.) ( ^ ^ ( ( ^ ^ ( E ^ E ^ E E ^ E L L I E E E P L P P L L E E P L L L L P P P E L L L P P L L L J J L L L L L L L J L L L L L L L L L J J L L S J J J B S J L P L J J J J J L L L L L L L L P P L L L L S J L D L P E P L P E L E W P L P E E E P L D S D P P L D D D D L L L L L S S S S L U L L L J J L L L L L L L L U U U Y Y Y T T T R R T T T R R R ;.;.;.;.>.R T Y Y n #.9X9X9X{.3.{.{.{.{.{.{.m.m.{.{.{.{.{.T.T.T.T.{.{.T.m.m.{.9X9X4.b / R K T ;.T ;.R ;.;.R R R / R R R R Y Y Y U I Q E E I I W W E P L U U L L L P U L L L D S S D L D L L L L L L L L L L L L P E P P L L L P I E E P P P P P U L E E P L D P E W P P P L L P E E P P P P P P P P P P U U P P P P L P E P L L L P P E P L L P P P E L L E E P L P W P P P P W E E W E E P L E E P E S E ( L L ! ! E ! E P E ( ( ! E ( ( E ! 7.e.7.( ( 8.7.7.7.7.e.) 7.e.7.) ) 7.7.p.7.( ( ( ( ( ! ^ ^ ^ ! E E ! ^ E E E E E ! ! ! ) ^ E E ( ) ! P L L P E E L L E L L S S D B B L P L S L L S S S L P S 9 S W P 9 L S 6 , 3 , 6 B 0 B ^ x.M.x.v.K.b.d.2.f.f.2.2.2.m.f.>.2.m.f.3.3.3.3.:.:.2.,.2.>.Y d 7 6 ^ ( 8.7.7.q._ i.v.A.lXlXp.8 L ! P E P ^ ",
"U J q 0 K g g Y G.}.Y.Y.s.` ` ` Q q.` Q h - 7 = 7 7 * . ; c d % & % % # & u & % * = % % * * * : 6 + O , L q.p.^ J B 8 , , + 3 B B B 0 B J B B L B S J B 0 B J J 0 J J B B L L J S J S S J L L J L L L J J J L L P P L L L L L L P E ! P P P P E E I E ! ! E E ! ( ! ! ! ! ! ! ! ) ( ! E ! ! ( ) ( ( E ! E ^ E I I E ! ! E E E E E P P P L L P P L L L L P P P P E P L L L L L L L L L L L L L L L L L L L L L L L L L L L L L L L L S S S S S S L L S S J S J L J J J J J L L L P P L L L L L L S L U L L L P P P E P L U P P U P U L L L L L L L S S S S J L L L L S S S L L U L L L L L L L L U L L L L U I I Y Y Y R T ;.;.T R R R ;.;.;.;.;.>.;./ R Y Y R ;.;.O.O.4.2.2.2.2.2.4.4.4.4.2.3.3.2.2.4.4.4.4.2.2.>.f.2.>.,.:.4.X.T R Y Y Y ;.;.>.;.;.>.;.R ;.;.R ;./ / R R Y Y I Q E E I I I I I L L L L L L L L L J J L L L L L L L L L L L L L L L L L L L L P E E P L L P E E E P L P P W P P E E E L S L P P L P P L L P P P S J L U P P P P P P P P P P P P E P L L P E P U P E P L L P I P P E E P P E E L P P L L P P W E P E E W P E E P ! E L P ^ ! E ! ( W W ^ ( E E ( ( E E ) ) ( ! ) 7._ ( ! ! ) 7._ ) e.e.7.) ) _ 7.7.) ( ( ! ! ( ( ( ! ! ! ! ! ! ! ! E E E E E E E E E E ! ! E E E ! ! P L P E E L L L L L J S J E L S L P L B B I D S S L S S S L 0 8 O , 8 8 B L I _ _ L 0 B B 6 o 6 8 * 1 q q q @ 7 d : * % = s ; f ; * % * c g * o 6 ^ I ( _ q.>.q.d.K.A.zXjXq.B B S E E 0 U s.",
"J U L J Z Z J K / G.A.M.U.n.` ` >.T Y s d c 7 7 7 g g 7 7 S J g 7 g 7 7 7 7 K c * q 0 7 6 q 0 1 J J 1   O O 8 7.E E J 6 , , , , 8 J J 0 0 S S B J 9 9 B S B S S B J L L L J L L B L I L L L P L L L L P I I P I L P I I I E I P P I P P P E E P E E ! ! ! ! ! ! ! ! ! ( ! ! ( ` P ! ) ) ) ( ! ! E E E ^ ^ ( ^ ^ E E E E E E E E E P E E E E W P P P P P P P P P L L L L L P L L L L L L L L L L L L L L L L L L L L J L L L L L P L S S L U L S J S S L L L S S J J J J J L L L L P P L P E E P E E P P P ! ! I E E E P P I P P P U L P P P P L P P L L L L L L L U P P P L L L L L L P L L L L U U L L L I I I I U R R R ;.;.T ;.;.;.;.;.;.;.>.;.;.;.>./ K Y >./ >./ T T v b v b b b T -.-.-.R b T T T T b T T R R Y R R T ;.;./ Y T Y ;.>.>.;.;.;.;.;.;.;.;.;.;.;.;.;./ / Q Y E I E I P P P P U L L L L L L L L L L P P L L L L L L L L P P L L L L P P P P P E E P P L P P E E P L P E E E E L P E ^ ! P L P L P P L L P P P L L L U P P P P L L P P P P P U L L S L P P P L L U P P P P P P L L L D L E E P P P P E W P P E E L P ! ! P P ! P E ( ^ L W ( E L E ( ! E ! ^ ! E ( ) E ! ) ) ! ( ( 7.p.a.i.` ! 7.7._ _ 7.e.7._ ( ( ) _ ) ( ( ! ^ ! E ! ! ! ! E E E E E E E E E W W E E W L P ! ( ! I P E ! E L L P E L L P U S S S S J J J J J B S L L L S S S , 8 3 8 0 L ( E ( S O   O 3 8 9 3 B B 8 6 B 0 + B J 0 8 B L 0 + ] ^ J 6 q I E 6 6 6 0 0 Q _ d./ Y ` b.F.xXjX_ 0 J L E J 0 ^ _ + ",
"1 0 Q ( L B 0 q 0 ` b.U.Y.Y.n./ K h s c T c K g 7 q J g 6 6 q J 0 q J 0 8 8 8 U B 8 0 P I L L E J Y ^ U 6 o     L E I B 8 8 , , , 0 J B 0 J J 8 J 9 0 L J S S B L J J L L B S L L L P L L L P I L L P I E I I E L P I I I E E E P P P P P ! E P I E E E ! ! ! ! E ! ! ( ! ^ ( 7.! ( ) ` ( ! ( ) ( ^ ( ^ ( E E ^ ^ E L P E ^ ! E P L P E P P W P P P P P P P P P L L P L P P P L L L L L L L L L L L L L L L L L L J L L L J J L S S S S L L L J J S S L L L L L L L L L L I I I L L L L I I I I P P P P P E ! ! E E E E E I I E P P U L P P P P L L L L L L L L L L L P P U U L L L L P P L L L U U U P I I E E I Y R R ;.;.;.;.-.;.;.;.;.;.;.;.;.;.;.>.>.K T R / >.Y R >.R R R Y R / / / / R R R R R R ;./ / / R R R R T / >.R T / R R >.,.,.,.,.;.;.;.>.,.;.;.-.;.;.;.;.R R Y I I I I I U U U U I P P I I P I L L L P P L L L L L L L L P P P L L L P P P W W P W P P P P P E E P P E E E E E E P P E E E E ! L P P P P P P P P P P P P P P P L P P L L U P P S L P P L L L P L U P P P P P L E P P E W L P E L L P P E P L P L E E P E ! E P P ! E P ! ! P P ! P L E ( ^ ! ( ! ! ^ ( ( ~ ( 7.! ( ) 7.` ( e.k._ ) ( _ e.e.e.e.7.) ) ( ! ( ` ( ! ! ! ! ! ! ! ! E E E ! ^ ^ E E ! ! ! ! ! ^ ( ( P U P ! ! P P ! S S L L L I I S P L L J L I L B J L L L L P B 3 8 3 , S L E 7.E , > 3 B P E L B I 0 0 I ^ L S L I 0 0 L P B B L E 0 3 0 I E L Z Z / K h g K T Y b.A.K.jXkXq.K Q K Q U q I E , , ",
"8 1 2 B L I J 6 6 U ` }.UXG.}.f.K T T R T T Y R Y c c Y U 0 q ] I S 0 D S 8 9 S L B B L B N B Z 0 * 6 I _ _ L + X 8 L I J 6 + , +   6 I I B B L J S L J 0 B L L J B 0 B B B J L P S 0 B J L L E L J J L L J L I L I P J B S L I U E ! I P P E E E ! E E E ! ! ! E ! ! ( ! ! ! ) ! ! ! ! ( ( ) ) ^ E ^ E ! L E ( E E E ! ! E E E ! E E E E E ! ! P P P L P P W E L E E E P P L S D L L L L P P P P L L L L L L L L L L I L J J L S L L L S B S L L J S L L L U P J L L L L I I I P L P I I L L P S S U P P P ! ) E P E E I L L P S L U P L L L L L L L U L P P P L L S S S L U P L L L L L L L P U U P I E E E E ( / / ;.>.>.>.,.,.,.,.,.,.,.,.,.,.,.;.>.>.T R R Y / / / R R / ^ ( ( 8.( ` / R R / / R R R / / / R R R R R R Y / / T R >.,.,.2.2.,.,.,.,.,.,.,.,.,.,.,.>.>.;.R Y I I ' ' ' ' I I U P L L L L P P S J J L L L L L S S S L L P P P L L P P P L L P P E E E E E E E E E E E E W P P E E E E E ! E L P E E E P P L L S L U P E E I P E E P L J P E ! P P P E ! ! E E ! E I E E P L P L E ! E L P E P P P E E E E E E ! P P ! ! W P E E P P ! ^ P L ( ( ( ! E E E ( ) W ^ ) ) ( ( ) ( 7.e._ ( ) e.7.! ) ) ) 7.7.7.7.e.) ( ( ( ( ( ` ! ( ( ( ` ( ! ! ( ! ! ! ^ ( ^ E E E ! ( ! ^ ( ( ! S P E L L L P P P S S U S S S 9 J L L L S S S L L S B S L L 9 3 , 3 3 B L ( 7., 9 W e.p.( P P ! ^ E I I I I I U B L P S B L ^ ! 9 , 0 ! ` U g U Z g T / h % h / 7.P.P.UXv.Y T Y U c Z ` E 8 B N "
};
